;FLAVOR:Marlin
;TIME:1973
;Filament used: 0.653719m
;Layer height: 0.2
;MINX:94.7
;MINY:94.7
;MINZ:0.2
;MAXX:140.3
;MAXY:140.3
;MAXZ:30
;Generated with Cura_SteamEngine 5.2.0
M140 S80
M105
M190 S80
M104 S200
M105
M109 S200
M82 ;absolute extrusion mode
; Ender 3 Custom Start G-code
G92 E0 ; Reset Extruder
G28 ; Home all axes
G1 Z2.0 F3000 ; Move Z Axis up little to prevent scratching of Heat Bed
G1 X0.1 Y20 Z0.3 F5000.0 ; Move to start position
G1 X0.1 Y200.0 Z0.3 F1500.0 E15 ; Draw the first line
G1 X0.4 Y200.0 Z0.3 F5000.0 ; Move to side a little
G1 X0.4 Y20 Z0.3 F1500.0 E30 ; Draw the second line
G92 E0 ; Reset Extruder
G1 Z2.0 F3000 ; Move Z Axis up little to prevent scratching of Heat Bed
G1 X5 Y20 Z0.3 F5000.0 ; Move over to prevent blob squish
G92 E0
G92 E0
G1 F2700 E-5
;LAYER_COUNT:150
;LAYER:0
M107
G0 F6000 X101.558 Y101.202 Z0.2
;TYPE:SKIRT
G1 F2700 E0
G1 F1200 X102.102 Y100.719 E0.0242
G1 X104.365 Y98.894 E0.12089
G1 X105.004 Y98.43 E0.14716
G1 X105.625 Y98.065 E0.17111
G1 X108.193 Y96.712 E0.26765
G1 X108.91 Y96.38 E0.29393
G1 X109.593 Y96.14 E0.31801
G1 X112.373 Y95.308 E0.41453
G1 X113.14 Y95.121 E0.44079
G1 X113.854 Y95.018 E0.46478
G1 X116.745 Y94.737 E0.56139
G1 X117.534 Y94.7 E0.58766
G1 X118.302 Y94.741 E0.61324
G1 X121.37 Y95.058 E0.71582
G1 X122.15 Y95.179 E0.74208
G1 X122.912 Y95.377 E0.76826
G1 X125.737 Y96.267 E0.86678
G1 X126.477 Y96.543 E0.89304
G1 X127.146 Y96.869 E0.9178
G1 X129.724 Y98.284 E1.01561
G1 X130.396 Y98.699 E1.04188
G1 X130.982 Y99.144 E1.06635
G1 X133.22 Y101.02 E1.16348
G1 X133.798 Y101.558 E1.18974
G1 X134.281 Y102.102 E1.21394
G1 X136.106 Y104.365 E1.31063
G1 X136.57 Y105.004 E1.3369
G1 X136.935 Y105.625 E1.36086
G1 X138.288 Y108.193 E1.4574
G1 X138.62 Y108.91 E1.48368
G1 X138.859 Y109.592 E1.50771
G1 X139.691 Y112.371 E1.6042
G1 X139.879 Y113.138 E1.63046
G1 X139.982 Y113.853 E1.65449
G1 X140.263 Y116.743 E1.75106
G1 X140.3 Y117.532 E1.77734
G1 X140.259 Y118.295 E1.80275
G1 X139.946 Y121.344 E1.90469
G1 X139.826 Y122.124 E1.93094
G1 X139.628 Y122.885 E1.9571
G1 X138.734 Y125.731 E2.05631
G1 X138.46 Y126.471 E2.08256
G1 X138.131 Y127.146 E2.10753
G1 X136.716 Y129.724 E2.20535
G1 X136.301 Y130.396 E2.23162
G1 X135.856 Y130.982 E2.25609
G1 X133.98 Y133.22 E2.35322
G1 X133.442 Y133.798 E2.37948
G1 X132.898 Y134.281 E2.40368
G1 X130.635 Y136.106 E2.50037
G1 X129.996 Y136.57 E2.52664
G1 X129.375 Y136.935 E2.55059
G1 X126.807 Y138.288 E2.64714
G1 X126.09 Y138.62 E2.67342
G1 X125.407 Y138.86 E2.69749
G1 X122.627 Y139.692 E2.79401
G1 X121.86 Y139.879 E2.82027
G1 X121.146 Y139.982 E2.84426
G1 X118.255 Y140.263 E2.94087
G1 X117.466 Y140.3 E2.96714
G1 X116.698 Y140.259 E2.99272
G1 X113.63 Y139.942 E3.09531
G1 X112.85 Y139.821 E3.12156
G1 X112.088 Y139.623 E3.14774
G1 X109.263 Y138.733 E3.24626
G1 X108.523 Y138.457 E3.27253
G1 X107.854 Y138.131 E3.29728
G1 X105.276 Y136.716 E3.39509
G1 X104.604 Y136.301 E3.42136
G1 X104.013 Y135.852 E3.44605
G1 X101.762 Y133.962 E3.5438
G1 X101.184 Y133.424 E3.57007
G1 X100.704 Y132.882 E3.59415
G1 X98.892 Y130.633 E3.69021
G1 X98.428 Y129.993 E3.7165
G1 X98.065 Y129.375 E3.74034
G1 X96.712 Y126.807 E3.83688
G1 X96.38 Y126.09 E3.86316
G1 X96.14 Y125.407 E3.88724
G1 X95.308 Y122.627 E3.98375
G1 X95.121 Y121.86 E4.01001
G1 X95.018 Y121.146 E4.03401
G1 X94.737 Y118.257 E4.13055
G1 X94.7 Y117.468 E4.15682
G1 X94.741 Y116.701 E4.18237
G1 X95.058 Y113.63 E4.28505
G1 X95.179 Y112.85 E4.3113
G1 X95.379 Y112.082 E4.3377
G1 X96.277 Y109.239 E4.43686
G1 X96.553 Y108.499 E4.46313
G1 X96.88 Y107.83 E4.4879
G1 X98.287 Y105.271 E4.58503
G1 X98.702 Y104.599 E4.6113
G1 X99.144 Y104.018 E4.63558
G1 X101.02 Y101.78 E4.73271
G1 X101.558 Y101.202 E4.75897
G0 F6000 X101.851 Y101.474
G1 F1200 X102.353 Y101.031 E4.78124
G1 X104.616 Y99.206 E4.87793
G1 X105.239 Y98.755 E4.90351
G1 X105.812 Y98.419 E4.9256
G1 X108.38 Y97.066 E5.02215
G1 X109.078 Y96.743 E5.04773
G1 X109.707 Y96.524 E5.06988
G1 X112.487 Y95.692 E5.1664
G1 X113.235 Y95.51 E5.192
G1 X113.893 Y95.416 E5.21411
G1 X116.784 Y95.135 E5.31071
G1 X117.552 Y95.1 E5.33629
G1 X118.261 Y95.139 E5.3599
G1 X121.329 Y95.456 E5.46249
G1 X122.088 Y95.575 E5.48804
G1 X122.792 Y95.759 E5.51224
G1 X125.617 Y96.649 E5.61075
G1 X126.337 Y96.918 E5.63632
G1 X126.954 Y97.22 E5.65917
G1 X129.532 Y98.635 E5.75698
G1 X130.186 Y99.04 E5.78256
G1 X130.725 Y99.451 E5.80511
G1 X132.963 Y101.327 E5.90224
G1 X133.526 Y101.851 E5.92782
G1 X133.969 Y102.353 E5.95009
G1 X135.794 Y104.616 E6.04678
G1 X136.245 Y105.239 E6.07236
G1 X136.581 Y105.812 E6.09445
G1 X137.934 Y108.38 E6.19099
G1 X138.257 Y109.078 E6.21658
G1 X138.476 Y109.707 E6.23873
G1 X139.308 Y112.486 E6.33521
G1 X139.49 Y113.233 E6.36078
G1 X139.584 Y113.892 E6.38292
G1 X139.865 Y116.782 E6.4795
G1 X139.9 Y117.55 E6.50507
G1 X139.861 Y118.254 E6.52852
G1 X139.548 Y121.303 E6.63046
G1 X139.43 Y122.063 E6.65604
G1 X139.247 Y122.765 E6.68017
G1 X138.353 Y125.611 E6.77939
G1 X138.085 Y126.332 E6.80498
G1 X137.78 Y126.954 E6.82802
G1 X136.365 Y129.532 E6.92583
G1 X135.96 Y130.186 E6.95141
G1 X135.549 Y130.725 E6.97396
G1 X133.673 Y132.963 E7.07109
G1 X133.149 Y133.526 E7.09667
G1 X132.647 Y133.969 E7.11894
G1 X130.384 Y135.794 E7.21563
G1 X129.761 Y136.245 E7.24121
G1 X129.188 Y136.581 E7.2633
G1 X126.62 Y137.934 E7.35984
G1 X125.922 Y138.257 E7.38543
G1 X125.293 Y138.476 E7.40758
G1 X122.513 Y139.308 E7.50409
G1 X121.765 Y139.49 E7.5297
G1 X121.107 Y139.584 E7.5518
G1 X118.216 Y139.865 E7.64841
G1 X117.448 Y139.9 E7.67398
G1 X116.739 Y139.861 E7.6976
G1 X113.671 Y139.544 E7.80019
G1 X112.912 Y139.425 E7.82574
G1 X112.208 Y139.241 E7.84994
G1 X109.383 Y138.351 E7.94845
G1 X108.663 Y138.082 E7.97402
G1 X108.046 Y137.78 E7.99686
G1 X105.468 Y136.365 E8.09468
G1 X104.814 Y135.96 E8.12026
G1 X104.271 Y135.545 E8.14299
G1 X102.02 Y133.655 E8.24075
G1 X101.457 Y133.131 E8.26633
G1 X101.016 Y132.631 E8.28851
G1 X99.204 Y130.382 E8.38457
G1 X98.753 Y129.759 E8.41015
G1 X98.419 Y129.188 E8.43215
G1 X97.066 Y126.62 E8.52869
G1 X96.743 Y125.922 E8.55427
G1 X96.524 Y125.293 E8.57642
G1 X95.692 Y122.513 E8.67294
G1 X95.51 Y121.765 E8.69854
G1 X95.416 Y121.107 E8.72065
G1 X95.135 Y118.218 E8.81719
G1 X95.1 Y117.45 E8.84276
G1 X95.139 Y116.742 E8.86635
G1 X95.456 Y113.671 E8.96903
G1 X95.575 Y112.911 E8.99462
G1 X95.761 Y112.202 E9.019
G1 X96.659 Y109.359 E9.11816
G1 X96.928 Y108.639 E9.14373
G1 X97.231 Y108.023 E9.16656
G1 X98.638 Y105.464 E9.26369
G1 X99.043 Y104.81 E9.28927
G1 X99.451 Y104.275 E9.31165
G1 X101.327 Y102.037 E9.40878
G1 X101.851 Y101.474 E9.43436
G0 F6000 X102.144 Y101.747
G1 F1200 X102.604 Y101.342 E9.45474
G1 X104.867 Y99.517 E9.55144
G1 X105.473 Y99.079 E9.57631
G1 X105.998 Y98.773 E9.59652
G1 X108.566 Y97.42 E9.69306
G1 X109.246 Y97.107 E9.71796
G1 X109.822 Y96.907 E9.73824
G1 X112.602 Y96.075 E9.83475
G1 X113.329 Y95.899 E9.85963
G1 X113.932 Y95.814 E9.87989
G1 X116.823 Y95.533 E9.97649
G1 X117.57 Y95.5 E10.00136
G1 X118.219 Y95.537 E10.02298
G1 X121.287 Y95.854 E10.12557
G1 X122.026 Y95.971 E10.15046
G1 X122.671 Y96.14 E10.17263
G1 X125.496 Y97.03 E10.27115
G1 X126.197 Y97.293 E10.29605
G1 X126.761 Y97.571 E10.31696
G1 X129.339 Y98.986 E10.41477
G1 X129.975 Y99.38 E10.43966
G1 X130.468 Y99.757 E10.4603
G1 X132.706 Y101.633 E10.55743
G1 X133.253 Y102.144 E10.58232
G1 X133.658 Y102.604 E10.60271
G1 X135.483 Y104.867 E10.6994
G1 X135.921 Y105.473 E10.72427
G1 X136.227 Y105.998 E10.74448
G1 X137.58 Y108.566 E10.84102
G1 X137.893 Y109.246 E10.86592
G1 X138.093 Y109.821 E10.88617
G1 X138.925 Y112.6 E10.98265
G1 X139.101 Y113.327 E11.00753
G1 X139.186 Y113.931 E11.02782
G1 X139.467 Y116.821 E11.12439
G1 X139.5 Y117.568 E11.14926
G1 X139.463 Y118.213 E11.17075
G1 X139.15 Y121.262 E11.2727
G1 X139.034 Y122.001 E11.29758
G1 X138.865 Y122.645 E11.31972
G1 X137.971 Y125.491 E11.41894
G1 X137.709 Y126.191 E11.4438
G1 X137.429 Y126.761 E11.46492
G1 X136.014 Y129.339 E11.56273
G1 X135.62 Y129.975 E11.58762
G1 X135.243 Y130.468 E11.60826
G1 X133.367 Y132.706 E11.70539
G1 X132.856 Y133.253 E11.73028
G1 X132.396 Y133.658 E11.75067
G1 X130.133 Y135.483 E11.84736
G1 X129.527 Y135.921 E11.87223
G1 X129.002 Y136.227 E11.89244
G1 X126.434 Y137.58 E11.98898
G1 X125.754 Y137.893 E12.01388
G1 X125.178 Y138.093 E12.03416
G1 X122.398 Y138.925 E12.13068
G1 X121.671 Y139.101 E12.15556
G1 X121.068 Y139.186 E12.17581
G1 X118.177 Y139.467 E12.27242
G1 X117.43 Y139.5 E12.29729
G1 X116.781 Y139.463 E12.31891
G1 X113.713 Y139.146 E12.42149
G1 X112.974 Y139.029 E12.44638
G1 X112.329 Y138.86 E12.46856
G1 X109.504 Y137.97 E12.56707
G1 X108.803 Y137.707 E12.59197
G1 X108.239 Y137.429 E12.61288
G1 X105.661 Y136.014 E12.7107
G1 X105.025 Y135.62 E12.73558
G1 X104.528 Y135.239 E12.75641
G1 X102.277 Y133.349 E12.85417
G1 X101.73 Y132.838 E12.87906
G1 X101.327 Y132.38 E12.89936
G1 X99.515 Y130.131 E12.99542
G1 X99.078 Y129.524 E13.02029
G1 X98.773 Y129.002 E13.0404
G1 X97.42 Y126.434 E13.13694
G1 X97.107 Y125.754 E13.16184
G1 X96.907 Y125.178 E13.18212
G1 X96.075 Y122.398 E13.27863
G1 X95.899 Y121.671 E13.30351
G1 X95.814 Y121.069 E13.32373
G1 X95.533 Y118.18 E13.42028
G1 X95.5 Y117.432 E13.44518
G1 X95.537 Y116.783 E13.4668
G1 X95.854 Y113.712 E13.56948
G1 X95.97 Y112.973 E13.59436
G1 X96.142 Y112.323 E13.61673
G1 X97.04 Y109.48 E13.71589
G1 X97.303 Y108.779 E13.74079
G1 X97.581 Y108.215 E13.76171
G1 X98.988 Y105.656 E13.85884
G1 X99.383 Y105.021 E13.88371
G1 X99.757 Y104.532 E13.90419
G1 X101.633 Y102.294 E14.00131
G1 X102.144 Y101.747 E14.02621
G0 F6000 X102.437 Y102.021
G1 F1200 X102.855 Y101.653 E14.04473
G1 X105.118 Y99.828 E14.14143
G1 X105.707 Y99.404 E14.16557
G1 X106.185 Y99.127 E14.18394
G1 X108.753 Y97.774 E14.28048
G1 X109.413 Y97.471 E14.30464
G1 X109.937 Y97.29 E14.32308
G1 X112.717 Y96.458 E14.41959
G1 X113.423 Y96.288 E14.44374
G1 X113.971 Y96.212 E14.46215
G1 X116.862 Y95.931 E14.55875
G1 X117.587 Y95.901 E14.58289
G1 X118.178 Y95.935 E14.60258
G1 X121.246 Y96.252 E14.70516
G1 X121.964 Y96.366 E14.72934
G1 X122.551 Y96.522 E14.74954
G1 X125.376 Y97.412 E14.84806
G1 X126.056 Y97.668 E14.87222
G1 X126.569 Y97.921 E14.89125
G1 X129.147 Y99.336 E14.98906
G1 X129.763 Y99.72 E15.0132
G1 X130.211 Y100.064 E15.03199
G1 X132.449 Y101.94 E15.12912
G1 X132.979 Y102.437 E15.15328
G1 X133.347 Y102.855 E15.17181
G1 X135.172 Y105.118 E15.2685
G1 X135.596 Y105.707 E15.29264
G1 X135.873 Y106.185 E15.31101
G1 X137.226 Y108.753 E15.40755
G1 X137.529 Y109.413 E15.43171
G1 X137.71 Y109.936 E15.45012
G1 X138.542 Y112.715 E15.5466
G1 X138.711 Y113.421 E15.57074
G1 X138.788 Y113.969 E15.58915
G1 X139.069 Y116.859 E15.68573
G1 X139.099 Y117.585 E15.70989
G1 X139.065 Y118.172 E15.72945
G1 X138.752 Y121.221 E15.83139
G1 X138.639 Y121.938 E15.85553
G1 X138.484 Y122.525 E15.87573
G1 X137.59 Y125.371 E15.97495
G1 X137.334 Y126.051 E15.99911
G1 X137.079 Y126.569 E16.01832
G1 X135.664 Y129.147 E16.11613
G1 X135.28 Y129.763 E16.14027
G1 X134.936 Y130.211 E16.15906
G1 X133.06 Y132.449 E16.25619
G1 X132.563 Y132.979 E16.28035
G1 X132.145 Y133.347 E16.29887
G1 X129.882 Y135.172 E16.39557
G1 X129.293 Y135.596 E16.41971
G1 X128.815 Y135.873 E16.43808
G1 X126.247 Y137.226 E16.53462
G1 X125.587 Y137.529 E16.55878
G1 X125.063 Y137.71 E16.57722
G1 X122.283 Y138.542 E16.67373
G1 X121.577 Y138.712 E16.69788
G1 X121.029 Y138.788 E16.71629
G1 X118.138 Y139.069 E16.81289
G1 X117.413 Y139.099 E16.83703
G1 X116.822 Y139.065 E16.85672
G1 X113.754 Y138.748 E16.9593
G1 X113.036 Y138.634 E16.98348
G1 X112.449 Y138.478 E17.00368
G1 X109.624 Y137.588 E17.1022
G1 X108.944 Y137.332 E17.12636
G1 X108.431 Y137.079 E17.14539
G1 X105.853 Y135.664 E17.2432
G1 X105.237 Y135.28 E17.26734
G1 X104.785 Y134.933 E17.28629
G1 X102.534 Y133.043 E17.38405
G1 X102.004 Y132.546 E17.40822
G1 X101.639 Y132.129 E17.42665
G1 X99.827 Y129.88 E17.52271
G1 X99.403 Y129.29 E17.54688
G1 X99.127 Y128.815 E17.56515
G1 X97.774 Y126.247 E17.66169
G1 X97.471 Y125.587 E17.68585
G1 X97.29 Y125.063 E17.70428
G1 X96.458 Y122.283 E17.8008
G1 X96.288 Y121.577 E17.82495
G1 X96.212 Y121.03 E17.84332
G1 X95.931 Y118.141 E17.93986
G1 X95.901 Y117.415 E17.96403
G1 X95.935 Y116.824 E17.98372
G1 X96.252 Y113.753 E18.0864
G1 X96.366 Y113.036 E18.11055
G1 X96.523 Y112.443 E18.13095
G1 X97.421 Y109.6 E18.23012
G1 X97.678 Y108.921 E18.25426
G1 X97.932 Y108.408 E18.2733
G1 X99.339 Y105.849 E18.37043
G1 X99.723 Y105.233 E18.39458
G1 X100.064 Y104.789 E18.4132
G1 X101.94 Y102.551 E18.51032
G1 X102.437 Y102.021 E18.53449
G0 F6000 X102.729 Y102.295
G1 F1200 X103.106 Y101.965 E18.55116
G1 X105.369 Y100.14 E18.64785
G1 X105.941 Y99.73 E18.67126
G1 X106.371 Y99.481 E18.68778
G1 X108.939 Y98.128 E18.78432
G1 X109.579 Y97.835 E18.80774
G1 X110.051 Y97.673 E18.82433
G1 X112.831 Y96.841 E18.92085
G1 X113.516 Y96.678 E18.94427
G1 X114.009 Y96.61 E18.96082
G1 X116.9 Y96.329 E19.05743
G1 X117.604 Y96.301 E19.08086
G1 X118.137 Y96.333 E19.09862
G1 X121.205 Y96.65 E19.20121
G1 X121.9 Y96.762 E19.22462
G1 X122.431 Y96.904 E19.2429
G1 X125.256 Y97.794 E19.34142
G1 X125.914 Y98.043 E19.36482
G1 X126.376 Y98.272 E19.38197
G1 X128.954 Y99.687 E19.47978
G1 X129.551 Y100.06 E19.50319
G1 X129.954 Y100.371 E19.52012
G1 X132.192 Y102.247 E19.61725
G1 X132.705 Y102.729 E19.64066
G1 X133.035 Y103.106 E19.65733
G1 X134.86 Y105.369 E19.75402
G1 X135.27 Y105.941 E19.77743
G1 X135.519 Y106.371 E19.79395
G1 X136.872 Y108.939 E19.8905
G1 X137.165 Y109.579 E19.91391
G1 X137.327 Y110.051 E19.9305
G1 X138.159 Y112.83 E20.02699
G1 X138.322 Y113.515 E20.05041
G1 X138.39 Y114.008 E20.06696
G1 X138.671 Y116.898 E20.16354
G1 X138.699 Y117.601 E20.18694
G1 X138.668 Y118.131 E20.20459
G1 X138.355 Y121.18 E20.30654
G1 X138.243 Y121.875 E20.32995
G1 X138.102 Y122.405 E20.34819
G1 X137.208 Y125.251 E20.44741
G1 X136.959 Y125.91 E20.47084
G1 X136.728 Y126.376 E20.48814
G1 X135.313 Y128.954 E20.58595
G1 X134.94 Y129.551 E20.60937
G1 X134.629 Y129.954 E20.6263
G1 X132.753 Y132.192 E20.72342
G1 X132.271 Y132.705 E20.74684
G1 X131.894 Y133.035 E20.7635
G1 X129.631 Y134.86 E20.8602
G1 X129.059 Y135.27 E20.8836
G1 X128.629 Y135.519 E20.90013
G1 X126.061 Y136.872 E20.99667
G1 X125.421 Y137.165 E21.02008
G1 X124.949 Y137.327 E21.03668
G1 X122.169 Y138.159 E21.1332
G1 X121.484 Y138.322 E21.15661
G1 X120.991 Y138.39 E21.17317
G1 X118.1 Y138.671 E21.26978
G1 X117.396 Y138.699 E21.29321
G1 X116.863 Y138.667 E21.31097
G1 X113.795 Y138.35 E21.41355
G1 X113.1 Y138.238 E21.43697
G1 X112.569 Y138.096 E21.45525
G1 X109.744 Y137.206 E21.55376
G1 X109.086 Y136.957 E21.57716
G1 X108.624 Y136.728 E21.59431
G1 X106.046 Y135.313 E21.69212
G1 X105.449 Y134.94 E21.71554
G1 X105.042 Y134.626 E21.73263
G1 X102.791 Y132.736 E21.83039
G1 X102.279 Y132.254 E21.85378
G1 X101.95 Y131.878 E21.8704
G1 X100.138 Y129.629 E21.96646
G1 X99.728 Y129.056 E21.98989
G1 X99.481 Y128.629 E22.0063
G1 X98.128 Y126.061 E22.10284
G1 X97.835 Y125.421 E22.12625
G1 X97.673 Y124.949 E22.14285
G1 X96.841 Y122.169 E22.23937
G1 X96.678 Y121.484 E22.26279
G1 X96.61 Y120.991 E22.27934
G1 X96.329 Y118.102 E22.37588
G1 X96.301 Y117.399 E22.39928
G1 X96.333 Y116.865 E22.41707
G1 X96.65 Y113.794 E22.51976
G1 X96.762 Y113.099 E22.54317
G1 X96.905 Y112.564 E22.56159
G1 X97.803 Y109.721 E22.66075
G1 X98.053 Y109.062 E22.6842
G1 X98.282 Y108.601 E22.70132
G1 X99.689 Y106.042 E22.79845
G1 X100.063 Y105.445 E22.82188
G1 X100.371 Y105.046 E22.83864
G1 X102.247 Y102.808 E22.93577
G1 X102.729 Y102.295 E22.95918
G0 F6000 X103.02 Y102.57
G1 F1200 X103.357 Y102.276 E22.97406
G1 X105.62 Y100.451 E23.07075
G1 X106.174 Y100.056 E23.09338
G1 X106.557 Y99.835 E23.10809
G1 X109.125 Y98.482 E23.20463
G1 X109.745 Y98.2 E23.22728
G1 X110.166 Y98.057 E23.24207
G1 X112.946 Y97.225 E23.33859
G1 X113.609 Y97.068 E23.36125
G1 X114.048 Y97.008 E23.37599
G1 X116.939 Y96.727 E23.47259
G1 X117.619 Y96.701 E23.49523
G1 X118.096 Y96.731 E23.51112
G1 X121.164 Y97.048 E23.61371
G1 X121.836 Y97.157 E23.63635
G1 X122.311 Y97.285 E23.65271
G1 X125.136 Y98.175 E23.75123
G1 X125.772 Y98.417 E23.77386
G1 X126.184 Y98.623 E23.78918
G1 X128.762 Y100.038 E23.88699
G1 X129.338 Y100.4 E23.90962
G1 X129.697 Y100.677 E23.9247
