;FLAVOR:Marlin
;TIME:5041
;Filament used: 3.11339m
;Layer height: 0.2
;MINX:88.286
;MINY:89.743
;MINZ:0.2
;MAXX:146.834
;MAXY:145.082
;MAXZ:30
;Generated with Cura_SteamEngine 5.2.0
M140 S80
M105
M190 S80
M104 S200
M105
M109 S200
M82 ;absolute extrusion mode
; Ender 3 Custom Start G-code
G92 E0 ; Reset Extruder
G28 ; Home all axes
G1 Z2.0 F3000 ; Move Z Axis up little to prevent scratching of Heat Bed
G1 X0.1 Y20 Z0.3 F5000.0 ; Move to start position
G1 X0.1 Y200.0 Z0.3 F1500.0 E15 ; Draw the first line
G1 X0.4 Y200.0 Z0.3 F5000.0 ; Move to side a little
G1 X0.4 Y20 Z0.3 F1500.0 E30 ; Draw the second line
G92 E0 ; Reset Extruder
G1 Z2.0 F3000 ; Move Z Axis up little to prevent scratching of Heat Bed
G1 X5 Y20 Z0.3 F5000.0 ; Move over to prevent blob squish
G92 E0
G92 E0
G1 F2700 E-5
;LAYER_COUNT:150
;LAYER:0
M107
G0 F6000 X101.55 Y93.543 Z0.2
;TYPE:SKIRT
G1 F2700 E0
G1 F1200 X102.194 Y92.861 E0.0312
G1 X102.893 Y92.236 E0.06239
G1 X103.643 Y91.673 E0.09358
G1 X104.438 Y91.176 E0.12476
G1 X105.273 Y90.748 E0.15597
G1 X106.141 Y90.393 E0.18716
G1 X107.036 Y90.113 E0.21835
G1 X107.952 Y89.911 E0.24955
G1 X108.882 Y89.787 E0.28075
G1 X109.819 Y89.743 E0.31195
G1 X110.756 Y89.779 E0.34314
G1 X111.686 Y89.895 E0.37431
G1 X112.604 Y90.089 E0.40552
G1 X113.502 Y90.361 E0.43673
G1 X114.373 Y90.708 E0.46791
G1 X115.185 Y91.114 E0.49811
G1 X116.198 Y91.676 E0.53664
G1 X140.854 Y105.913 E1.48359
G1 X141.478 Y106.286 E1.50777
G1 X142.262 Y106.801 E1.53897
G1 X142.999 Y107.381 E1.57016
G1 X143.684 Y108.022 E1.60137
G1 X144.312 Y108.719 E1.63257
G1 X144.878 Y109.466 E1.66374
G1 X145.378 Y110.259 E1.69492
G1 X145.809 Y111.092 E1.72612
G1 X146.168 Y111.959 E1.75733
G1 X146.452 Y112.853 E1.78853
G1 X146.658 Y113.768 E1.81972
G1 X146.786 Y114.697 E1.85091
G1 X146.834 Y115.634 E1.88212
G1 X146.802 Y116.571 E1.9133
G1 X146.69 Y117.502 E1.94449
G1 X146.499 Y118.42 E1.97568
G1 X146.231 Y119.319 E2.00688
G1 X145.888 Y120.192 E2.03807
G1 X145.507 Y120.965 E2.06674
G1 X145.186 Y121.549 E2.0889
G1 X140.667 Y129.362 E2.3891
G1 X140.306 Y129.999 E2.41345
G1 X138.786 Y132.62 E2.51423
G1 X135.069 Y139.071 E2.76186
G1 X134.667 Y139.744 E2.78793
G1 X134.15 Y140.527 E2.81914
G1 X133.569 Y141.263 E2.85032
G1 X132.927 Y141.947 E2.88153
G1 X132.229 Y142.573 E2.91271
G1 X131.48 Y143.138 E2.94392
G1 X130.686 Y143.637 E2.97511
G1 X129.852 Y144.066 E3.0063
G1 X128.985 Y144.423 E3.03748
G1 X128.09 Y144.705 E3.0687
G1 X127.175 Y144.91 E3.09988
G1 X126.246 Y145.036 E3.13106
G1 X125.309 Y145.082 E3.16227
G1 X124.372 Y145.048 E3.19345
G1 X123.441 Y144.935 E3.22464
G1 X122.523 Y144.742 E3.25584
G1 X121.625 Y144.472 E3.28703
G1 X120.753 Y144.127 E3.31822
G1 X119.934 Y143.72 E3.34864
G1 X119.116 Y143.27 E3.37969
G1 X94.364 Y128.982 E4.33026
G1 X93.648 Y128.556 E4.35797
G1 X92.864 Y128.042 E4.38915
G1 X92.127 Y127.462 E4.42035
G1 X91.441 Y126.822 E4.45155
G1 X90.813 Y126.126 E4.48273
G1 X90.246 Y125.379 E4.51392
G1 X89.745 Y124.586 E4.54512
G1 X89.314 Y123.753 E4.57632
G1 X88.954 Y122.887 E4.60751
G1 X88.67 Y121.993 E4.63871
G1 X88.463 Y121.078 E4.66991
G1 X88.335 Y120.149 E4.7011
G1 X88.286 Y119.213 E4.73227
G1 X88.318 Y118.275 E4.76349
G1 X88.429 Y117.344 E4.79468
G1 X88.619 Y116.425 E4.82589
G1 X88.886 Y115.527 E4.85705
G1 X89.23 Y114.654 E4.88826
G1 X89.629 Y113.844 E4.91829
G1 X90.222 Y112.76 E4.95938
G1 X91.031 Y111.346 E5.01357
G1 X95.321 Y103.924 E5.2987
G1 X96.408 Y102.023 E5.37153
G1 X96.488 Y101.897 E5.37649
G1 X100.025 Y95.767 E5.61188
G1 X100.449 Y95.06 E5.6393
G1 X100.967 Y94.278 E5.6705
G1 X101.55 Y93.543 E5.7017
G0 F6000 X101.875 Y93.78
G1 F1200 X102.509 Y93.113 E5.73231
G1 X103.199 Y92.503 E5.76294
G1 X103.939 Y91.955 E5.79357
G1 X104.724 Y91.474 E5.82419
G1 X105.548 Y91.063 E5.85482
G1 X106.404 Y90.725 E5.88543
G1 X107.287 Y90.462 E5.91607
G1 X108.188 Y90.277 E5.94666
G1 X109.103 Y90.171 E5.9773
G1 X110.023 Y90.144 E6.00791
G1 X110.942 Y90.198 E6.03853
G1 X111.853 Y90.331 E6.06915
G1 X112.749 Y90.542 E6.09977
G1 X113.623 Y90.831 E6.13039
G1 X114.469 Y91.194 E6.161
G1 X114.992 Y91.464 E6.18058
G1 X115.998 Y92.022 E6.21884
G1 X140.51 Y106.175 E7.16025
G1 X141.273 Y106.63 E7.1898
G1 X142.042 Y107.136 E7.22042
G1 X142.764 Y107.707 E7.25104
G1 X143.434 Y108.338 E7.28165
G1 X144.046 Y109.026 E7.31227
G1 X144.597 Y109.764 E7.34291
G1 X145.081 Y110.546 E7.37349
G1 X145.496 Y111.368 E7.40412
G1 X145.838 Y112.223 E7.43475
G1 X146.104 Y113.105 E7.46539
G1 X146.293 Y114.006 E7.49601
G1 X146.403 Y114.92 E7.52663
G1 X146.433 Y115.84 E7.55724
G1 X146.384 Y116.759 E7.58785
G1 X146.254 Y117.671 E7.61849
G1 X146.047 Y118.568 E7.64911
G1 X145.762 Y119.443 E7.67972
G1 X145.402 Y120.29 E7.71033
G1 X145.156 Y120.775 E7.72842
G1 X144.84 Y121.349 E7.75021
G1 X140.366 Y129.084 E8.04741
G1 X139.96 Y129.799 E8.07476
G1 X138.439 Y132.42 E8.17555
G1 X134.626 Y139.035 E8.4295
G1 X134.324 Y139.538 E8.44901
G1 X133.816 Y140.306 E8.47964
G1 X133.244 Y141.027 E8.51025
G1 X132.611 Y141.696 E8.54088
G1 X131.922 Y142.307 E8.57151
G1 X131.183 Y142.856 E8.60213
G1 X130.4 Y143.339 E8.63273
G1 X129.577 Y143.752 E8.66336
G1 X128.721 Y144.093 E8.694
G1 X127.84 Y144.357 E8.72459
G1 X126.938 Y144.544 E8.75523
G1 X126.024 Y144.653 E8.78585
G1 X125.104 Y144.681 E8.81646
G1 X124.184 Y144.63 E8.84711
G1 X123.273 Y144.499 E8.87772
G1 X122.377 Y144.289 E8.90833
G1 X121.502 Y144.002 E8.93895
G1 X120.655 Y143.641 E8.96958
G1 X120.127 Y143.369 E8.98933
G1 X119.118 Y142.812 E9.02767
G1 X94.564 Y128.636 E9.97067
G1 X93.853 Y128.213 E9.99819
G1 X93.084 Y127.707 E10.0288
G1 X92.361 Y127.137 E10.05943
G1 X91.691 Y126.505 E10.09006
G1 X91.078 Y125.819 E10.12066
G1 X90.527 Y125.081 E10.15129
G1 X90.042 Y124.298 E10.18192
G1 X89.627 Y123.477 E10.21252
G1 X89.284 Y122.622 E10.24316
G1 X89.017 Y121.741 E10.27378
G1 X88.828 Y120.84 E10.3044
G1 X88.717 Y119.926 E10.33502
G1 X88.687 Y119.006 E10.36564
G1 X88.736 Y118.087 E10.39625
G1 X88.864 Y117.175 E10.42688
G1 X89.072 Y116.278 E10.4575
G1 X89.356 Y115.402 E10.48813
G1 X89.715 Y114.555 E10.51873
G1 X89.98 Y114.036 E10.53811
G1 X90.467 Y113.143 E10.57194
G1 X91.377 Y111.546 E10.63308
G1 X95.641 Y104.169 E10.91648
G1 X96.755 Y102.221 E10.99111
G1 X96.833 Y102.098 E10.99596
G1 X100.476 Y95.788 E11.2383
G1 X100.791 Y95.266 E11.25857
G1 X101.301 Y94.5 E11.28918
G1 X101.875 Y93.78 E11.31981
G0 F6000 X102.199 Y94.017
G1 F1200 X102.824 Y93.365 E11.34985
G1 X103.504 Y92.771 E11.37988
G1 X104.235 Y92.239 E11.40995
G1 X105.009 Y91.774 E11.43998
G1 X105.821 Y91.38 E11.47
G1 X106.665 Y91.059 E11.50003
G1 X107.534 Y90.813 E11.53007
G1 X108.422 Y90.646 E11.56012
G1 X109.321 Y90.558 E11.59017
G1 X110.224 Y90.549 E11.6202
G1 X111.124 Y90.621 E11.65023
G1 X112.014 Y90.772 E11.68026
G1 X112.888 Y91.001 E11.71031
G1 X113.738 Y91.306 E11.74034
G1 X114.799 Y91.814 E11.77947
G1 X115.63 Y92.273 E11.81104
G1 X140.443 Y106.6 E12.76402
G1 X141.067 Y106.973 E12.7882
G1 X141.821 Y107.47 E12.81824
G1 X142.528 Y108.032 E12.84827
G1 X143.183 Y108.654 E12.87832
G1 X143.78 Y109.332 E12.90836
G1 X144.314 Y110.06 E12.93839
G1 X144.782 Y110.832 E12.96842
G1 X145.18 Y111.643 E12.99847
G1 X145.505 Y112.486 E13.02852
G1 X145.754 Y113.354 E13.05855
G1 X145.925 Y114.241 E13.0886
G1 X146.017 Y115.139 E13.11862
G1 X146.029 Y116.042 E13.14866
G1 X145.961 Y116.943 E13.17871
G1 X145.814 Y117.834 E13.20874
G1 X145.589 Y118.708 E13.23876
G1 X145.287 Y119.559 E13.2688
G1 X144.804 Y120.584 E13.30648
G1 X144.493 Y121.149 E13.32793
G1 X140.018 Y128.887 E13.62524
G1 X139.614 Y129.598 E13.65244
G1 X138.094 Y132.219 E13.75321
G1 X134.376 Y138.671 E14.00089
G1 X133.981 Y139.332 E14.0265
G1 X133.482 Y140.085 E14.05654
G1 X132.919 Y140.791 E14.08658
G1 X132.295 Y141.444 E14.11662
G1 X131.616 Y142.04 E14.14667
G1 X130.887 Y142.573 E14.1767
G1 X130.114 Y143.04 E14.20674
G1 X129.303 Y143.436 E14.23676
G1 X128.459 Y143.759 E14.26682
G1 X127.591 Y144.006 E14.29683
G1 X126.704 Y144.176 E14.32687
G1 X125.805 Y144.266 E14.35692
G1 X124.902 Y144.277 E14.38696
G1 X124.002 Y144.207 E14.41698
G1 X123.111 Y144.058 E14.44703
G1 X122.237 Y143.831 E14.47706
G1 X121.386 Y143.528 E14.50711
G1 X120.32 Y143.019 E14.5464
G1 X119.318 Y142.465 E14.58448
G1 X94.636 Y128.214 E15.53242
G1 X94.058 Y127.869 E15.5548
G1 X93.304 Y127.373 E15.58482
G1 X92.597 Y126.811 E15.61486
G1 X91.942 Y126.189 E15.6449
G1 X91.344 Y125.512 E15.67495
G1 X90.809 Y124.784 E15.705
G1 X90.341 Y124.012 E15.73502
G1 X89.942 Y123.202 E15.76505
G1 X89.617 Y122.359 E15.7951
G1 X89.368 Y121.491 E15.82514
G1 X89.196 Y120.605 E15.85516
G1 X89.103 Y119.706 E15.88522
G1 X89.091 Y118.803 E15.91525
G1 X89.158 Y117.903 E15.94527
G1 X89.304 Y117.012 E15.9753
G1 X89.529 Y116.137 E16.00535
G1 X89.83 Y115.286 E16.03537
G1 X90.331 Y114.227 E16.07434
G1 X90.818 Y113.334 E16.10817
G1 X91.724 Y111.746 E16.16898
G1 X96.022 Y104.311 E16.45461
G1 X97.103 Y102.42 E16.52706
G1 X97.177 Y102.303 E16.53166
G1 X100.819 Y95.995 E16.77393
G1 X101.134 Y95.473 E16.7942
G1 X101.634 Y94.721 E16.82424
G1 X102.199 Y94.017 E16.85426
G1 F2700 E11.85426
G0 F6000 X110.67 Y103.726
G1 F2700 E16.85426
G1 F1200 X132.843 Y116.529 E17.70585
G1 X132.689 Y116.796 E17.7161
G1 X110.516 Y103.994 E18.56768
G1 X110.67 Y103.726 E18.57796
G0 F6000 X110.524 Y103.18
G1 F1200 X133.389 Y116.383 E19.45613
G1 X132.832 Y117.34 E19.49296
G1 X109.97 Y104.14 E20.37099
G1 X110.524 Y103.18 E20.40786
G0 F6000 X110.377 Y102.633
G1 F1200 X133.936 Y116.236 E21.31268
G1 X133.35 Y117.252 E21.35169
G1 X132.975 Y117.885 E21.37616
G1 X109.422 Y104.287 E22.28072
G1 X110.377 Y102.633 E22.34424
G0 F6000 X110.231 Y102.087
G1 F1200 X134.482 Y116.09 E23.27564
G1 X133.112 Y118.449 E23.36637
G1 X132.562 Y118.108 E23.38789
G1 X109.413 Y104.743 E24.27694
G1 X108.867 Y104.451 E24.29754
G1 X110.231 Y102.087 E24.38831
G0 F6000 X110.085 Y101.542
G1 F1200 X135.028 Y115.944 E25.34628
G1 X134.042 Y117.652 E25.41187
G1 X133.672 Y118.276 E25.436
G1 X133.253 Y119.008 E25.46406
G1 X132.362 Y118.454 E25.49895
G1 X109.242 Y105.105 E26.3869
G1 X108.314 Y104.61 E26.42188
G1 X110.085 Y101.542 E26.5397
G0 F6000 X109.94 Y100.996
G1 F1200 X135.575 Y115.797 E27.52424
G1 X134.39 Y117.85 E27.60308
G1 X134.019 Y118.475 E27.62725
G1 X133.395 Y119.566 E27.66906
G1 X132.162 Y118.801 E27.71732
G1 X109.036 Y105.449 E28.60549
G1 X107.76 Y104.768 E28.65359
G1 X109.94 Y100.996 E28.7985
G1 F2700 E23.7985
G0 F6000 X107.236 Y103.973
G0 X100.603 Y115.462
G0 X101.336 Y115.899
G0 X101.568 Y115.496
G1 F2700 E28.7985
G1 F1200 X127.201 Y130.297 E29.78297
G1 X125.162 Y133.831 E29.91868
G1 X99.536 Y119.037 E30.90284
G1 X101.568 Y115.496 E31.03862
G0 F6000 X101.714 Y116.043
G1 F1200 X126.654 Y130.444 E31.99649
G1 X125.015 Y133.284 E32.10555
G1 X100.081 Y118.888 E33.06316
G1 X101.714 Y116.043 E33.17226
G0 F6000 X101.86 Y116.589
G1 F1200 X126.108 Y130.59 E34.10354
G1 X124.869 Y132.738 E34.18602
G1 X100.626 Y118.741 E35.11709
G1 X101.86 Y116.589 E35.1996
G0 F6000 X102.007 Y117.135
G1 F1200 X125.562 Y130.736 E36.10426
G1 X124.722 Y132.191 E36.16014
G1 X101.17 Y118.594 E37.06466
G1 X102.007 Y117.135 E37.1206
G0 F6000 X102.153 Y117.682
G1 F1200 X125.015 Y130.883 E37.99865
G1 X124.576 Y131.645 E38.0279
G1 X101.715 Y118.446 E38.90589
G1 X102.153 Y117.682 E38.93518
G0 F6000 X102.301 Y118.229
G1 F1200 X124.469 Y131.029 E39.78658
G1 X124.429 Y131.098 E39.78923
G1 X102.26 Y118.3 E40.64062
G1 X102.301 Y118.229 E40.64335
G1 F2700 E35.64335
G0 F6000 X101.335 Y115.899
G0 X101.767 Y115.15
;TYPE:SUPPORT-INTERFACE
G1 F2700 E40.64335
G1 F1200 X102.251 Y114.309 E40.67562
G1 X102.588 Y113.729 E40.69793
G1 X102.924 Y113.148 E40.72026
G1 X103.103 Y112.837 E40.73219
G1 X103.278 Y112.946 E40.73905
G1 X122.418 Y123.996 E41.47412
G1 X122.575 Y124.071 E41.47991
G1 X128.741 Y127.631 E41.71672
G1 X128.509 Y128.034 E41.73218
G1 X128.168 Y128.622 E41.75479
G1 X128.023 Y128.875 E41.76449
G1 X127.501 Y129.776 E41.79912
G1 X127.4 Y129.951 E41.80584
G1 X101.767 Y115.15 E42.79032
G1 F2700 E37.79032
G0 F6000 X101.017 Y114.72
G0 X104.754 Y108.27
G0 X105.803 Y108.162
G0 X106.234 Y107.413
G1 F2700 E42.79032
G1 F1200 X106.505 Y106.941 E42.80842
G1 X106.823 Y106.392 E42.82953
G1 X107.561 Y105.114 E42.87861
G1 X108.842 Y105.798 E42.92691
G1 X131.956 Y119.144 E43.81463
G1 X133.196 Y119.914 E43.86318
G1 X133.049 Y120.171 E43.87303
G1 X132.723 Y120.732 E43.89461
G1 X132.41 Y121.276 E43.91548
G1 X132.093 Y121.826 E43.9366
G1 X131.869 Y122.212 E43.95144
G1 X106.234 Y107.413 E44.93594
G0 F6000 X106.529 Y107.299
G1 F1200 X108.166 Y105.662 E45.01294
G0 F6000 X106.811 Y106.811
G1 F1200 X108.477 Y108.477 E45.09131
G1 X108.646 Y108.576
G1 X110.333 Y106.889 E45.17066
G1 X110.218 Y106.824
G1 X116.507 Y113.113 E45.46647
G0 F6000 X117.254 Y113.545
G1 F1200 X118.94 Y111.859 E45.54578
G0 F6000 X118.249 Y111.461
G1 F1200 X124.537 Y117.748 E45.84152
G0 F6000 X123.709 Y117.272
G1 F1200 X125.395 Y115.586 E45.92083
G0 F6000 X126.28 Y116.098
G1 F1200 X131.915 Y121.732 E46.18586
G0 F6000 X130.165 Y120.998
G1 F1200 X131.85 Y119.313 E46.26511
G0 F6000 X129.698 Y118.071
G1 F1200 X128.013 Y119.757 E46.34439
G0 F6000 X125.861 Y118.514
G1 F1200 X127.547 Y116.828 E46.4237
G1 F2700 E41.4237
G0 F6000 X128.078 Y115.907
G0 X123.775 Y113.422
G0 X123.243 Y114.344
G1 F2700 E46.4237
G1 F1200 X121.558 Y116.029 E46.50295
G0 F6000 X119.406 Y114.787
G1 F1200 X121.092 Y113.101 E46.58226
G1 F2700 E41.58226
G0 F6000 X121.623 Y112.18
G0 X117.319 Y109.695
G0 X116.788 Y110.616
G1 F2700 E46.58226
G1 F1200 X115.102 Y112.302 E46.66156
G0 F6000 X112.951 Y111.06
G1 F1200 X114.636 Y109.374 E46.74084
G0 F6000 X112.485 Y108.132
G1 F1200 X110.799 Y109.817 E46.82012
G1 F2700 E41.82012
G0 F6000 X110.268 Y110.739
G0 X104.754 Y108.27
G0 X103.131 Y111.078
G0 X108.601 Y115.02
G0 X108.069 Y115.942
G1 F2700 E46.82012
G1 F1200 X106.411 Y117.6 E46.89811
G0 F6000 X108.562 Y118.842
G1 F1200 X110.22 Y117.184 E46.9761
G0 F6000 X110.636 Y117.424
G1 F1200 X116.824 Y123.612 E47.26716
G0 F6000 X117.169 Y123.812
G1 F1200 X118.828 Y122.153 E47.3452
G1 X118.665 Y122.06
G1 X124.856 Y128.25 E47.63638
G0 F6000 X125.775 Y128.782
G1 F1200 X127.445 Y127.113 E47.71491
G0 F6000 X126.66 Y126.66
G1 F1200 X128.187 Y128.187 E47.78673
G1 F2700 E42.78673
G0 F6000 X129.11 Y128.721
G0 X129.905 Y127.319
G0 X125.824 Y124.949
G0 X125.293 Y125.87
G1 F2700 E47.78673
G1 F1200 X123.624 Y127.54 E47.86526
G0 F6000 X121.472 Y126.297
G1 F1200 X123.141 Y124.628 E47.94377
G0 F6000 X120.98 Y123.395
G1 F1200 X119.32 Y125.055 E48.02185
G1 F2700 E43.02185
G0 F6000 X118.788 Y125.976
G0 X127.747 Y131.135
G0 X129.905 Y127.319
G0 X117.208 Y119.99
G0 X116.676 Y120.911
G1 F2700 E48.02185
G1 F1200 X115.017 Y122.569 E48.09986
G0 F6000 X112.866 Y121.327
G1 F1200 X114.525 Y119.668 E48.17789
G0 F6000 X112.372 Y118.426
G1 F1200 X110.714 Y120.085 E48.2559
G0 F6000 X108.792 Y118.974
G1 F1200 X103.085 Y113.267 E48.52434
G0 F6000 X103.765 Y113.458
G1 F1200 X102.107 Y115.115 E48.60231
G0 F6000 X104.259 Y116.357
G1 F1200 X105.917 Y114.699 E48.68029
G1 F2700 E43.68029
;MESH:a3_sidecylinder.stl
G0 F6000 X106.448 Y113.778
G0 X108.853 Y115.182
G0 X129.727 Y125.116
;TYPE:WALL-INNER
G1 F2700 E48.68029
G1 F1200 X130.152 Y124.381 E48.70853
G1 X105.214 Y109.983 E49.66629
G1 X104.789 Y110.719 E49.69456
G1 X105.117 Y110.954 E49.70798
G1 X109.586 Y114.15 E49.89072
G1 X124.368 Y122.683 E50.4584
G1 X129.727 Y125.116 E50.65415
G0 F6000 X129.892 Y125.63
;TYPE:WALL-OUTER
G1 F1200 X130.699 Y124.235 E50.70776
G1 X105.067 Y109.436 E51.69217
G1 X104.261 Y110.833 E51.74581
G1 X104.884 Y111.28 E51.77132
G1 X109.369 Y114.487 E51.9547
G1 X124.185 Y123.039 E52.52368
G1 X129.892 Y125.63 E52.73215
G0 F6000 X129.781 Y125.281
G0 X129.917 Y124.445
G0 X129.716 Y124.246
G0 X129.544 Y124.544
;TYPE:SKIN
G1 F778 X128.594 Y124.056 E52.78694
G1 F937.5 X128.328 Y123.72 E52.80518
G1 F1269.8 X127.454 Y123.244 E52.83646
G1 F1126.8 X126.579 Y122.767 E52.87176
G1 F1010.5 X125.705 Y122.29 E52.91109
G1 F917.8 X124.83 Y121.813 E52.95443
G1 F874.3 X110.109 Y113.314 E53.73039
G1 F914.3 X109.248 Y112.789 E53.77441
G1 F1010.5 X108.387 Y112.263 E53.81426
G1 F1126.8 X107.525 Y111.738 E53.85002
G1 F1276.6 X106.664 Y111.212 E53.88156
G1 F1363.6 X106.665 Y111.213 E53.8816
