;FLAVOR:Marlin
;TIME:9269
;Filament used: 7.99736m
;Layer height: 0.28
;MINX:24
;MINY:24
;MINZ:0.28
;MAXX:211
;MAXY:211
;MAXZ:2.52
;Generated with Cura_SteamEngine 5.2.0
M140 S60
M105
M190 S60
M104 S200
M105
M109 S200
M82 ;absolute extrusion mode
; Ender 3 Custom Start G-code
G92 E0 ; Reset Extruder
G28 ; Home all axes
G1 Z2.0 F3000 ; Move Z Axis up little to prevent scratching of Heat Bed
G1 X0.1 Y20 Z0.3 F5000.0 ; Move to start position
G1 X0.1 Y200.0 Z0.3 F1500.0 E15 ; Draw the first line
G1 X0.4 Y200.0 Z0.3 F5000.0 ; Move to side a little
G1 X0.4 Y20 Z0.3 F1500.0 E30 ; Draw the second line
G92 E0 ; Reset Extruder
G1 Z2.0 F3000 ; Move Z Axis up little to prevent scratching of Heat Bed
G1 X5 Y20 Z0.3 F5000.0 ; Move over to prevent blob squish
G92 E0
G92 E0
G1 F2700 E-5
;LAYER_COUNT:9
;LAYER:0
M107
G0 F6000 X27.21 Y27.252 Z0.28
;TYPE:SKIRT
G1 F2700 E0
G1 F1200 X27.899 Y26.616 E0.04366
G1 X28.64 Y26.041 E0.08734
G1 X29.427 Y25.531 E0.131
G1 X30.255 Y25.09 E0.17469
G1 X31.117 Y24.721 E0.21835
G1 X32.008 Y24.427 E0.26204
G1 X32.92 Y24.209 E0.3057
G1 X33.847 Y24.071 E0.34934
G1 X34.701 Y24.013 E0.3892
G1 X35.33 Y24 E0.41849
G1 X111.139 Y24.001 E3.94848
G1 X112.193 Y24.022 E3.99757
G1 X113.833 Y24.097 E4.07401
G1 X116.423 Y24.167 E4.19466
G1 X118.902 Y24.163 E4.31009
G1 X123.244 Y24.007 E4.5124
G1 X123.64 Y24 E4.53084
G1 X199.451 Y24.001 E8.06092
G1 X200.149 Y24.011 E8.09343
G1 X201.085 Y24.065 E8.13708
G1 X202.013 Y24.197 E8.18073
G1 X202.927 Y24.409 E8.22442
G1 X203.819 Y24.698 E8.26808
G1 X204.684 Y25.061 E8.31176
G1 X205.514 Y25.497 E8.35542
G1 X206.305 Y26.002 E8.39912
G1 X207.049 Y26.573 E8.44279
G1 X207.742 Y27.205 E8.48646
G1 X208.379 Y27.893 E8.53012
G1 X208.954 Y28.634 E8.57379
G1 X209.465 Y29.42 E8.61745
G1 X209.907 Y30.248 E8.66115
G1 X210.276 Y31.11 E8.70481
G1 X210.571 Y32 E8.74847
G1 X210.789 Y32.912 E8.79213
G1 X210.929 Y33.84 E8.83583
G1 X210.987 Y34.701 E8.87602
G1 X211 Y35.33 E8.90531
G1 X210.999 Y111.116 E12.43423
G1 X210.978 Y112.191 E12.48429
G1 X210.903 Y113.83 E12.56069
G1 X210.833 Y116.423 E12.68148
G1 X210.837 Y118.904 E12.797
G1 X210.993 Y123.244 E12.99922
G1 X211 Y123.64 E13.01766
G1 X210.999 Y199.415 E16.54606
G1 X210.989 Y200.142 E16.57992
G1 X210.936 Y201.079 E16.62362
G1 X210.804 Y202.007 E16.66727
G1 X210.593 Y202.921 E16.71095
G1 X210.304 Y203.813 E16.75461
G1 X209.941 Y204.678 E16.79829
G1 X209.506 Y205.509 E16.84196
G1 X209.001 Y206.299 E16.88562
G1 X208.431 Y207.044 E16.9293
G1 X207.8 Y207.738 E16.97298
G1 X207.111 Y208.375 E17.01667
G1 X206.371 Y208.951 E17.06034
G1 X205.585 Y209.462 E17.10399
G1 X204.758 Y209.904 E17.14765
G1 X203.896 Y210.274 E17.19133
G1 X203.006 Y210.569 E17.23499
G1 X202.094 Y210.788 E17.27867
G1 X201.167 Y210.928 E17.32232
G1 X200.299 Y210.987 E17.36283
G1 X199.67 Y211 E17.39213
G1 X123.861 Y210.999 E20.92211
G1 X122.809 Y210.978 E20.97111
G1 X121.17 Y210.903 E21.04751
G1 X118.577 Y210.833 E21.16829
G1 X116.098 Y210.837 E21.28372
G1 X111.756 Y210.993 E21.48604
G1 X111.36 Y211 E21.50448
G1 X35.549 Y210.999 E25.03456
G1 X34.851 Y210.989 E25.06706
G1 X33.915 Y210.935 E25.11072
G1 X32.987 Y210.803 E25.15436
G1 X32.073 Y210.591 E25.19805
G1 X31.181 Y210.302 E25.24171
G1 X30.316 Y209.939 E25.2854
G1 X29.486 Y209.503 E25.32905
G1 X28.695 Y208.998 E25.37275
G1 X27.951 Y208.427 E25.41642
G1 X27.258 Y207.795 E25.46009
G1 X26.621 Y207.107 E25.50375
G1 X26.046 Y206.366 E25.54743
G1 X25.535 Y205.58 E25.59108
G1 X25.093 Y204.752 E25.63479
G1 X24.724 Y203.89 E25.67845
G1 X24.429 Y203 E25.72211
G1 X24.211 Y202.088 E25.76577
G1 X24.071 Y201.16 E25.80947
G1 X24.013 Y200.288 E25.85016
G1 X24 Y199.658 E25.8795
G1 X24.001 Y123.863 E29.40884
G1 X24.022 Y122.798 E29.45844
G1 X24.097 Y121.161 E29.53474
G1 X24.167 Y118.577 E29.65511
G1 X24.163 Y116.096 E29.77064
G1 X24.007 Y111.756 E29.97285
G1 X24 Y111.36 E29.9913
G1 X24.001 Y35.509 E33.52324
G1 X24.011 Y34.844 E33.55421
G1 X24.065 Y33.907 E33.59791
G1 X24.199 Y32.979 E33.64157
G1 X24.411 Y32.065 E33.68526
G1 X24.7 Y31.173 E33.72892
G1 X25.065 Y30.309 E33.77259
G1 X25.501 Y29.479 E33.81625
G1 X26.007 Y28.689 E33.85993
G1 X26.578 Y27.945 E33.9036
G1 X27.21 Y27.252 E33.94728
G0 F6000 X27.602 Y27.427
G1 F1200 X28.288 Y26.813 E33.99015
G1 X29.024 Y26.261 E34.03299
G1 X29.806 Y25.774 E34.07588
G1 X30.627 Y25.358 E34.11874
G1 X31.481 Y25.014 E34.16161
G1 X32.361 Y24.745 E34.20446
G1 X33.262 Y24.554 E34.24734
G1 X34.176 Y24.442 E34.29022
G1 X34.712 Y24.413 E34.31522
G1 X35.33 Y24.4 E34.344
G1 X111.133 Y24.401 E37.87371
G1 X112.174 Y24.421 E37.92219
G1 X113.855 Y24.498 E38.00054
G1 X116.413 Y24.567 E38.1197
G1 X118.917 Y24.563 E38.2363
G1 X123.259 Y24.407 E38.43861
G1 X123.64 Y24.4 E38.45635
G1 X199.445 Y24.401 E41.98615
G1 X200.143 Y24.411 E42.01866
G1 X201.062 Y24.464 E42.06152
G1 X201.973 Y24.597 E42.10439
G1 X202.869 Y24.808 E42.14725
G1 X203.743 Y25.096 E42.1901
G1 X204.59 Y25.459 E42.23301
G1 X205.401 Y25.894 E42.27586
G1 X206.171 Y26.398 E42.31872
G1 X206.895 Y26.967 E42.36159
G1 X207.567 Y27.597 E42.40449
G1 X208.182 Y28.282 E42.44735
G1 X208.735 Y29.018 E42.49022
G1 X209.222 Y29.799 E42.53308
G1 X209.639 Y30.62 E42.57595
G1 X209.984 Y31.474 E42.61884
G1 X210.253 Y32.354 E42.66169
G1 X210.445 Y33.255 E42.70459
G1 X210.558 Y34.168 E42.74742
G1 X210.587 Y34.712 E42.77279
G1 X210.6 Y35.33 E42.80157
G1 X210.599 Y111.11 E46.33021
G1 X210.579 Y112.173 E46.37971
G1 X210.502 Y113.855 E46.45812
G1 X210.433 Y116.413 E46.57727
G1 X210.437 Y118.919 E46.69396
G1 X210.593 Y123.259 E46.89618
G1 X210.6 Y123.64 E46.91392
G1 X210.599 Y199.41 E50.44209
G1 X210.589 Y200.137 E50.47595
G1 X210.536 Y201.056 E50.51881
G1 X210.404 Y201.967 E50.56168
G1 X210.193 Y202.863 E50.60454
G1 X209.906 Y203.738 E50.64742
G1 X209.543 Y204.584 E50.69028
G1 X209.109 Y205.396 E50.73316
G1 X208.605 Y206.167 E50.77605
G1 X208.037 Y206.891 E50.8189
G1 X207.408 Y207.563 E50.86176
G1 X206.723 Y208.178 E50.90462
G1 X205.987 Y208.731 E50.94749
G1 X205.206 Y209.219 E50.99037
G1 X204.386 Y209.637 E51.03323
G1 X203.532 Y209.982 E51.07612
G1 X202.652 Y210.251 E51.11896
G1 X201.751 Y210.444 E51.16187
G1 X200.838 Y210.557 E51.20471
G1 X200.288 Y210.587 E51.23036
G1 X199.67 Y210.6 E51.25914
G1 X123.867 Y210.599 E54.78884
G1 X122.827 Y210.579 E54.83728
G1 X121.145 Y210.502 E54.91568
G1 X118.587 Y210.433 E55.03484
G1 X116.083 Y210.437 E55.15143
G1 X111.741 Y210.593 E55.35375
G1 X111.36 Y210.6 E55.37149
G1 X35.555 Y210.599 E58.90129
G1 X34.857 Y210.589 E58.93379
G1 X33.938 Y210.536 E58.97666
G1 X33.027 Y210.403 E59.01953
G1 X32.131 Y210.192 E59.06239
G1 X31.257 Y209.904 E59.10524
G1 X30.41 Y209.541 E59.14815
G1 X29.599 Y209.106 E59.191
G1 X28.829 Y208.602 E59.23385
G1 X28.105 Y208.033 E59.27673
G1 X27.433 Y207.403 E59.31962
G1 X26.818 Y206.718 E59.36249
G1 X26.265 Y205.982 E59.40536
G1 X25.778 Y205.201 E59.44821
G1 X25.361 Y204.38 E59.49109
G1 X25.016 Y203.526 E59.53398
G1 X24.747 Y202.646 E59.57683
G1 X24.555 Y201.745 E59.61972
G1 X24.442 Y200.832 E59.66256
G1 X24.413 Y200.277 E59.68844
G1 X24.4 Y199.658 E59.71727
G1 X24.401 Y123.868 E63.24637
G1 X24.421 Y122.817 E63.29532
G1 X24.498 Y121.139 E63.37353
G1 X24.567 Y118.587 E63.49241
G1 X24.563 Y116.081 E63.6091
G1 X24.407 Y111.741 E63.81132
G1 X24.4 Y111.36 E63.82906
G1 X24.401 Y35.515 E67.36072
G1 X24.411 Y34.85 E67.39169
G1 X24.465 Y33.931 E67.43456
G1 X24.598 Y33.02 E67.47743
G1 X24.81 Y32.124 E67.5203
G1 X25.099 Y31.249 E67.56321
G1 X25.463 Y30.404 E67.60605
G1 X25.898 Y29.593 E67.64891
G1 X26.403 Y28.822 E67.69182
G1 X26.972 Y28.099 E67.73466
G1 X27.602 Y27.427 E67.77756
G0 F6000 X27.993 Y27.606
G1 F1200 X28.675 Y27.014 E67.81961
G1 X29.407 Y26.485 E67.86166
G1 X30.183 Y26.023 E67.90371
G1 X30.997 Y25.632 E67.94576
G1 X31.842 Y25.313 E67.98782
G1 X32.712 Y25.071 E68.02987
G1 X33.6 Y24.907 E68.07192
G1 X34.723 Y24.813 E68.12439
G1 X35.33 Y24.8 E68.15266
G1 X111.127 Y24.801 E71.68209
G1 X112.156 Y24.821 E71.73001
G1 X113.827 Y24.898 E71.8079
G1 X116.402 Y24.967 E71.92785
G1 X118.932 Y24.963 E72.04566
G1 X123.273 Y24.807 E72.24792
G1 X123.64 Y24.8 E72.26502
G1 X199.439 Y24.801 E75.79453
G1 X200.137 Y24.811 E75.82704
G1 X201.039 Y24.864 E75.86911
G1 X201.932 Y24.996 E75.91115
G1 X202.81 Y25.207 E75.95319
G1 X203.666 Y25.495 E75.99525
G1 X204.493 Y25.857 E76.03728
G1 X205.285 Y26.292 E76.07936
G1 X206.036 Y26.794 E76.12142
G1 X206.739 Y27.361 E76.16348
G1 X207.389 Y27.988 E76.20553
G1 X207.981 Y28.67 E76.24758
G1 X208.511 Y29.401 E76.28963
G1 X208.973 Y30.177 E76.33168
G1 X209.366 Y30.99 E76.37373
G1 X209.684 Y31.835 E76.41577
G1 X209.927 Y32.705 E76.45783
G1 X210.092 Y33.593 E76.49989
G1 X210.187 Y34.723 E76.55269
G1 X210.2 Y35.33 E76.58096
G1 X210.199 Y111.105 E80.10936
G1 X210.179 Y112.155 E80.15826
G1 X210.102 Y113.827 E80.2362
G1 X210.033 Y116.402 E80.35615
G1 X210.037 Y118.934 E80.47405
G1 X210.193 Y123.273 E80.67622
G1 X210.2 Y123.64 E80.69331
G1 X210.199 Y199.404 E84.2212
G1 X210.189 Y200.131 E84.25506
G1 X210.137 Y201.033 E84.29713
G1 X210.005 Y201.926 E84.33916
G1 X209.794 Y202.805 E84.38125
G1 X209.507 Y203.661 E84.42329
G1 X209.145 Y204.488 E84.46533
G1 X208.711 Y205.28 E84.50738
G1 X208.209 Y206.031 E84.54944
G1 X207.643 Y206.734 E84.59147
G1 X207.016 Y207.385 E84.63356
G1 X206.335 Y207.977 E84.67557
G1 X205.604 Y208.507 E84.71762
G1 X204.828 Y208.97 E84.75969
G1 X204.015 Y209.363 E84.80174
G1 X203.17 Y209.683 E84.84382
G1 X202.301 Y209.926 E84.88583
G1 X201.413 Y210.091 E84.92789
G1 X200.277 Y210.187 E84.98097
G1 X199.67 Y210.2 E85.00925
G1 X123.872 Y210.199 E88.53872
G1 X122.845 Y210.179 E88.58655
G1 X121.173 Y210.102 E88.66449
G1 X118.598 Y210.033 E88.78443
G1 X116.068 Y210.037 E88.90224
G1 X111.727 Y210.193 E89.10451
G1 X111.36 Y210.2 E89.1216
G1 X35.561 Y210.199 E92.65112
G1 X34.863 Y210.189 E92.68362
G1 X33.961 Y210.136 E92.72569
G1 X33.068 Y210.004 E92.76773
G1 X32.19 Y209.793 E92.80978
G1 X31.334 Y209.505 E92.85183
G1 X30.507 Y209.143 E92.89387
G1 X29.715 Y208.708 E92.93594
G1 X28.964 Y208.206 E92.978
G1 X28.261 Y207.639 E93.02006
G1 X27.611 Y207.012 E93.06211
G1 X27.019 Y206.33 E93.10416
G1 X26.489 Y205.599 E93.14621
G1 X26.027 Y204.823 E93.18826
G1 X25.634 Y204.01 E93.23031
G1 X25.316 Y203.165 E93.27235
G1 X25.073 Y202.295 E93.31441
G1 X24.908 Y201.407 E93.35647
G1 X24.813 Y200.266 E93.40978
G1 X24.8 Y199.658 E93.4381
G1 X24.801 Y123.874 E96.96692
G1 X24.821 Y122.835 E97.01531
G1 X24.898 Y121.167 E97.09306
G1 X24.967 Y118.598 E97.21273
G1 X24.963 Y116.066 E97.33063
G1 X24.807 Y111.727 E97.5328
G1 X24.8 Y111.36 E97.54989
G1 X24.801 Y35.521 E101.08127
G1 X24.811 Y34.856 E101.11224
G1 X24.865 Y33.954 E101.15432
G1 X24.998 Y33.061 E101.19636
G1 X25.209 Y32.183 E101.23841
G1 X25.498 Y31.327 E101.28048
G1 X25.861 Y30.5 E101.32253
G1 X26.295 Y29.709 E101.36454
G1 X26.798 Y28.958 E101.40663
G1 X27.366 Y28.256 E101.44868
G1 X27.993 Y27.606 E101.49073
G1 F2700 E96.49073
;MESH:toplamp.stl
G0 F6000 X40.03 Y40.813
G0 X79.495 Y106.375
;TYPE:WALL-INNER
G1 F2700 E101.49073
G1 F1200 X79.257 Y106.48 E101.50285
G1 X40.685 Y106.48 E103.29892
G1 X40.385 Y106.305 E103.31509
G1 X40.21 Y106.005 E103.33126
G1 X40.21 Y40.81 E106.36702
G1 X40.232 Y40.647 E106.37467
G1 X40.385 Y40.385 E106.3888
G1 X40.685 Y40.21 E106.40497
G1 X105.992 Y40.21 E109.44594
G1 X106.188 Y40.295 E109.45589
G1 X106.396 Y40.501 E109.46952
G1 X106.48 Y40.81 E109.48443
G1 X106.478 Y79.208 E111.2724
G1 X106.426 Y79.405 E111.28189
G1 X106.261 Y79.619 E111.29447
G1 X105.998 Y79.755 E111.30826
G1 X79.756 Y79.756 E112.5302
G1 X79.753 Y105.933 E113.74911
G1 X79.682 Y106.168 E113.76054
G1 X79.495 Y106.375 E113.77353
G0 F6000 X79.355 Y105.958
;TYPE:WALL-OUTER
G1 F1200 X79.2 Y106.076 E113.7826
G1 X40.767 Y106.08 E115.5722
G1 X40.668 Y106.022 E115.57754
G1 X40.612 Y105.915 E115.58317
G1 X40.61 Y40.81 E118.61473
G1 X40.668 Y40.668 E118.62187
G1 X40.775 Y40.612 E118.6275
G1 X105.919 Y40.61 E121.66087
G1 X106.022 Y40.668 E121.66638
G1 X106.08 Y40.767 E121.67172
G1 X106.076 Y79.2 E123.46132
G1 X105.959 Y79.355 E123.47036
G1 X79.356 Y79.356 E124.70911
G1 X79.355 Y105.958 E125.94781
G1 F2700 E120.94781
G0 F6000 X79.655 Y105.958
G0 X79.935 Y105.897
G0 X83.684 Y105.88
G0 X92.612 Y106.441
;TYPE:WALL-INNER
G1 F2700 E125.94781
G1 F1200 X92.412 Y106.48 E125.9573
G1 X84.412 Y106.478 E126.32981
G1 X84.125 Y106.376 E126.344
G1 X83.938 Y106.168 E126.35702
G1 X83.867 Y105.933 E126.36845
G1 X83.865 Y84.465 E127.36809
G1 X83.949 Y84.157 E127.38296
G1 X84.157 Y83.949 E127.39665
G1 X84.465 Y83.865 E127.41152
G1 X105.998 Y83.865 E128.41419
G1 X106.261 Y84.001 E128.42797
G1 X106.375 Y84.125 E128.43582
G1 X106.48 Y84.363 E128.44793
G1 X106.48 Y92.515 E128.82752
G1 X106.379 Y92.729 E128.83854
G1 X106.242 Y92.875 E128.84786
G1 X101.992 Y95.285 E129.07536
G1 X98.315 Y98.352 E129.29832
G1 X95.26 Y102.028 E129.52089
G1 X92.851 Y106.286 E129.74869
G1 X92.612 Y106.441 E129.76195
G0 F6000 X92.448 Y106.08
;TYPE:WALL-OUTER
G1 F1200 X84.42 Y106.076 E130.13577
G1 X84.265 Y105.958 E130.14484
G1 X84.265 Y84.465 E131.14565
G1 X84.323 Y84.323 E131.15279
G1 X84.43 Y84.267 E131.15841
G1 X105.959 Y84.265 E132.16089
G1 X106.076 Y84.42 E132.16994
G1 X106.08 Y92.437 E132.54324
G1 X105.979 Y92.57 E132.55102
G1 X101.764 Y94.955 E132.77653
G1 X98.031 Y98.068 E133.00286
G1 X94.93 Y101.8 E133.2288
G1 X92.55 Y106.014 E133.45415
G1 X92.448 Y106.08 E133.45981
G1 F2700 E128.45981
G0 F6000 X92.448 Y106.38
G0 X90.847 Y106.66
G0 X90.526 Y110.909
G0 X90.847 Y123.91
;TYPE:WALL-INNER
G1 F2700 E133.45981
G1 F1200 X84.412 Y123.908 E133.75945
G1 X84.125 Y123.806 E133.77363
G1 X83.938 Y123.598 E133.78666
G1 X83.867 Y123.363 E133.79809
G1 X83.865 Y111.69 E134.34163
G1 X83.886 Y111.531 E134.3491
G1 X84.001 Y111.309 E134.36074
G1 X84.215 Y111.144 E134.37333
G1 X84.412 Y111.092 E134.38281
G1 X90.527 Y111.09 E134.66755
G1 X90.716 Y111.12 E134.67646
G1 X90.89 Y111.211 E134.68561
G1 X91.091 Y111.481 E134.70128
G1 X91.127 Y111.68 E134.7107
G1 X90.609 Y117.501 E134.98282
G1 X91.345 Y123.247 E135.25256
G1 X91.339 Y123.416 E135.26044
G1 X91.199 Y123.706 E135.27543
G1 X91.024 Y123.843 E135.28578
G1 X90.847 Y123.91 E135.29459
G0 F6000 X90.927 Y123.4
;TYPE:WALL-OUTER
G1 F1200 X90.782 Y123.508 E135.30301
G1 X84.42 Y123.506 E135.59925
G1 X84.265 Y123.388 E135.60832
G1 X84.265 Y111.69 E136.15303
G1 X84.289 Y111.593 E136.15768
G1 X84.42 Y111.494 E136.16533
G1 X90.571 Y111.49 E136.45175
G1 X90.731 Y111.641 E136.46199
G1 X90.207 Y117.509 E136.73632
G1 X90.947 Y123.289 E137.00766
G1 X90.927 Y123.4 E137.01291
G1 F2700 E132.01291
G0 F6000 X91.259 Y123.359
G0 X91.448 Y123.659
G0 X95.63 Y124.643
G0 X116.5 Y139.104
;TYPE:WALL-INNER
G1 F2700 E137.01291
G1 F1200 X112.168 Y138.682 E137.21558
G1 X107.917 Y137.41 E137.42219
G1 X103.891 Y135.256 E137.63481
G1 X100.344 Y132.309 E137.84954
G1 X97.487 Y128.722 E138.06307
G1 X95.438 Y124.696 E138.27342
G1 X94.265 Y120.565 E138.47338
G1 X93.902 Y116.557 E138.66077
G1 X93.902 Y116.444 E138.66603
G1 X94.312 Y112.18 E138.8655
G1 X95.594 Y107.912 E139.07301
G1 X97.74 Y103.891 E139.28524
G1 X100.684 Y100.349 E139.4997
G1 X104.271 Y97.491 E139.71326
G1 X108.288 Y95.444 E139.9232
G1 X112.434 Y94.265 E140.12391
G1 X116.503 Y93.897 E140.31415
G1 X120.82 Y94.313 E140.5161
G1 X125.086 Y95.593 E140.72349
G1 X129.106 Y97.738 E140.93566
G1 X132.649 Y100.683 E141.15019
G1 X135.502 Y104.265 E141.36342
G1 X137.559 Y108.295 E141.5741
G1 X138.735 Y112.438 E141.77464
G1 X139.103 Y116.501 E141.96461
G1 X138.687 Y120.819 E142.1666
G1 X137.406 Y125.086 E142.37405
G1 X135.246 Y129.125 E142.58733
G1 X132.325 Y132.637 E142.80003
G1 X128.723 Y135.512 E143.01463
G1 X124.719 Y137.553 E143.2239
G1 X120.566 Y138.735 E143.42496
G1 X116.5 Y139.104 E143.61507
G0 F6000 X116.48 Y138.7
;TYPE:WALL-OUTER
G1 F1200 X112.269 Y138.294 E143.81206
G1 X108.045 Y137.027 E144.01741
G1 X104.132 Y134.935 E144.22402
G1 X100.644 Y132.039 E144.43512
G1 X97.835 Y128.516 E144.64492
G1 X95.815 Y124.562 E144.85167
G1 X94.658 Y120.472 E145.0496
G1 X94.3 Y116.521 E145.23432
G1 X94.705 Y112.275 E145.43293
G1 X95.964 Y108.064 E145.63759
G1 X98.083 Y104.104 E145.84672
G1 X100.953 Y100.652 E146.05576
G1 X104.511 Y97.817 E146.2676
G1 X108.415 Y95.825 E146.47168
