;FLAVOR:Marlin
;TIME:597
;Filament used: 0.303625m
;Layer height: 0.2
;MINX:78.551
;MINY:89.228
;MINZ:0.2
;MAXX:144.999
;MAXY:143.615
;MAXZ:8.709
;Generated with Cura_SteamEngine 5.2.0
M140 S50
M105
M190 S50
M104 S200
M105
M109 S200
M82 ;absolute extrusion mode
; Ender 3 Custom Start G-code
G92 E0 ; Reset Extruder
G28 ; Home all axes
G1 Z2.0 F3000 ; Move Z Axis up little to prevent scratching of Heat Bed
G1 X0.1 Y20 Z0.3 F5000.0 ; Move to start position
G1 X0.1 Y200.0 Z0.3 F1500.0 E15 ; Draw the first line
G1 X0.4 Y200.0 Z0.3 F5000.0 ; Move to side a little
G1 X0.4 Y20 Z0.3 F1500.0 E30 ; Draw the second line
G92 E0 ; Reset Extruder
G1 Z2.0 F3000 ; Move Z Axis up little to prevent scratching of Heat Bed
G1 X5 Y20 Z0.3 F5000.0 ; Move over to prevent blob squish
G92 E0
G92 E0
G1 F2700 E-5
;LAYER_COUNT:43
;LAYER:0
M107
G0 F6000 X84.549 Y94.977 Z0.2
;TYPE:SKIRT
G1 F2700 E0
G1 F1200 X85.261 Y94.365 E0.03123
G1 X86.021 Y93.817 E0.06239
G1 X86.826 Y93.335 E0.0936
G1 X87.382 Y93.054 E0.11432
G1 X88.711 Y92.428 E0.16318
G1 X91.84 Y90.87 E0.27944
G1 X92.623 Y90.463 E0.30879
G1 X93.472 Y90.066 E0.33996
G1 X94.353 Y89.743 E0.37117
G1 X95.258 Y89.496 E0.40237
G1 X96.18 Y89.327 E0.43355
G1 X97.114 Y89.238 E0.46475
G1 X98.052 Y89.228 E0.49595
G1 X98.987 Y89.298 E0.52714
G1 X99.913 Y89.447 E0.55833
G1 X100.498 Y89.584 E0.57832
G1 X102.082 Y90.001 E0.6328
G1 X105.332 Y90.78 E0.74395
G1 X106.187 Y90.97 E0.77308
G1 X107.093 Y91.212 E0.80428
G1 X107.975 Y91.53 E0.83546
G1 X108.827 Y91.923 E0.86667
G1 X109.642 Y92.386 E0.89784
G1 X110.415 Y92.917 E0.92903
G1 X111.14 Y93.513 E0.96025
G1 X111.812 Y94.167 E0.99144
G1 X112.425 Y94.877 E1.02264
G1 X112.789 Y95.364 E1.04286
G1 X113.748 Y96.722 E1.09815
G1 X115.71 Y99.373 E1.20785
G1 X116.246 Y100.071 E1.23712
G1 X116.785 Y100.838 E1.2683
G1 X117.257 Y101.649 E1.29951
G1 X117.658 Y102.497 E1.33071
G1 X117.985 Y103.375 E1.36187
G1 X118.236 Y104.279 E1.39307
G1 X118.409 Y105.201 E1.42427
G1 X118.504 Y106.134 E1.45547
G1 X118.518 Y107.072 E1.48667
G1 X118.484 Y107.684 E1.50705
G1 X118.361 Y109.163 E1.55642
G1 X118.146 Y112.641 E1.67231
G1 X118.107 Y113.522 E1.70165
G1 X118.026 Y114.456 E1.73283
G1 X117.866 Y115.381 E1.76405
G1 X117.628 Y116.288 E1.79524
G1 X117.313 Y117.171 E1.82642
G1 X116.924 Y118.024 E1.8576
G1 X116.464 Y118.842 E1.88882
G1 X115.935 Y119.617 E1.92002
G1 X115.343 Y120.344 E1.95121
G1 X114.925 Y120.789 E1.97151
G1 X114.073 Y121.648 E2.01175
G1 X111.472 Y124.377 E2.13714
G1 X110.897 Y125.006 E2.16549
G1 X110.235 Y125.67 E2.19667
G1 X109.519 Y126.276 E2.22787
G1 X108.754 Y126.818 E2.25906
G1 X107.946 Y127.294 E2.29025
G1 X107.1 Y127.698 E2.32143
G1 X106.222 Y128.03 E2.35265
G1 X105.32 Y128.285 E2.38382
G1 X104.399 Y128.462 E2.41502
G1 X103.779 Y128.537 E2.43579
G1 X102.519 Y128.652 E2.47787
G1 X98.786 Y129.07 E2.60281
G1 X97.972 Y129.177 E2.63011
G1 X97.038 Y129.26 E2.6613
G1 X96.1 Y129.263 E2.6925
G1 X95.165 Y129.187 E2.7237
G1 X94.24 Y129.03 E2.75491
G1 X93.332 Y128.796 E2.78609
G1 X92.447 Y128.485 E2.81729
G1 X91.592 Y128.1 E2.84848
G1 X90.773 Y127.643 E2.87967
G1 X90.262 Y127.309 E2.89998
G1 X88.933 Y126.387 E2.95378
G1 X86.171 Y124.558 E3.06396
G1 X85.397 Y124.065 E3.09448
G1 X84.628 Y123.528 E3.12568
G1 X83.908 Y122.927 E3.15687
G1 X83.242 Y122.267 E3.18805
G1 X82.634 Y121.553 E3.21925
G1 X82.09 Y120.789 E3.25044
G1 X81.612 Y119.982 E3.28164
G1 X81.205 Y119.137 E3.31283
G1 X80.871 Y118.261 E3.34401
G1 X80.697 Y117.683 E3.36409
G1 X80.335 Y116.355 E3.40987
G1 X79.308 Y112.872 E3.53065
G1 X79.054 Y112.067 E3.55872
G1 X78.81 Y111.162 E3.5899
G1 X78.644 Y110.238 E3.62112
G1 X78.558 Y109.305 E3.65229
G1 X78.551 Y108.367 E3.68348
G1 X78.624 Y107.432 E3.71468
G1 X78.777 Y106.506 E3.74589
G1 X79.008 Y105.597 E3.77709
G1 X79.315 Y104.711 E3.80828
G1 X79.559 Y104.142 E3.82887
G1 X80.066 Y103.044 E3.86909
G1 X81.589 Y99.564 E3.99544
G1 X81.902 Y98.806 E4.02271
G1 X82.296 Y97.955 E4.0539
G1 X82.762 Y97.141 E4.0851
G1 X83.296 Y96.369 E4.11632
G1 X83.893 Y95.646 E4.14751
G1 X84.549 Y94.977 E4.17867
G0 F6000 X84.885 Y95.211
G1 F1200 X85.588 Y94.617 E4.20928
G1 X86.341 Y94.087 E4.23991
G1 X87.136 Y93.623 E4.27052
G1 X87.552 Y93.416 E4.28598
G1 X88.899 Y92.782 E4.33549
G1 X92.001 Y91.237 E4.45076
G1 X92.807 Y90.818 E4.48097
G1 X93.642 Y90.429 E4.51161
G1 X94.507 Y90.114 E4.54223
G1 X95.396 Y89.875 E4.57284
G1 X96.302 Y89.714 E4.60345
G1 X97.219 Y89.633 E4.63407
G1 X98.14 Y89.631 E4.6647
G1 X99.057 Y89.709 E4.69531
G1 X100.396 Y89.971 E4.74069
G1 X101.984 Y90.389 E4.79531
G1 X105.263 Y91.175 E4.90746
G1 X106.1 Y91.361 E4.93597
G1 X106.989 Y91.599 E4.96658
G1 X107.855 Y91.913 E4.99722
G1 X108.689 Y92.302 E5.02783
G1 X109.487 Y92.761 E5.05845
G1 X110.242 Y93.288 E5.08907
G1 X110.949 Y93.879 E5.11972
G1 X111.601 Y94.528 E5.15032
G1 X112.463 Y95.594 E5.19591
G1 X113.441 Y96.979 E5.25231
G1 X115.385 Y99.605 E5.36098
G1 X115.929 Y100.314 E5.3907
G1 X116.457 Y101.068 E5.42132
G1 X116.918 Y101.865 E5.45194
G1 X117.309 Y102.699 E5.48257
G1 X117.625 Y103.563 E5.51317
G1 X117.865 Y104.452 E5.5438
G1 X118.027 Y105.358 E5.57441
G1 X118.11 Y106.275 E5.60504
G1 X118.085 Y107.651 E5.65081
G1 X117.964 Y109.104 E5.6993
G1 X117.748 Y112.6 E5.8158
G1 X117.708 Y113.505 E5.84593
G1 X117.628 Y114.422 E5.87655
G1 X117.468 Y115.328 E5.90715
G1 X117.23 Y116.218 E5.93779
G1 X116.917 Y117.083 E5.96839
G1 X116.529 Y117.918 E5.99901
G1 X116.07 Y118.717 E6.02966
G1 X115.544 Y119.472 E6.06026
G1 X114.641 Y120.508 E6.10597
G1 X113.758 Y121.398 E6.14767
G1 X111.194 Y124.088 E6.27127
G1 X110.602 Y124.736 E6.30046
G1 X109.952 Y125.387 E6.33106
G1 X109.247 Y125.98 E6.3617
G1 X108.494 Y126.51 E6.39233
G1 X107.698 Y126.972 E6.42294
G1 X106.865 Y127.363 E6.45355
G1 X106.001 Y127.681 E6.48417
G1 X105.112 Y127.922 E6.5148
G1 X104.206 Y128.086 E6.54543
G1 X103.742 Y128.138 E6.56096
G1 X102.492 Y128.252 E6.6027
G1 X98.789 Y128.666 E6.72663
G1 X97.92 Y128.781 E6.75579
G1 X97.002 Y128.862 E6.78644
G1 X96.082 Y128.862 E6.81704
G1 X95.165 Y128.783 E6.84765
G1 X94.258 Y128.625 E6.87827
G1 X93.368 Y128.388 E6.90891
G1 X92.502 Y128.076 E6.93952
G1 X91.666 Y127.689 E6.97016
G1 X90.49 Y126.981 E7.01582
G1 X89.15 Y126.051 E7.07007
G1 X86.385 Y124.221 E7.18035
G1 X85.612 Y123.728 E7.21084
G1 X84.858 Y123.2 E7.24146
G1 X84.152 Y122.608 E7.2721
G1 X83.501 Y121.958 E7.3027
G1 X82.908 Y121.253 E7.33334
G1 X82.379 Y120.5 E7.36395
G1 X81.917 Y119.704 E7.39456
G1 X81.526 Y118.87 E7.4252
G1 X81.083 Y117.578 E7.47062
G1 X80.712 Y116.218 E7.51751
G1 X79.703 Y112.797 E7.63614
G1 X79.435 Y111.947 E7.66578
G1 X79.196 Y111.058 E7.6964
G1 X79.036 Y110.151 E7.72703
G1 X78.955 Y109.234 E7.75765
G1 X78.953 Y108.313 E7.78828
G1 X79.032 Y107.396 E7.8189
G1 X79.19 Y106.489 E7.84952
G1 X79.426 Y105.599 E7.88014
G1 X79.738 Y104.733 E7.91076
G1 X79.922 Y104.31 E7.9261
G1 X80.42 Y103.232 E7.9656
G1 X81.949 Y99.737 E8.09248
G1 X82.271 Y98.958 E8.12051
G1 X82.659 Y98.123 E8.15114
G1 X83.119 Y97.326 E8.18174
G1 X83.645 Y96.57 E8.21238
G1 X84.235 Y95.864 E8.24298
G1 X84.885 Y95.211 E8.27362
G0 F6000 X85.219 Y95.447
G1 F1200 X85.915 Y94.871 E8.30367
G1 X86.658 Y94.359 E8.33368
G1 X87.723 Y93.778 E8.37403
G1 X89.051 Y93.153 E8.42285
G1 X92.208 Y91.581 E8.54015
G1 X92.992 Y91.173 E8.56954
G1 X93.811 Y90.792 E8.59959
G1 X94.66 Y90.485 E8.62962
G1 X95.533 Y90.255 E8.65964
G1 X96.423 Y90.102 E8.68968
G1 X97.324 Y90.029 E8.71974
G1 X98.227 Y90.036 E8.74978
G1 X99.126 Y90.122 E8.77982
G1 X100.294 Y90.358 E8.81945
G1 X101.875 Y90.774 E8.87382
G1 X105.152 Y91.56 E8.98591
G1 X106.013 Y91.751 E9.01524
G1 X106.886 Y91.986 E9.04531
G1 X107.734 Y92.296 E9.07534
G1 X108.551 Y92.681 E9.10538
G1 X109.331 Y93.136 E9.13541
G1 X110.067 Y93.658 E9.16543
G1 X110.755 Y94.244 E9.19548
G1 X111.388 Y94.888 E9.22552
G1 X112.136 Y95.825 E9.2654
G1 X113.118 Y97.215 E9.322
G1 X115.079 Y99.865 E9.43165
G1 X115.611 Y100.558 E9.46071
G1 X116.129 Y101.298 E9.49075
G1 X116.58 Y102.081 E9.5208
G1 X116.959 Y102.9 E9.55082
G1 X117.264 Y103.75 E9.58085
G1 X117.493 Y104.624 E9.6109
G1 X117.644 Y105.514 E9.64093
G1 X117.716 Y106.414 E9.67096
G1 X117.687 Y107.618 E9.71102
G1 X117.564 Y109.095 E9.76031
G1 X117.346 Y112.613 E9.87754
G1 X117.308 Y113.487 E9.90664
G1 X117.229 Y114.387 E9.93669
G1 X117.07 Y115.276 E9.96673
G1 X116.833 Y116.147 E9.99675
G1 X116.52 Y116.994 E10.02678
G1 X116.134 Y117.811 E10.05684
G1 X115.676 Y118.589 E10.08687
G1 X115.152 Y119.325 E10.11692
G1 X114.357 Y120.226 E10.15688
G1 X113.492 Y121.098 E10.19773
G1 X110.892 Y123.826 E10.32307
G1 X110.307 Y124.466 E10.35191
G1 X109.668 Y125.105 E10.38197
G1 X108.976 Y125.684 E10.41198
G1 X108.235 Y126.201 E10.44203
G1 X107.451 Y126.649 E10.47207
G1 X106.631 Y127.027 E10.5021
G1 X105.78 Y127.331 E10.53215
G1 X104.906 Y127.558 E10.56219
G1 X103.706 Y127.74 E10.60256
G1 X102.456 Y127.854 E10.6443
G1 X98.691 Y128.275 E10.77031
G1 X97.867 Y128.384 E10.79795
G1 X96.967 Y128.463 E10.828
G1 X96.064 Y128.461 E10.85804
G1 X95.165 Y128.38 E10.88806
G1 X94.276 Y128.219 E10.91811
G1 X93.405 Y127.981 E10.94814
G1 X92.559 Y127.666 E10.97816
G1 X91.743 Y127.278 E11.00822
G1 X90.718 Y126.652 E11.04816
G1 X89.387 Y125.728 E11.10205
G1 X86.613 Y123.892 E11.2127
G1 X85.827 Y123.391 E11.2437
G1 X85.088 Y122.872 E11.27373
G1 X84.397 Y122.29 E11.30378
G1 X83.761 Y121.649 E11.33381
G1 X83.183 Y120.955 E11.36385
G1 X82.67 Y120.212 E11.39388
G1 X82.224 Y119.426 E11.42394
G1 X81.85 Y118.605 E11.45395
G1 X81.468 Y117.473 E11.49369
G1 X81.097 Y116.112 E11.5406
G1 X80.069 Y112.626 E11.66149
G1 X79.817 Y111.827 E11.68935
G1 X79.583 Y110.954 E11.71941
G1 X79.428 Y110.064 E11.74946
G1 X79.352 Y109.165 E11.77947
G1 X79.356 Y108.261 E11.80953
G1 X79.44 Y107.362 E11.83956
G1 X79.603 Y106.474 E11.86959
G1 X79.844 Y105.604 E11.89962
G1 X80.285 Y104.478 E11.93984
G1 X80.793 Y103.38 E11.98008
G1 X82.318 Y99.892 E12.10669
G1 X82.641 Y99.111 E12.1348
G1 X83.022 Y98.292 E12.16485
G1 X83.475 Y97.511 E12.19488
G1 X83.995 Y96.772 E12.22493
G1 X84.578 Y96.083 E12.25495
G1 X85.219 Y95.447 E12.28498
G1 F2700 E7.28498
;MESH:a3_nestedobject.stl
G0 F6000 X88.849 Y109.14
G0 X90.517 Y114.842
G0 X91.021 Y115.528
G0 X95.962 Y118.822
G0 X96.707 Y119.002
G0 X102.02 Y117.823
G0 X102.568 Y117.156
;TYPE:WALL-OUTER
G1 F2700 E12.28498
G1 F1200 X102.421 Y113.095 E12.42014
G1 X102.476 Y112.948 E12.42536
G1 X102.579 Y112.887 E12.42934
G1 X106.682 Y112.848 E12.56582
G1 X103.931 Y109.805 E12.70225
G1 X103.906 Y109.709 E12.70555
G1 X103.948 Y109.569 E12.71042
G1 X107.065 Y106.905 E12.84679
G1 X102.972 Y106.336 E12.98424
G1 X102.859 Y106.181 E12.99062
G1 X103.538 Y102.106 E13.12802
G1 X100.062 Y104.284 E13.26445
G1 X99.852 Y104.258 E13.27149
G1 X97.752 Y100.695 E13.40905
G1 X96.489 Y104.602 E13.54562
G1 X96.4 Y104.681 E13.54957
G1 X96.244 Y104.69 E13.55477
G1 X92.413 Y103.336 E13.68991
G1 X93.94 Y107.1 E13.82502
G1 X93.938 Y107.257 E13.83024
G1 X93.862 Y107.35 E13.83423
G1 X90.021 Y108.79 E13.97067
G1 X93.644 Y110.71 E14.10704
G1 X93.711 Y110.822 E14.11139
G1 X93.711 Y110.933 E14.11508
G1 X91.693 Y114.506 E14.25156
G1 X95.705 Y113.648 E14.38802
G1 X95.893 Y113.751 E14.39515
G1 X96.648 Y117.808 E14.5324
G1 X99.169 Y114.571 E14.66886
G1 X99.256 Y114.531 E14.67205
G1 X99.402 Y114.548 E14.67694
G1 X102.568 Y117.156 E14.81336
G0 F6000 X102.179 Y116.369
;TYPE:SKIN
G1 F1200 X102.061 Y113.092 E14.92243
G1 X102.113 Y112.85 E14.93066
G1 X102.228 Y112.686 E14.93732
G1 X102.476 Y112.531 E14.94705
G1 X105.878 Y112.495 E15.06021
G1 X103.682 Y110.067 E15.16909
G1 X103.553 Y109.837 E15.17786
G1 X103.582 Y109.501 E15.18908
G1 X103.747 Y109.266 E15.19863
G1 X106.222 Y107.152 E15.30689
G1 X102.945 Y106.692 E15.41695
G1 X102.734 Y106.603 E15.42457
G1 X102.529 Y106.328 E15.43598
G1 X102.515 Y106.05 E15.44524
G1 X103.051 Y102.836 E15.55361
G1 X100.179 Y104.635 E15.66633
G1 X99.885 Y104.645 E15.67611
G1 X99.69 Y104.569 E15.68307
G1 X99.515 Y104.395 E15.69128
G1 X97.848 Y101.566 E15.80049
G1 X96.838 Y104.69 E15.90969
G1 X96.675 Y104.929 E15.91932
G1 X96.501 Y105.031 E15.92602
G1 X96.22 Y105.063 E15.93543
G1 X93.049 Y103.945 E16.04726
G1 X94.274 Y106.968 E16.15575
G1 X94.31 Y107.242 E16.16494
G1 X94.183 Y107.546 E16.1759
G1 X93.974 Y107.694 E16.18442
G1 X90.898 Y108.847 E16.29367
G1 X93.877 Y110.426 E16.40581
G1 X94.041 Y110.667 E16.41551
G1 X94.076 Y110.893 E16.42312
G1 X94.018 Y111.124 E16.43104
G1 X92.402 Y113.986 E16.54035
G1 X95.609 Y113.3 E16.64943
G1 X95.864 Y113.308 E16.65792
G1 X96.122 Y113.475 E16.66814
G1 X96.248 Y113.708 E16.67695
G1 X96.857 Y116.951 E16.7867
G1 X98.941 Y114.282 E16.89933
G1 X99.198 Y114.172 E16.90862
G1 X99.427 Y114.178 E16.91624
G1 X99.665 Y114.298 E16.92511
G1 X102.179 Y116.369 E17.03344
G1 F2700 E12.03344
G0 F6000 X101.402 Y117.315
G0 X96.79 Y119.023
G0 X95.962 Y118.822
G0 X91.021 Y115.528
G0 X90.517 Y114.842
G0 X91.747 Y112.652
G0 X92.988 Y113.352
G1 F2700 E17.03344
G1 F1200 X93.236 Y113.601 E17.04513
G0 F6000 X93.702 Y113.501
G1 F1200 X93.191 Y112.99 E17.06917
G0 F6000 X93.396 Y112.629
G1 F1200 X94.169 Y113.402 E17.10553
G0 F6000 X94.635 Y113.303
G1 F1200 X93.6 Y112.268 E17.15421
G0 F6000 X93.804 Y111.906
G1 F1200 X95.102 Y113.204 E17.21526
G0 F6000 X95.568 Y113.104
G1 F1200 X94.008 Y111.544 E17.28864
G0 F6000 X94.209 Y111.18
G1 F1200 X98.082 Y115.052 E17.47079
G0 F6000 X98.33 Y114.735
G1 F1200 X94.228 Y110.633 E17.66374
G0 F6000 X93.699 Y110.104
G1 F1200 X92.176 Y108.581 E17.73537
G0 F6000 X92.587 Y108.427
G1 F1200 X98.577 Y114.416 E18.0171
G0 F6000 X98.835 Y114.109
G1 F1200 X92.999 Y108.272 E18.29163
G0 F6000 X93.41 Y108.118
G1 F1200 X99.263 Y113.971 E18.56694
G1 F2700 E13.56694
G0 F6000 X99.627 Y114.412
G0 X98.081 Y115.563
G0 X97.834 Y115.37
G1 F2700 E18.56694
G1 F1200 X96.521 Y114.057 E18.6287
G0 F6000 X96.65 Y114.752
G1 F1200 X97.587 Y115.689 E18.67277
G0 F6000 X97.338 Y116.006
G1 F1200 X96.78 Y115.447 E18.69904
G0 F6000 X96.909 Y116.142
G1 F1200 X97.091 Y116.324 E18.7076
G1 F2700 E13.7076
G0 F6000 X98.217 Y117.201
G0 X99.969 Y116.136
G0 X100.977 Y115.119
G1 F2700 E18.7076
G1 F1200 X93.822 Y107.964 E19.04415
G0 F6000 X94.2 Y107.776
G1 F1200 X101.948 Y115.524 E19.4086
G0 F6000 X101.927 Y114.938
G1 F1200 X94.439 Y107.449 E19.76083
G0 F6000 X94.464 Y106.909
G1 F1200 X101.906 Y114.351 E20.11088
G0 F6000 X101.884 Y113.763
G1 F1200 X94.081 Y105.961 E20.47789
G0 F6000 X93.695 Y105.009
G1 F1200 X101.862 Y113.176 E20.86204
G0 F6000 X101.967 Y112.715
G1 F1200 X93.606 Y104.354 E21.25531
G0 F6000 X94.481 Y104.663
G1 F1200 X102.253 Y112.435 E21.62088
G0 F6000 X102.707 Y112.323
G1 F1200 X95.356 Y104.973 E21.96663
G0 F6000 X96.206 Y105.257
G1 F1200 X103.267 Y112.318 E22.29876
G0 F6000 X103.828 Y112.313
G1 F1200 X96.674 Y105.16 E22.63523
G0 F6000 X96.954 Y104.873
G1 F1200 X104.388 Y112.308 E22.98493
G0 F6000 X104.948 Y112.302
G1 F1200 X97.117 Y104.471 E23.35328
G0 F6000 X97.255 Y104.043
G1 F1200 X104.686 Y111.474 E23.70281
G1 F2700 E18.70281
G0 F6000 X103.944 Y109.374
G0 X103.373 Y109.595
G1 F2700 E23.70281
G1 F1200 X97.394 Y103.616 E23.98404
G0 F6000 X97.532 Y103.189
G1 F1200 X103.544 Y109.201 E24.26683
G0 F6000 X103.836 Y108.927
G1 F1200 X99.681 Y104.772 E24.46227
G0 F6000 X100.272 Y104.798
G1 F1200 X104.141 Y108.667 E24.64425
G0 F6000 X104.446 Y108.406
G1 F1200 X102.937 Y106.897 E24.71523
G0 F6000 X103.594 Y106.988
G1 F1200 X104.751 Y108.145 E24.76965
G0 F6000 X105.056 Y107.884
G1 F1200 X104.251 Y107.08 E24.80749
G0 F6000 X104.908 Y107.171
G1 F1200 X105.361 Y107.623 E24.82878
G0 F6000 X105.666 Y107.363
G1 F1200 X105.565 Y107.262 E24.83353
G1 F2700 E19.83353
G0 F6000 X105.989 Y105.882
G0 X103.822 Y105.593
G0 X102.328 Y106.288
G1 F2700 E24.83353
G1 F1200 X100.629 Y104.588 E24.91347
G0 F6000 X100.976 Y104.371
G1 F1200 X102.362 Y105.756 E24.97864
G0 F6000 X102.442 Y105.271
G1 F1200 X101.324 Y104.153 E25.03123
G0 F6000 X101.672 Y103.935
G1 F1200 X102.523 Y104.786 E25.07125
G0 F6000 X102.604 Y104.301
G1 F1200 X102.02 Y103.717 E25.09872
G0 F6000 X102.367 Y103.499
G1 F1200 X102.685 Y103.816 E25.11366
G1 F2700 E20.11366
G0 F6000 X104.092 Y104.049
G0 X104.528 Y101.389
G0 X103.82 Y100.917
G0 X100.21 Y103.185
G0 X99.258 Y104.349
G1 F2700 E25.11366
G1 F1200 X97.671 Y102.762 E25.18831
