;FLAVOR:Marlin
;TIME:3793
;Filament used: 3.4303m
;Layer height: 0.2
;MINX:94.7
;MINY:94.7
;MINZ:0.2
;MAXX:140.3
;MAXY:140.3
;MAXZ:36
;Generated with Cura_SteamEngine 5.2.0
M140 S50
M105
M190 S50
M104 S200
M105
M109 S200
M82 ;absolute extrusion mode
; Ender 3 Custom Start G-code
G92 E0 ; Reset Extruder
G28 ; Home all axes
G1 Z2.0 F3000 ; Move Z Axis up little to prevent scratching of Heat Bed
G1 X0.1 Y20 Z0.3 F5000.0 ; Move to start position
G1 X0.1 Y200.0 Z0.3 F1500.0 E15 ; Draw the first line
G1 X0.4 Y200.0 Z0.3 F5000.0 ; Move to side a little
G1 X0.4 Y20 Z0.3 F1500.0 E30 ; Draw the second line
G92 E0 ; Reset Extruder
G1 Z2.0 F3000 ; Move Z Axis up little to prevent scratching of Heat Bed
G1 X5 Y20 Z0.3 F5000.0 ; Move over to prevent blob squish
G92 E0
G92 E0
G1 F2700 E-5
;LAYER_COUNT:180
;LAYER:0
M107
G0 F6000 X101.542 Y101.216 Z0.2
;TYPE:SKIRT
G1 F2700 E0
G1 F1200 X102.138 Y100.688 E0.02648
G1 X104.522 Y98.786 E0.12792
G1 X105.164 Y98.325 E0.15421
G1 X105.844 Y97.934 E0.1803
G1 X108.507 Y96.576 E0.27972
G1 X109.227 Y96.254 E0.30595
G1 X109.922 Y96.021 E0.33033
G1 X112.676 Y95.24 E0.42554
G1 X113.446 Y95.063 E0.45182
G1 X114.101 Y94.976 E0.4738
G1 X116.797 Y94.732 E0.56383
G1 X117.586 Y94.7 E0.5901
G1 X118.247 Y94.736 E0.61212
G1 X121.114 Y95.012 E0.70791
G1 X121.896 Y95.127 E0.7342
G1 X122.605 Y95.304 E0.75851
G1 X125.436 Y96.152 E0.8568
G1 X126.18 Y96.417 E0.88307
G1 X126.875 Y96.745 E0.90863
G1 X129.548 Y98.174 E1.00944
G1 X130.225 Y98.581 E1.03571
G1 X130.859 Y99.057 E1.06208
G1 X133.203 Y101.007 E1.16349
G1 X133.784 Y101.542 E1.18976
G1 X134.312 Y102.138 E1.21625
G1 X136.214 Y104.522 E1.31768
G1 X136.675 Y105.164 E1.34397
G1 X137.066 Y105.844 E1.37006
G1 X138.424 Y108.507 E1.46948
G1 X138.746 Y109.227 E1.49572
G1 X138.979 Y109.922 E1.5201
G1 X139.76 Y112.676 E1.61531
G1 X139.937 Y113.446 E1.64158
G1 X140.024 Y114.1 E1.66353
G1 X140.268 Y116.794 E1.7535
G1 X140.3 Y117.583 E1.77976
G1 X140.264 Y118.245 E1.80181
G1 X139.988 Y121.114 E1.89768
G1 X139.873 Y121.895 E1.92393
G1 X139.696 Y122.605 E1.94827
G1 X138.848 Y125.436 E2.04656
G1 X138.583 Y126.18 E2.07283
G1 X138.255 Y126.874 E2.09836
G1 X136.827 Y129.546 E2.19913
G1 X136.42 Y130.223 E2.2254
G1 X135.944 Y130.859 E2.25182
G1 X133.993 Y133.204 E2.35328
G1 X133.458 Y133.784 E2.37953
G1 X132.862 Y134.312 E2.40601
G1 X130.478 Y136.214 E2.50745
G1 X129.836 Y136.675 E2.53373
G1 X129.155 Y137.066 E2.55985
G1 X126.491 Y138.424 E2.6593
G1 X125.771 Y138.747 E2.68555
G1 X125.078 Y138.979 E2.70986
G1 X122.325 Y139.76 E2.80504
G1 X121.555 Y139.937 E2.83131
G1 X120.899 Y140.024 E2.85332
G1 X118.203 Y140.268 E2.94336
G1 X117.414 Y140.3 E2.96962
G1 X116.753 Y140.264 E2.99164
G1 X113.886 Y139.988 E3.08744
G1 X113.104 Y139.873 E3.11373
G1 X112.395 Y139.696 E3.13803
G1 X109.564 Y138.848 E3.23633
G1 X108.82 Y138.583 E3.2626
G1 X108.125 Y138.255 E3.28816
G1 X105.452 Y136.826 E3.38897
G1 X104.775 Y136.419 E3.41524
G1 X104.141 Y135.943 E3.44161
G1 X101.797 Y133.993 E3.54302
G1 X101.216 Y133.458 E3.56929
G1 X100.687 Y132.861 E3.59582
G1 X98.783 Y130.474 E3.69738
G1 X98.323 Y129.832 E3.72364
G1 X97.932 Y129.152 E3.74973
G1 X96.576 Y126.492 E3.84904
G1 X96.253 Y125.772 E3.87528
G1 X96.021 Y125.078 E3.89962
G1 X95.24 Y122.324 E3.99483
G1 X95.063 Y121.554 E4.02111
G1 X94.976 Y120.9 E4.04305
G1 X94.732 Y118.206 E4.13302
G1 X94.7 Y117.417 E4.15929
G1 X94.736 Y116.755 E4.18134
G1 X95.012 Y113.885 E4.27724
G1 X95.127 Y113.104 E4.30349
G1 X95.304 Y112.393 E4.32786
G1 X96.152 Y109.563 E4.42612
G1 X96.417 Y108.819 E4.45239
G1 X96.745 Y108.125 E4.47792
G1 X98.174 Y105.452 E4.57873
G1 X98.581 Y104.775 E4.60501
G1 X99.057 Y104.141 E4.63137
G1 X101.007 Y101.797 E4.73279
G1 X101.542 Y101.216 E4.75906
G0 F6000 X101.836 Y101.487
G1 F1200 X102.388 Y101 E4.78354
G1 X104.772 Y99.098 E4.88498
G1 X105.397 Y98.651 E4.91053
G1 X106.025 Y98.291 E4.93461
G1 X108.688 Y96.933 E5.03403
G1 X109.391 Y96.619 E5.05964
G1 X110.031 Y96.406 E5.08207
G1 X112.785 Y95.625 E5.17728
G1 X113.535 Y95.454 E5.20287
G1 X114.137 Y95.374 E5.22307
G1 X116.833 Y95.13 E5.3131
G1 X117.602 Y95.101 E5.3387
G1 X118.209 Y95.134 E5.35892
G1 X121.076 Y95.41 E5.45472
G1 X121.837 Y95.523 E5.4803
G1 X122.49 Y95.687 E5.5027
G1 X125.321 Y96.535 E5.60099
G1 X126.046 Y96.794 E5.6266
G1 X126.687 Y97.098 E5.65019
G1 X129.36 Y98.527 E5.751
G1 X130.018 Y98.924 E5.77656
G1 X130.604 Y99.364 E5.80094
G1 X132.948 Y101.314 E5.90235
G1 X133.513 Y101.836 E5.92793
G1 X134 Y102.388 E5.95242
G1 X135.902 Y104.772 E6.05385
G1 X136.349 Y105.397 E6.07941
G1 X136.709 Y106.025 E6.10349
G1 X138.067 Y108.688 E6.20291
G1 X138.381 Y109.391 E6.22852
G1 X138.594 Y110.031 E6.25095
G1 X139.375 Y112.785 E6.34616
G1 X139.546 Y113.535 E6.37175
G1 X139.626 Y114.137 E6.39195
G1 X139.87 Y116.831 E6.48192
G1 X139.899 Y117.599 E6.50748
G1 X139.866 Y118.207 E6.52773
G1 X139.59 Y121.076 E6.62359
G1 X139.477 Y121.836 E6.64915
G1 X139.313 Y122.49 E6.67158
G1 X138.465 Y125.321 E6.76987
G1 X138.206 Y126.046 E6.79547
G1 X137.902 Y126.686 E6.81904
G1 X136.474 Y129.358 E6.91981
G1 X136.077 Y130.017 E6.9454
G1 X135.637 Y130.603 E6.96977
G1 X133.686 Y132.948 E7.07123
G1 X133.164 Y133.513 E7.09681
G1 X132.612 Y134 E7.1213
G1 X130.228 Y135.902 E7.22273
G1 X129.603 Y136.349 E7.24829
G1 X128.974 Y136.71 E7.27241
G1 X126.31 Y138.068 E7.37186
G1 X125.607 Y138.381 E7.39746
G1 X124.969 Y138.594 E7.41983
G1 X122.216 Y139.375 E7.51501
G1 X121.466 Y139.546 E7.54059
G1 X120.863 Y139.626 E7.56082
G1 X118.167 Y139.87 E7.65086
G1 X117.398 Y139.899 E7.67646
G1 X116.791 Y139.866 E7.69667
G1 X113.924 Y139.59 E7.79247
G1 X113.163 Y139.477 E7.81806
G1 X112.51 Y139.313 E7.84045
G1 X109.679 Y138.465 E7.93875
G1 X108.954 Y138.206 E7.96435
G1 X108.313 Y137.902 E7.98795
G1 X105.64 Y136.473 E8.08876
G1 X104.982 Y136.076 E8.11432
G1 X104.396 Y135.636 E8.13869
G1 X102.052 Y133.686 E8.24011
G1 X101.487 Y133.164 E8.26569
G1 X101 Y132.611 E8.2902
G1 X99.096 Y130.224 E8.39175
G1 X98.648 Y129.599 E8.41733
G1 X98.288 Y128.971 E8.44141
G1 X96.932 Y126.311 E8.54071
G1 X96.619 Y125.608 E8.5663
G1 X96.406 Y124.969 E8.58871
G1 X95.625 Y122.215 E8.68392
G1 X95.454 Y121.465 E8.7095
G1 X95.374 Y120.863 E8.7297
G1 X95.13 Y118.169 E8.81967
G1 X95.101 Y117.401 E8.84523
G1 X95.134 Y116.794 E8.86545
G1 X95.41 Y113.924 E8.96135
G1 X95.523 Y113.163 E8.98694
G1 X95.687 Y112.508 E9.0094
G1 X96.535 Y109.678 E9.10766
G1 X96.794 Y108.954 E9.13323
G1 X97.098 Y108.313 E9.15683
G1 X98.527 Y105.64 E9.25764
G1 X98.924 Y104.982 E9.2832
G1 X99.364 Y104.396 E9.30757
G1 X101.314 Y102.052 E9.40898
G1 X101.836 Y101.487 E9.43457
G0 F6000 X102.13 Y101.76
G1 F1200 X102.637 Y101.313 E9.45705
G1 X105.021 Y99.411 E9.55849
G1 X105.63 Y98.976 E9.58338
G1 X106.207 Y98.647 E9.60547
G1 X108.87 Y97.289 E9.70489
G1 X109.554 Y96.985 E9.72979
G1 X110.14 Y96.791 E9.75032
G1 X112.894 Y96.01 E9.84553
G1 X113.624 Y95.844 E9.87043
G1 X114.173 Y95.772 E9.88885
G1 X116.869 Y95.528 E9.97888
G1 X117.617 Y95.501 E10.00378
G1 X118.171 Y95.532 E10.02223
G1 X121.038 Y95.808 E10.11803
G1 X121.778 Y95.92 E10.14292
G1 X122.376 Y96.07 E10.16343
G1 X125.207 Y96.918 E10.26172
G1 X125.911 Y97.171 E10.2866
G1 X126.498 Y97.451 E10.30823
G1 X129.171 Y98.88 E10.40904
G1 X129.811 Y99.267 E10.43392
G1 X130.348 Y99.672 E10.45629
G1 X132.692 Y101.622 E10.5577
G1 X133.24 Y102.13 E10.58256
G1 X133.687 Y102.637 E10.60504
G1 X135.589 Y105.021 E10.70647
G1 X136.024 Y105.63 E10.73136
G1 X136.353 Y106.207 E10.75346
G1 X137.711 Y108.87 E10.85288
G1 X138.015 Y109.554 E10.87778
G1 X138.209 Y110.14 E10.89831
G1 X138.99 Y112.894 E10.99352
G1 X139.156 Y113.624 E11.01842
G1 X139.227 Y114.173 E11.03683
G1 X139.471 Y116.867 E11.1268
G1 X139.499 Y117.614 E11.15166
G1 X139.468 Y118.168 E11.17012
G1 X139.192 Y121.037 E11.26598
G1 X139.081 Y121.777 E11.29087
G1 X138.93 Y122.376 E11.31141
G1 X138.082 Y125.207 E11.40971
G1 X137.829 Y125.911 E11.43459
G1 X137.55 Y126.497 E11.45617
G1 X136.122 Y129.169 E11.55694
G1 X135.734 Y129.809 E11.58183
G1 X135.329 Y130.347 E11.60423
G1 X133.378 Y132.692 E11.70569
G1 X132.87 Y133.241 E11.73057
G1 X132.363 Y133.687 E11.75303
G1 X129.979 Y135.589 E11.85446
G1 X129.37 Y136.024 E11.87935
G1 X128.792 Y136.353 E11.90148
G1 X126.128 Y137.711 E12.00093
G1 X125.444 Y138.015 E12.02582
G1 X124.859 Y138.209 E12.04632
G1 X122.106 Y138.99 E12.1415
G1 X121.377 Y139.156 E12.16637
G1 X120.827 Y139.228 E12.18482
G1 X118.131 Y139.472 E12.27485
G1 X117.383 Y139.499 E12.29975
G1 X116.829 Y139.468 E12.3182
G1 X113.962 Y139.192 E12.414
G1 X113.222 Y139.08 E12.43889
G1 X112.624 Y138.93 E12.4594
G1 X109.793 Y138.082 E12.55769
G1 X109.089 Y137.829 E12.58257
G1 X108.502 Y137.549 E12.6042
G1 X105.829 Y136.12 E12.70502
G1 X105.189 Y135.733 E12.72989
G1 X104.652 Y135.328 E12.75226
G1 X102.308 Y133.378 E12.85368
G1 X101.76 Y132.87 E12.87853
G1 X101.313 Y132.362 E12.90103
G1 X99.409 Y129.975 E13.00259
G1 X98.974 Y129.366 E13.02748
G1 X98.645 Y128.789 E13.04957
G1 X97.289 Y126.129 E13.14888
G1 X96.985 Y125.446 E13.17374
G1 X96.791 Y124.86 E13.19427
G1 X96.01 Y122.106 E13.28948
G1 X95.844 Y121.376 E13.31438
G1 X95.773 Y120.827 E13.3328
G1 X95.529 Y118.133 E13.42277
G1 X95.501 Y117.386 E13.44763
G1 X95.532 Y116.832 E13.46608
G1 X95.808 Y113.962 E13.56198
G1 X95.919 Y113.222 E13.58687
G1 X96.071 Y112.623 E13.60742
G1 X96.919 Y109.793 E13.70568
G1 X97.171 Y109.089 E13.73055
G1 X97.451 Y108.502 E13.75218
G1 X98.88 Y105.829 E13.853
G1 X99.267 Y105.189 E13.87787
G1 X99.672 Y104.652 E13.90024
G1 X101.622 Y102.308 E14.00165
G1 X102.13 Y101.76 E14.02651
G0 F6000 X102.424 Y102.032
G1 F1200 X102.887 Y101.626 E14.04699
G1 X105.271 Y99.724 E14.14843
G1 X105.863 Y99.303 E14.17259
G1 X106.389 Y99.003 E14.19273
G1 X109.052 Y97.645 E14.29215
G1 X109.716 Y97.351 E14.3163
G1 X110.249 Y97.175 E14.33497
G1 X113.003 Y96.394 E14.43018
G1 X113.712 Y96.235 E14.45435
G1 X114.209 Y96.171 E14.47102
G1 X116.905 Y95.927 E14.56105
G1 X117.631 Y95.901 E14.58521
G1 X118.132 Y95.93 E14.60191
G1 X120.999 Y96.206 E14.6977
G1 X121.718 Y96.316 E14.7219
G1 X122.261 Y96.454 E14.74053
G1 X125.092 Y97.302 E14.83882
G1 X125.775 Y97.548 E14.86297
G1 X126.31 Y97.804 E14.88269
G1 X128.983 Y99.233 E14.98351
G1 X129.603 Y99.61 E15.00764
G1 X130.092 Y99.979 E15.02802
G1 X132.436 Y101.929 E15.12943
G1 X132.968 Y102.424 E15.1536
G1 X133.374 Y102.887 E15.17408
G1 X135.276 Y105.271 E15.27551
G1 X135.697 Y105.863 E15.29968
G1 X135.997 Y106.389 E15.31982
G1 X137.355 Y109.052 E15.41924
G1 X137.649 Y109.716 E15.44339
G1 X137.825 Y110.249 E15.46206
G1 X138.606 Y113.003 E15.55727
G1 X138.765 Y113.712 E15.58144
G1 X138.829 Y114.209 E15.59811
G1 X139.073 Y116.903 E15.68808
G1 X139.099 Y117.629 E15.71224
G1 X139.07 Y118.13 E15.72893
G1 X138.794 Y120.999 E15.82479
G1 X138.684 Y121.717 E15.84895
G1 X138.546 Y122.261 E15.86762
G1 X137.698 Y125.092 E15.96591
G1 X137.452 Y125.775 E15.99006
G1 X137.197 Y126.309 E16.00974
G1 X135.769 Y128.981 E16.11051
G1 X135.392 Y129.602 E16.13467
G1 X135.022 Y130.091 E16.15506
G1 X133.071 Y132.436 E16.25652
G1 X132.576 Y132.968 E16.28069
G1 X132.113 Y133.374 E16.30117
G1 X129.729 Y135.276 E16.40261
G1 X129.137 Y135.697 E16.42677
G1 X128.61 Y135.997 E16.44694
G1 X125.946 Y137.355 E16.54639
G1 X125.282 Y137.649 E16.57055
G1 X124.75 Y137.824 E16.58917
G1 X121.997 Y138.605 E16.68435
G1 X121.289 Y138.765 E16.70849
G1 X120.791 Y138.829 E16.72519
G1 X118.095 Y139.073 E16.81523
G1 X117.369 Y139.099 E16.83939
G1 X116.868 Y139.07 E16.85608
G1 X114.001 Y138.794 E16.95188
G1 X113.282 Y138.684 E16.97607
G1 X112.739 Y138.546 E16.99471
G1 X109.908 Y137.698 E17.093
G1 X109.225 Y137.452 E17.11714
G1 X108.69 Y137.196 E17.13687
G1 X106.017 Y135.767 E17.23768
G1 X105.397 Y135.39 E17.26182
G1 X104.908 Y135.021 E17.28219
G1 X102.564 Y133.071 E17.3836
G1 X102.032 Y132.576 E17.40777
G1 X101.625 Y132.113 E17.42828
G1 X99.721 Y129.726 E17.52983
G1 X99.3 Y129.134 E17.55399
G1 X99.001 Y128.607 E17.57415
G1 X97.645 Y125.947 E17.67345
G1 X97.351 Y125.283 E17.6976
G1 X97.175 Y124.751 E17.71624
G1 X96.394 Y121.997 E17.81145
G1 X96.235 Y121.288 E17.83562
G1 X96.171 Y120.791 E17.85229
G1 X95.927 Y118.097 E17.94225
G1 X95.901 Y117.371 E17.96642
G1 X95.93 Y116.87 E17.98311
G1 X96.206 Y114 E18.07901
G1 X96.316 Y113.282 E18.10316
G1 X96.454 Y112.738 E18.12183
G1 X97.302 Y109.908 E18.22009
G1 X97.548 Y109.224 E18.24427
G1 X97.804 Y108.69 E18.26397
G1 X99.233 Y106.017 E18.36478
G1 X99.61 Y105.397 E18.38891
G1 X99.979 Y104.908 E18.40929
G1 X101.929 Y102.564 E18.5107
G1 X102.424 Y102.032 E18.53487
G0 F6000 X102.717 Y102.305
G1 F1200 X103.136 Y101.938 E18.55339
G1 X105.52 Y100.036 E18.65483
G1 X106.095 Y99.629 E18.67826
G1 X106.57 Y99.36 E18.69642
G1 X109.233 Y98.002 E18.79584
G1 X109.878 Y97.718 E18.81928
G1 X110.358 Y97.56 E18.83609
G1 X113.112 Y96.779 E18.9313
G1 X113.8 Y96.626 E18.95474
G1 X114.245 Y96.569 E18.96966
G1 X116.941 Y96.325 E19.0597
G1 X117.645 Y96.302 E19.08313
G1 X118.094 Y96.329 E19.09809
G1 X120.961 Y96.605 E19.19388
G1 X121.657 Y96.712 E19.2173
G1 X122.146 Y96.837 E19.23409
G1 X124.977 Y97.685 E19.33238
G1 X125.639 Y97.925 E19.35581
G1 X126.121 Y98.156 E19.37358
G1 X128.794 Y99.585 E19.47439
G1 X129.395 Y99.952 E19.49782
G1 X129.836 Y100.287 E19.51624
G1 X132.18 Y102.237 E19.61765
G1 X132.695 Y102.717 E19.64106
G1 X133.062 Y103.136 E19.65959
G1 X134.964 Y105.52 E19.76102
G1 X135.371 Y106.095 E19.78446
G1 X135.64 Y106.57 E19.80261
G1 X136.998 Y109.233 E19.90204
G1 X137.282 Y109.878 E19.92548
G1 X137.44 Y110.358 E19.94228
G1 X138.221 Y113.112 E20.03749
G1 X138.374 Y113.8 E20.06094
G1 X138.431 Y114.245 E20.07586
G1 X138.675 Y116.939 E20.16583
G1 X138.698 Y117.642 E20.18922
G1 X138.672 Y118.092 E20.20421
G1 X138.396 Y120.961 E20.30008
G1 X138.288 Y121.656 E20.32347
G1 X138.163 Y122.146 E20.34029
G1 X137.315 Y124.977 E20.43858
G1 X137.075 Y125.639 E20.462
G1 X136.844 Y126.12 E20.47975
G1 X135.416 Y128.792 E20.58052
G1 X135.05 Y129.393 E20.60392
G1 X134.714 Y129.835 E20.62239
G1 X132.763 Y132.18 E20.72385
G1 X132.283 Y132.695 E20.74726
G1 X131.864 Y133.062 E20.76579
G1 X129.48 Y134.964 E20.86722
G1 X128.905 Y135.371 E20.89065
G1 X128.429 Y135.641 E20.90886
G1 X125.765 Y136.999 E21.00831
G1 X125.12 Y137.282 E21.03174
G1 X124.641 Y137.44 E21.04851
G1 X121.888 Y138.221 E21.14369
G1 X121.201 Y138.374 E21.1671
G1 X120.755 Y138.431 E21.18205
G1 X118.059 Y138.675 E21.27209
G1 X117.355 Y138.698 E21.29552
G1 X116.906 Y138.671 E21.31048
G1 X114.039 Y138.395 E21.40628
G1 X113.343 Y138.288 E21.4297
G1 X112.854 Y138.163 E21.44648
G1 X110.023 Y137.315 E21.54478
G1 X109.361 Y137.075 E21.5682
G1 X108.879 Y136.844 E21.58598
G1 X106.206 Y135.415 E21.68679
G1 X105.605 Y135.048 E21.71021
G1 X105.164 Y134.713 E21.72863
G1 X102.82 Y132.763 E21.83004
G1 X102.305 Y132.283 E21.85346
G1 X101.938 Y131.863 E21.87201
G1 X100.034 Y129.476 E21.97356
G1 X99.627 Y128.902 E21.99697
G1 X99.357 Y128.426 E22.01517
G1 X98.001 Y125.766 E22.11447
G1 X97.718 Y125.121 E22.1379
G1 X97.56 Y124.642 E22.15467
G1 X96.779 Y121.888 E22.24988
G1 X96.626 Y121.2 E22.27333
G1 X96.569 Y120.755 E22.28825
G1 X96.325 Y118.061 E22.37822
G1 X96.302 Y117.358 E22.40161
G1 X96.328 Y116.909 E22.41657
G1 X96.604 Y114.039 E22.51247
G1 X96.712 Y113.343 E22.53589
G1 X96.837 Y112.852 E22.55275
G1 X97.685 Y110.022 E22.65101
G1 X97.925 Y109.361 E22.6744
G1 X98.156 Y108.879 E22.69217
G1 X99.585 Y106.206 E22.79299
G1 X99.952 Y105.605 E22.81641
G1 X100.287 Y105.164 E22.83483
G1 X102.237 Y102.82 E22.93624
G1 X102.717 Y102.305 E22.95965
G0 F6000 X103.01 Y102.579
G1 F1200 X103.386 Y102.251 E22.97625
G1 X105.77 Y100.349 E23.07769
G1 X106.326 Y99.956 E23.10033
G1 X106.752 Y99.716 E23.11659
G1 X109.415 Y98.358 E23.21602
G1 X110.039 Y98.085 E23.23867
G1 X110.468 Y97.945 E23.25368
G1 X113.222 Y97.164 E23.34889
G1 X113.886 Y97.017 E23.37151
G1 X114.281 Y96.968 E23.38475
G1 X116.977 Y96.724 E23.47478
G1 X117.658 Y96.702 E23.49745
G1 X118.056 Y96.727 E23.51071
G1 X120.923 Y97.003 E23.60651
G1 X121.596 Y97.108 E23.62916
G1 X122.031 Y97.22 E23.6441
G1 X124.862 Y98.068 E23.7424
G1 X125.502 Y98.301 E23.76505
G1 X125.932 Y98.509 E23.78094
G1 X128.605 Y99.938 E23.88175
G1 X129.186 Y100.294 E23.90441
G1 X129.58 Y100.594 E23.92088
