;FLAVOR:Marlin
;TIME:1810
;Filament used: 0.706344m
;Layer height: 0.2
;MINX:91.51
;MINY:91.51
;MINZ:0.2
;MAXX:143.49
;MAXY:143.49
;MAXZ:30.107
;Generated with Cura_SteamEngine 5.2.0
M140 S80
M105
M190 S80
M104 S200
M105
M109 S200
M82 ;absolute extrusion mode
; Ender 3 Custom Start G-code
G92 E0 ; Reset Extruder
G28 ; Home all axes
G1 Z2.0 F3000 ; Move Z Axis up little to prevent scratching of Heat Bed
G1 X0.1 Y20 Z0.3 F5000.0 ; Move to start position
G1 X0.1 Y200.0 Z0.3 F1500.0 E15 ; Draw the first line
G1 X0.4 Y200.0 Z0.3 F5000.0 ; Move to side a little
G1 X0.4 Y20 Z0.3 F1500.0 E30 ; Draw the second line
G92 E0 ; Reset Extruder
G1 Z2.0 F3000 ; Move Z Axis up little to prevent scratching of Heat Bed
G1 X5 Y20 Z0.3 F5000.0 ; Move over to prevent blob squish
G92 E0
G92 E0
G1 F2700 E-5
;LAYER_COUNT:150
;LAYER:0
M107
G0 F6000 X98.947 Y99.301 Z0.2
;TYPE:SKIRT
G1 F2700 E0
G1 F1200 X99.598 Y98.691 E0.02967
G1 X100.19 Y98.181 E0.05566
G1 X101.415 Y97.152 E0.10887
G1 X102.077 Y96.61 E0.13733
G1 X102.828 Y96.048 E0.16853
G1 X103.588 Y95.573 E0.19834
G1 X104.144 Y95.256 E0.21962
G1 X105.814 Y94.336 E0.28304
G1 X106.422 Y94.013 E0.30594
G1 X107.269 Y93.608 E0.33716
G1 X108.128 Y93.284 E0.3677
G1 X108.939 Y93.016 E0.39611
G1 X110.399 Y92.555 E0.44703
G1 X111.24 Y92.301 E0.47625
G1 X112.148 Y92.068 E0.50743
G1 X113.111 Y91.91 E0.53989
G1 X114.13 Y91.789 E0.57402
G1 X115.841 Y91.613 E0.63122
G1 X116.514 Y91.553 E0.6537
G1 X117.451 Y91.51 E0.68489
G1 X118.395 Y91.547 E0.71632
G1 X119.159 Y91.61 E0.74181
G1 X120.832 Y91.771 E0.79771
G1 X121.608 Y91.858 E0.82369
G1 X122.534 Y92.003 E0.85486
G1 X123.385 Y92.208 E0.88397
G1 X124.132 Y92.421 E0.90981
G1 X125.776 Y92.912 E0.96688
G1 X126.467 Y93.129 E0.99097
G1 X127.349 Y93.448 E1.02216
G1 X128.149 Y93.815 E1.05144
G1 X128.687 Y94.088 E1.0715
G1 X130.332 Y94.953 E1.13332
G1 X131.004 Y95.32 E1.15878
G1 X131.808 Y95.804 E1.19
G1 X132.468 Y96.277 E1.217
G1 X132.876 Y96.593 E1.23417
G1 X134.373 Y97.795 E1.29802
G1 X134.993 Y98.307 E1.32477
G1 X135.689 Y98.935 E1.35595
G1 X136.281 Y99.565 E1.3847
G1 X136.664 Y100.006 E1.40413
G1 X137.93 Y101.511 E1.46954
G1 X138.365 Y102.042 E1.49237
G1 X138.928 Y102.792 E1.52356
G1 X139.409 Y103.559 E1.55367
G1 X139.818 Y104.278 E1.58118
G1 X140.568 Y105.64 E1.6329
G1 X140.982 Y106.415 E1.66212
G1 X141.388 Y107.26 E1.6933
G1 X141.718 Y108.131 E1.72428
G1 X141.946 Y108.819 E1.74839
G1 X142.469 Y110.477 E1.80621
G1 X142.698 Y111.235 E1.83255
G1 X142.931 Y112.143 E1.86373
G1 X143.09 Y113.112 E1.89639
G1 X143.211 Y114.13 E1.93049
G1 X143.372 Y115.686 E1.98251
G1 X143.447 Y116.517 E2.01027
G1 X143.49 Y117.454 E2.04146
G1 X143.453 Y118.397 E2.07285
G1 X143.39 Y119.16 E2.09832
G1 X143.229 Y120.832 E2.15418
G1 X143.142 Y121.608 E2.18016
G1 X142.997 Y122.534 E2.21133
G1 X142.792 Y123.385 E2.24044
G1 X142.579 Y124.132 E2.26628
G1 X142.134 Y125.624 E2.31806
G1 X141.869 Y126.47 E2.34755
G1 X141.55 Y127.352 E2.37874
G1 X141.184 Y128.151 E2.40798
G1 X140.82 Y128.865 E2.43463
G1 X140.021 Y130.38 E2.4916
G1 X139.674 Y131.015 E2.51567
G1 X139.189 Y131.818 E2.54687
G1 X138.704 Y132.493 E2.57451
G1 X138.221 Y133.111 E2.6006
G1 X137.175 Y134.408 E2.65602
G1 X136.685 Y135 E2.68158
G1 X136.057 Y135.696 E2.71276
G1 X135.399 Y136.313 E2.74276
G1 X134.811 Y136.819 E2.76856
G1 X133.586 Y137.848 E2.82177
G1 X132.915 Y138.396 E2.85059
G1 X132.164 Y138.957 E2.88176
G1 X131.412 Y139.427 E2.91126
G1 X130.856 Y139.744 E2.93255
G1 X129.194 Y140.659 E2.99565
G1 X128.576 Y140.988 E3.01893
G1 X127.73 Y141.393 E3.05013
G1 X126.847 Y141.726 E3.08152
G1 X126.064 Y141.983 E3.10893
G1 X124.478 Y142.483 E3.16424
G1 X123.758 Y142.7 E3.18925
G1 X122.85 Y142.932 E3.22042
G1 X121.888 Y143.09 E3.25284
G1 X120.87 Y143.211 E3.28694
G1 X119.314 Y143.372 E3.33897
G1 X118.479 Y143.447 E3.36686
G1 X117.542 Y143.49 E3.39805
G1 X116.598 Y143.452 E3.42948
G1 X115.691 Y143.376 E3.45975
G1 X114.168 Y143.229 E3.51064
G1 X113.392 Y143.142 E3.53661
G1 X112.466 Y142.997 E3.56778
G1 X111.644 Y142.8 E3.5959
G1 X110.916 Y142.595 E3.62105
G1 X109.373 Y142.135 E3.67461
G1 X108.564 Y141.882 E3.7028
G1 X107.682 Y141.564 E3.73398
G1 X106.874 Y141.194 E3.76354
G1 X106.139 Y140.82 E3.79097
G1 X104.801 Y140.117 E3.84124
G1 X103.995 Y139.679 E3.87175
G1 X103.191 Y139.196 E3.90295
G1 X102.479 Y138.683 E3.93213
G1 X101.878 Y138.212 E3.95753
G1 X100.536 Y137.129 E4.01489
G1 X99.979 Y136.667 E4.03896
G1 X99.284 Y136.038 E4.07013
G1 X98.687 Y135.401 E4.09917
G1 X98.18 Y134.814 E4.12497
G1 X97.03 Y133.439 E4.18459
G1 X96.604 Y132.916 E4.20702
G1 X96.043 Y132.164 E4.23823
G1 X95.584 Y131.43 E4.26702
G1 X95.27 Y130.881 E4.28806
G1 X94.415 Y129.33 E4.34696
G1 X94.012 Y128.574 E4.37546
G1 X93.607 Y127.728 E4.40665
G1 X93.277 Y126.855 E4.43769
G1 X93.059 Y126.194 E4.46084
G1 X92.514 Y124.467 E4.52108
G1 X92.3 Y123.758 E4.54571
G1 X92.068 Y122.849 E4.57691
G1 X91.908 Y121.878 E4.60964
G1 X91.789 Y120.87 E4.6434
G1 X91.613 Y119.159 E4.70061
G1 X91.553 Y118.486 E4.72308
G1 X91.51 Y117.549 E4.75428
G1 X91.547 Y116.605 E4.7857
G1 X91.61 Y115.841 E4.8112
G1 X91.771 Y114.168 E4.8671
G1 X91.858 Y113.392 E4.89307
G1 X92.003 Y112.466 E4.92425
G1 X92.208 Y111.615 E4.95336
G1 X92.421 Y110.868 E4.97919
G1 X92.908 Y109.239 E5.03575
G1 X93.123 Y108.551 E5.05972
G1 X93.44 Y107.669 E5.09089
G1 X93.821 Y106.838 E5.1213
G1 X94.18 Y106.135 E5.14755
G1 X94.898 Y104.771 E5.19882
G1 X95.327 Y103.984 E5.22863
G1 X95.811 Y103.181 E5.25982
G1 X96.302 Y102.498 E5.28779
G1 X96.665 Y102.032 E5.30744
G1 X97.735 Y100.703 E5.36419
G1 X98.319 Y99.997 E5.39466
G1 X98.947 Y99.301 E5.42584
G0 F6000 X99.244 Y99.569
G1 F1200 X99.859 Y98.994 E5.45385
G1 X100.336 Y98.582 E5.47481
G1 X101.784 Y97.366 E5.5377
G1 X102.33 Y96.92 E5.56115
G1 X103.068 Y96.369 E5.59178
G1 X103.786 Y95.921 E5.61993
G1 X104.477 Y95.528 E5.64637
G1 X106.002 Y94.689 E5.70426
G1 X106.61 Y94.366 E5.72716
G1 X107.441 Y93.97 E5.75778
G1 X108.254 Y93.663 E5.78668
G1 X108.922 Y93.442 E5.81008
G1 X110.649 Y92.897 E5.87031
G1 X111.355 Y92.684 E5.89484
G1 X112.247 Y92.456 E5.92546
G1 X113.159 Y92.307 E5.9562
G1 X114.171 Y92.187 E5.99009
G1 X115.727 Y92.026 E6.04212
G1 X116.55 Y91.952 E6.06961
G1 X117.469 Y91.91 E6.1002
G1 X118.362 Y91.946 E6.12993
G1 X119.27 Y92.022 E6.16024
G1 X120.787 Y92.169 E6.21093
G1 X121.563 Y92.256 E6.2369
G1 X122.473 Y92.398 E6.26753
G1 X123.276 Y92.593 E6.29502
G1 X124.018 Y92.804 E6.32067
G1 X125.51 Y93.249 E6.37246
G1 X126.347 Y93.511 E6.40163
G1 X127.212 Y93.825 E6.43224
G1 X127.968 Y94.171 E6.45989
G1 X128.506 Y94.444 E6.47996
G1 X130.141 Y95.304 E6.5414
G1 X130.813 Y95.671 E6.56687
G1 X131.601 Y96.147 E6.59749
G1 X132.223 Y96.594 E6.62296
G1 X132.781 Y97.028 E6.64647
G1 X134.122 Y98.106 E6.7037
G1 X134.738 Y98.615 E6.73028
G1 X135.42 Y99.232 E6.76087
G1 X135.979 Y99.827 E6.78802
G1 X136.472 Y100.397 E6.81309
G1 X137.621 Y101.765 E6.8725
G1 X138.056 Y102.296 E6.89534
G1 X138.608 Y103.032 E6.92594
G1 X139.061 Y103.757 E6.95437
G1 X139.387 Y104.328 E6.97624
G1 X140.285 Y105.958 E7.03813
G1 X140.629 Y106.603 E7.06245
G1 X141.027 Y107.433 E7.09306
G1 X141.338 Y108.257 E7.12236
G1 X141.613 Y109.09 E7.15153
G1 X142.086 Y110.592 E7.20391
G1 X142.315 Y111.35 E7.23025
G1 X142.543 Y112.243 E7.2609
G1 X142.693 Y113.159 E7.29177
G1 X142.813 Y114.171 E7.32567
G1 X142.974 Y115.727 E7.3777
G1 X143.048 Y116.552 E7.40525
G1 X143.09 Y117.472 E7.43588
G1 X143.054 Y118.364 E7.46557
G1 X142.991 Y119.127 E7.49103
G1 X142.831 Y120.787 E7.5465
G1 X142.744 Y121.563 E7.57247
G1 X142.602 Y122.473 E7.6031
G1 X142.407 Y123.276 E7.63059
G1 X142.196 Y124.018 E7.65625
G1 X141.751 Y125.51 E7.70803
G1 X141.488 Y126.35 E7.73731
G1 X141.174 Y127.215 E7.76791
G1 X140.827 Y127.97 E7.79555
G1 X140.537 Y128.541 E7.81685
G1 X139.67 Y130.188 E7.87876
G1 X139.323 Y130.823 E7.90282
G1 X138.847 Y131.611 E7.93344
G1 X138.388 Y132.248 E7.95956
G1 X137.91 Y132.86 E7.98539
G1 X136.867 Y134.153 E8.04064
G1 X136.377 Y134.745 E8.0662
G1 X135.759 Y135.428 E8.09683
G1 X135.137 Y136.01 E8.12517
G1 X134.554 Y136.512 E8.15075
G1 X133.329 Y137.541 E8.20397
G1 X132.662 Y138.086 E8.23261
G1 X131.924 Y138.637 E8.26325
G1 X131.214 Y139.079 E8.29106
G1 X130.518 Y139.475 E8.3177
G1 X129.006 Y140.306 E8.37508
G1 X128.388 Y140.635 E8.39837
G1 X127.557 Y141.032 E8.429
G1 X126.722 Y141.346 E8.45867
G1 X125.943 Y141.602 E8.48594
G1 X124.363 Y142.1 E8.54104
G1 X123.643 Y142.317 E8.56605
G1 X122.751 Y142.544 E8.59667
G1 X121.841 Y142.693 E8.62734
G1 X120.829 Y142.813 E8.66123
G1 X119.273 Y142.974 E8.71326
G1 X118.443 Y143.048 E8.74098
G1 X117.523 Y143.09 E8.77161
G1 X116.631 Y143.054 E8.8013
G1 X115.87 Y142.991 E8.8267
G1 X114.213 Y142.831 E8.88207
G1 X113.437 Y142.744 E8.90804
G1 X112.527 Y142.602 E8.93867
G1 X111.752 Y142.415 E8.96519
G1 X111.031 Y142.211 E8.99011
G1 X109.347 Y141.708 E9.04856
G1 X108.683 Y141.5 E9.07171
G1 X107.818 Y141.187 E9.1023
G1 X107.055 Y140.837 E9.13022
G1 X106.325 Y140.466 E9.15746
G1 X104.987 Y139.763 E9.20773
G1 X104.186 Y139.328 E9.23804
G1 X103.397 Y138.853 E9.26868
G1 X102.725 Y138.368 E9.29624
G1 X102.252 Y137.998 E9.31621
G1 X100.792 Y136.821 E9.37859
G1 X100.235 Y136.359 E9.40266
G1 X99.552 Y135.741 E9.43329
G1 X98.989 Y135.14 E9.46068
G1 X98.601 Y134.692 E9.48039
G1 X97.34 Y133.186 E9.54572
G1 X96.914 Y132.663 E9.56816
G1 X96.364 Y131.925 E9.59877
G1 X95.932 Y131.232 E9.62593
G1 X95.533 Y130.532 E9.65273
G1 X94.765 Y129.137 E9.7057
G1 X94.365 Y128.386 E9.734
G1 X93.968 Y127.555 E9.76463
G1 X93.657 Y126.73 E9.79395
G1 X93.397 Y125.939 E9.82165
G1 X92.897 Y124.351 E9.87702
G1 X92.683 Y123.642 E9.90165
G1 X92.456 Y122.75 E9.93227
G1 X92.305 Y121.831 E9.96324
G1 X92.187 Y120.829 E9.9968
G1 X92.026 Y119.273 E10.04883
G1 X91.952 Y118.45 E10.07631
G1 X91.91 Y117.531 E10.10691
G1 X91.946 Y116.638 E10.13663
G1 X92.022 Y115.73 E10.16694
G1 X92.169 Y114.213 E10.21763
G1 X92.256 Y113.437 E10.2436
G1 X92.398 Y112.527 E10.27424
G1 X92.593 Y111.724 E10.30172
G1 X92.804 Y110.982 E10.32738
G1 X93.249 Y109.49 E10.37916
G1 X93.505 Y108.67 E10.40773
G1 X93.817 Y107.804 E10.43835
G1 X94.178 Y107.019 E10.46709
G1 X94.534 Y106.322 E10.49312
G1 X95.252 Y104.958 E10.54439
G1 X95.678 Y104.176 E10.57401
G1 X96.154 Y103.388 E10.60463
G1 X96.618 Y102.744 E10.63103
G1 X97.09 Y102.14 E10.65652
G1 X98.046 Y100.954 E10.70719
G1 X98.627 Y100.252 E10.7375
G1 X99.244 Y99.569 E10.76811
G0 F6000 X99.541 Y99.838
G1 F1200 X100.121 Y99.297 E10.79449
G1 X100.704 Y98.794 E10.8201
G1 X102.037 Y97.675 E10.87799
G1 X102.583 Y97.229 E10.90143
G1 X103.307 Y96.69 E10.93145
G1 X103.984 Y96.268 E10.95799
G1 X104.67 Y95.878 E10.98423
G1 X106.053 Y95.116 E11.03675
G1 X106.798 Y94.719 E11.06483
G1 X107.613 Y94.331 E11.09485
G1 X108.379 Y94.043 E11.12207
G1 X109.18 Y93.779 E11.15012
G1 X110.64 Y93.318 E11.20105
G1 X111.471 Y93.067 E11.22992
G1 X112.346 Y92.844 E11.25995
G1 X113.206 Y92.704 E11.28893
G1 X114.212 Y92.585 E11.32262
G1 X115.912 Y92.41 E11.37946
G1 X116.585 Y92.35 E11.40194
G1 X117.487 Y92.31 E11.43197
G1 X118.329 Y92.345 E11.46
G1 X119.232 Y92.42 E11.49013
G1 X120.583 Y92.55 E11.53528
G1 X121.518 Y92.654 E11.56657
G1 X122.411 Y92.794 E11.59663
G1 X123.167 Y92.978 E11.62251
G1 X123.903 Y93.187 E11.64796
G1 X125.395 Y93.632 E11.69974
G1 X126.227 Y93.893 E11.72874
G1 X127.076 Y94.201 E11.75878
G1 X127.787 Y94.528 E11.78481
G1 X128.325 Y94.801 E11.80488
G1 X129.949 Y95.655 E11.8659
G1 X130.621 Y96.022 E11.89137
G1 X131.394 Y96.49 E11.92143
G1 X131.978 Y96.91 E11.94535
G1 X132.531 Y97.34 E11.96865
G1 X133.872 Y98.418 E12.02588
G1 X134.482 Y98.923 E12.05222
G1 X135.152 Y99.529 E12.08226
G1 X135.677 Y100.09 E12.10782
G1 X136.166 Y100.655 E12.13267
G1 X137.311 Y102.018 E12.19188
G1 X137.746 Y102.549 E12.21471
G1 X138.287 Y103.272 E12.24474
G1 X138.714 Y103.956 E12.27156
G1 X139.117 Y104.664 E12.29866
G1 X139.932 Y106.146 E12.35491
G1 X140.276 Y106.791 E12.37922
G1 X140.665 Y107.606 E12.40926
G1 X140.958 Y108.382 E12.43685
G1 X141.232 Y109.21 E12.46586
G1 X141.667 Y110.589 E12.51395
G1 X141.932 Y111.466 E12.54442
G1 X142.155 Y112.341 E12.57445
G1 X142.296 Y113.207 E12.60364
G1 X142.415 Y114.212 E12.6373
G1 X142.576 Y115.768 E12.68933
G1 X142.65 Y116.588 E12.71671
G1 X142.69 Y117.49 E12.74674
G1 X142.655 Y118.331 E12.77474
G1 X142.58 Y119.232 E12.80481
G1 X142.45 Y120.583 E12.84995
G1 X142.346 Y121.518 E12.88124
G1 X142.206 Y122.411 E12.9113
G1 X142.022 Y123.167 E12.93718
G1 X141.813 Y123.903 E12.96263
G1 X141.368 Y125.395 E13.01441
G1 X141.106 Y126.23 E13.04352
G1 X140.797 Y127.079 E13.07357
G1 X140.47 Y127.789 E13.09957
G1 X140.112 Y128.492 E13.12581
G1 X139.319 Y129.996 E13.18236
G1 X138.972 Y130.631 E13.20643
G1 X138.504 Y131.404 E13.23648
G1 X138.072 Y132.002 E13.26102
G1 X137.598 Y132.609 E13.28663
G1 X136.559 Y133.898 E13.3417
G1 X136.069 Y134.49 E13.36726
G1 X135.462 Y135.159 E13.3973
G1 X134.876 Y135.707 E13.42399
G1 X134.297 Y136.206 E13.44941
G1 X133.072 Y137.235 E13.50262
G1 X132.41 Y137.776 E13.53106
G1 X131.685 Y138.315 E13.56111
G1 X131.016 Y138.732 E13.58733
G1 X130.46 Y139.049 E13.60861
G1 X128.818 Y139.953 E13.67096
G1 X128.2 Y140.282 E13.69424
G1 X127.385 Y140.67 E13.72426
G1 X126.597 Y140.966 E13.75226
G1 X125.823 Y141.22 E13.77935
G1 X124.247 Y141.717 E13.83432
G1 X123.527 Y141.934 E13.85933
G1 X122.652 Y142.156 E13.88935
G1 X121.793 Y142.296 E13.9183
G1 X120.788 Y142.415 E13.95196
G1 X119.232 Y142.576 E14.00399
G1 X118.408 Y142.65 E14.03151
G1 X117.506 Y142.69 E14.06154
G1 X116.664 Y142.655 E14.08957
G1 X115.768 Y142.58 E14.11947
G1 X114.417 Y142.45 E14.16461
G1 X113.482 Y142.346 E14.1959
G1 X112.589 Y142.206 E14.22597
G1 X111.86 Y142.03 E14.25091
G1 X111.145 Y141.828 E14.27562
G1 X109.467 Y141.327 E14.33387
G1 X108.803 Y141.119 E14.35701
G1 X107.954 Y140.811 E14.38705
G1 X107.236 Y140.481 E14.41333
G1 X106.511 Y140.112 E14.44039
G1 X105.038 Y139.337 E14.49575
G1 X104.377 Y138.977 E14.52078
G1 X103.604 Y138.51 E14.55082
G1 X102.971 Y138.053 E14.57679
G1 X102.498 Y137.683 E14.59676
G1 X101.047 Y136.513 E14.65876
G1 X100.49 Y136.051 E14.68282
G1 X99.821 Y135.444 E14.71287
G1 X99.292 Y134.878 E14.73864
G1 X98.793 Y134.3 E14.76403
G1 X97.738 Y133.04 E14.81869
G1 X97.225 Y132.411 E14.84569
G1 X96.686 Y131.686 E14.87574
G1 X96.279 Y131.033 E14.90133
G1 X95.965 Y130.484 E14.92236
G1 X95.045 Y128.814 E14.98578
G1 X94.718 Y128.199 E15.00895
G1 X94.33 Y127.383 E15.039
G1 X94.037 Y126.605 E15.06665
G1 X93.819 Y125.944 E15.0898
G1 X93.28 Y124.235 E15.1494
G1 X93.066 Y123.526 E15.17403
G1 X92.844 Y122.651 E15.20406
G1 X92.702 Y121.783 E15.23331
G1 X92.602 Y120.942 E15.26148
G1 X92.41 Y119.088 E15.32347
G1 X92.35 Y118.415 E15.34595
G1 X92.31 Y117.513 E15.37598
G1 X92.345 Y116.671 E15.40401
G1 X92.42 Y115.768 E15.43414
G1 X92.55 Y114.417 E15.47929
G1 X92.654 Y113.482 E15.51058
G1 X92.794 Y112.589 E15.54064
G1 X92.978 Y111.833 E15.56652
G1 X93.187 Y111.097 E15.59197
G1 X93.671 Y109.478 E15.64817
G1 X93.886 Y108.79 E15.67214
G1 X94.194 Y107.94 E15.70221
G1 X94.534 Y107.201 E15.72927
G1 X94.888 Y106.508 E15.75515
G1 X95.606 Y105.144 E15.80642
G1 X96.029 Y104.368 E15.83581
G1 X96.496 Y103.595 E15.86585
G1 X96.933 Y102.99 E15.89067
G1 X97.296 Y102.524 E15.91032
G1 X98.446 Y101.097 E15.97128
G1 X98.935 Y100.507 E15.99677
G1 X99.541 Y99.838 E16.02679
G1 F2700 E11.02679
;MESH:a3_cylinder.stl
G0 F6000 X102.163 Y120.702
G0 X103.102 Y123.676
G0 X104.571 Y126.348
G0 X106.531 Y128.687
G0 X108.893 Y130.591
G0 X111.595 Y132.012
G0 X114.503 Y132.878
G0 X117.296 Y133.148
G0 X117.499 Y132.299
;TYPE:WALL-OUTER
G1 F2700 E16.02679
G1 F1200 X120.528 Y131.986 E16.12807
G1 X123.34 Y131.1 E16.22613
G1 X125.859 Y129.71 E16.32182
G1 X128.079 Y127.846 E16.41823
G1 X129.865 Y125.628 E16.51295
G1 X131.199 Y123.094 E16.6082
G1 X132.025 Y120.329 E16.70418
G1 X132.298 Y117.499 E16.79874
G1 X131.986 Y114.472 E16.89995
G1 X131.1 Y111.66 E16.99801
G1 X129.7 Y109.124 E17.09436
G1 X127.846 Y106.921 E17.19012
G1 X125.611 Y105.125 E17.28549
G1 X123.098 Y103.803 E17.37993
G1 X120.329 Y102.975 E17.47606
G1 X117.501 Y102.702 E17.57055
G1 X114.472 Y103.014 E17.67183
G1 X111.66 Y103.9 E17.76989
G1 X109.141 Y105.29 E17.86558
G1 X106.921 Y107.154 E17.962
