;FLAVOR:Marlin
;TIME:3811
;Filament used: 3.44411m
;Layer height: 0.2
;MINX:94.705
;MINY:94.705
;MINZ:0.2
;MAXX:140.299
;MAXY:140.299
;MAXZ:36
;Generated with Cura_SteamEngine 5.2.0
M140 S50
M105
M190 S50
M104 S200
M105
M109 S200
M82 ;absolute extrusion mode
; Ender 3 Custom Start G-code
G92 E0 ; Reset Extruder
G28 ; Home all axes
G1 Z2.0 F3000 ; Move Z Axis up little to prevent scratching of Heat Bed
G1 X0.1 Y20 Z0.3 F5000.0 ; Move to start position
G1 X0.1 Y200.0 Z0.3 F1500.0 E15 ; Draw the first line
G1 X0.4 Y200.0 Z0.3 F5000.0 ; Move to side a little
G1 X0.4 Y20 Z0.3 F1500.0 E30 ; Draw the second line
G92 E0 ; Reset Extruder
G1 Z2.0 F3000 ; Move Z Axis up little to prevent scratching of Heat Bed
G1 X5 Y20 Z0.3 F5000.0 ; Move over to prevent blob squish
G92 E0
G92 E0
G1 F2700 E-5
;LAYER_COUNT:180
;LAYER:0
M107
G0 F6000 X101.244 Y101.513 Z0.2
;TYPE:SKIRT
G1 F2700 E0
G1 F1200 X101.689 Y101.074 E0.02079
G1 X102.156 Y100.635 E0.04211
G1 X102.864 Y100.019 E0.07332
G1 X103.366 Y99.609 E0.09488
G1 X103.639 Y99.399 E0.10634
G1 X104.304 Y98.909 E0.13381
G1 X104.613 Y98.692 E0.14637
G1 X105.129 Y98.349 E0.16698
G1 X105.931 Y97.854 E0.19832
G1 X106.687 Y97.428 E0.22718
G1 X107.238 Y97.14 E0.24786
G1 X107.889 Y96.827 E0.27189
G1 X108.624 Y96.501 E0.29863
G1 X108.95 Y96.365 E0.31038
G1 X109.506 Y96.148 E0.33023
G1 X109.861 Y96.019 E0.34279
G1 X110.889 Y95.68 E0.3788
G1 X111.531 Y95.496 E0.40101
G1 X112.369 Y95.285 E0.42975
G1 X112.93 Y95.163 E0.44885
G1 X113.554 Y95.044 E0.46997
G1 X114.411 Y94.911 E0.49882
G1 X115.306 Y94.807 E0.52879
G1 X116.201 Y94.738 E0.55864
G1 X117.054 Y94.705 E0.58704
G1 X117.963 Y94.705 E0.61727
G1 X118.826 Y94.738 E0.64599
G1 X119.278 Y94.77 E0.66106
G1 X120.017 Y94.84 E0.68575
G1 X120.367 Y94.882 E0.69748
G1 X121.454 Y95.045 E0.73404
G1 X122.08 Y95.165 E0.75524
G1 X122.623 Y95.282 E0.77371
G1 X122.998 Y95.373 E0.78655
G1 X123.767 Y95.579 E0.81302
G1 X124.131 Y95.686 E0.82564
G1 X124.978 Y95.962 E0.85527
G1 X125.565 Y96.174 E0.87603
G1 X126.156 Y96.407 E0.89716
G1 X126.535 Y96.567 E0.91084
G1 X127.097 Y96.819 E0.93133
G1 X127.663 Y97.091 E0.95221
G1 X128.681 Y97.63 E0.99053
G1 X129.225 Y97.947 E1.01147
G1 X129.765 Y98.28 E1.03257
G1 X130.106 Y98.503 E1.04612
G1 X130.783 Y98.971 E1.07349
G1 X131.081 Y99.187 E1.08573
G1 X131.846 Y99.78 E1.11793
G1 X132.547 Y100.372 E1.14845
G1 X133.21 Y100.976 E1.17828
G1 X133.719 Y101.478 E1.20205
G1 X134.317 Y102.106 E1.2309
G1 X134.836 Y102.692 E1.25693
G1 X135.359 Y103.327 E1.28429
G1 X135.602 Y103.64 E1.29747
G1 X136.092 Y104.305 E1.32495
G1 X136.311 Y104.617 E1.33762
G1 X136.653 Y105.132 E1.35819
G1 X137.003 Y105.691 E1.38012
G1 X137.173 Y105.979 E1.39125
G1 X137.572 Y106.69 E1.41836
G1 X137.741 Y107.008 E1.43034
G1 X138.014 Y107.552 E1.45058
G1 X138.175 Y107.893 E1.46313
G1 X138.5 Y108.627 E1.48983
G1 X138.851 Y109.505 E1.52128
G1 X138.98 Y109.859 E1.53381
G1 X139.231 Y110.606 E1.56002
G1 X139.335 Y110.942 E1.57172
G1 X139.563 Y111.751 E1.59967
G1 X139.713 Y112.365 E1.62069
G1 X139.887 Y113.183 E1.64851
G1 X139.994 Y113.778 E1.66862
G1 X140.094 Y114.456 E1.69141
G1 X140.186 Y115.24 E1.71767
G1 X140.246 Y115.938 E1.74097
G1 X140.287 Y116.772 E1.76874
G1 X140.299 Y117.661 E1.79831
G1 X140.292 Y118.034 E1.81072
G1 X140.26 Y118.813 E1.83665
G1 X140.235 Y119.202 E1.84961
G1 X140.129 Y120.29 E1.88597
G1 X140.028 Y121.001 E1.90986
G1 X139.896 Y121.765 E1.93565
G1 X139.715 Y122.634 E1.96517
G1 X139.628 Y122.993 E1.97745
G1 X139.423 Y123.761 E2.00389
G1 X139.314 Y124.131 E2.01672
G1 X139.038 Y124.978 E2.04635
G1 X138.826 Y125.565 E2.06711
G1 X138.593 Y126.156 E2.08824
G1 X138.433 Y126.535 E2.10192
G1 X138.181 Y127.097 E2.12241
G1 X137.909 Y127.663 E2.14329
G1 X137.511 Y128.426 E2.17192
G1 X137.341 Y128.733 E2.18359
G1 X137.03 Y129.264 E2.20405
G1 X136.68 Y129.828 E2.22613
G1 X136.488 Y130.119 E2.23773
G1 X136.029 Y130.783 E2.26458
G1 X135.813 Y131.081 E2.27682
G1 X135.426 Y131.588 E2.29803
G1 X134.832 Y132.312 E2.32918
G1 X134.597 Y132.582 E2.34108
G1 X134.037 Y133.195 E2.3687
G1 X133.756 Y133.487 E2.38218
G1 X133.311 Y133.926 E2.40297
G1 X132.844 Y134.365 E2.42429
G1 X132.136 Y134.981 E2.4555
G1 X131.634 Y135.391 E2.47706
G1 X131.361 Y135.601 E2.48851
G1 X130.696 Y136.091 E2.51599
G1 X130.387 Y136.308 E2.52855
G1 X129.871 Y136.651 E2.54915
G1 X129.299 Y137.009 E2.5716
G1 X128.316 Y137.569 E2.60923
G1 X127.991 Y137.742 E2.62147
G1 X127.449 Y138.014 E2.64164
G1 X127.109 Y138.175 E2.65415
G1 X126.373 Y138.501 E2.68093
G1 X125.716 Y138.768 E2.70451
G1 X125.136 Y138.983 E2.72509
G1 X124.339 Y139.249 E2.75303
G1 X123.736 Y139.43 E2.77397
G1 X122.926 Y139.644 E2.80184
G1 X122.08 Y139.835 E2.83068
G1 X121.446 Y139.956 E2.85215
G1 X120.592 Y140.088 E2.88089
G1 X119.706 Y140.192 E2.91056
G1 X119.063 Y140.246 E2.93203
G1 X118.225 Y140.287 E2.95993
G1 X117.339 Y140.299 E2.9894
G1 X116.646 Y140.284 E3.01246
G1 X115.522 Y140.213 E3.04992
G1 X114.714 Y140.129 E3.07693
G1 X113.997 Y140.028 E3.10102
G1 X113.234 Y139.896 E3.12677
G1 X112.367 Y139.715 E3.15623
G1 X112.004 Y139.627 E3.16865
G1 X111.234 Y139.421 E3.19516
G1 X110.879 Y139.317 E3.20747
G1 X110.015 Y139.036 E3.23769
G1 X109.422 Y138.821 E3.25867
G1 X108.738 Y138.547 E3.28317
G1 X107.703 Y138.087 E3.32084
G1 X107.11 Y137.793 E3.34286
G1 X106.312 Y137.367 E3.37295
G1 X105.972 Y137.171 E3.386
G1 X105.238 Y136.722 E3.41462
G1 X104.894 Y136.497 E3.42829
G1 X104.217 Y136.029 E3.45566
G1 X103.876 Y135.78 E3.46971
G1 X102.969 Y135.069 E3.50804
G1 X102.417 Y134.596 E3.53221
G1 X101.804 Y134.036 E3.55983
G1 X101.512 Y133.755 E3.57331
G1 X101.074 Y133.311 E3.59405
G1 X100.423 Y132.607 E3.62594
G1 X100.018 Y132.135 E3.64663
G1 X99.596 Y131.618 E3.66883
G1 X99.043 Y130.885 E3.69937
G1 X98.542 Y130.167 E3.72849
G1 X98.317 Y129.823 E3.74216
G1 X97.851 Y129.064 E3.77178
G1 X97.548 Y128.532 E3.79214
G1 X97.238 Y127.953 E3.81399
G1 X96.948 Y127.369 E3.83567
G1 X96.501 Y126.377 E3.87186
G1 X96.232 Y125.716 E3.8956
G1 X96.017 Y125.136 E3.91617
G1 X95.674 Y124.086 E3.95291
G1 X95.564 Y123.711 E3.96591
G1 X95.369 Y122.978 E3.99114
G1 X95.284 Y122.624 E4.00325
G1 X95.159 Y122.047 E4.02288
G1 X95.044 Y121.445 E4.04327
G1 X94.911 Y120.589 E4.07208
G1 X94.781 Y119.419 E4.11123
G1 X94.739 Y118.81 E4.13154
G1 X94.705 Y117.932 E4.16076
G1 X94.705 Y117.037 E4.19053
G1 X94.738 Y116.174 E4.21925
G1 X94.77 Y115.722 E4.23432
G1 X94.84 Y114.983 E4.25901
G1 X94.882 Y114.633 E4.27074
G1 X94.991 Y113.873 E4.29627
G1 X95.06 Y113.466 E4.31
G1 X95.212 Y112.698 E4.33604
G1 X95.292 Y112.341 E4.34821
G1 X95.443 Y111.73 E4.36915
G1 X95.602 Y111.148 E4.38921
G1 X95.962 Y110.022 E4.42853
G1 X96.174 Y109.435 E4.44929
G1 X96.407 Y108.844 E4.47042
G1 X96.567 Y108.465 E4.4841
G1 X96.819 Y107.903 E4.50459
G1 X97.214 Y107.094 E4.53453
G1 X97.491 Y106.569 E4.55427
G1 X97.828 Y105.973 E4.57704
G1 X98.277 Y105.239 E4.60566
G1 X98.503 Y104.893 E4.61941
G1 X98.972 Y104.215 E4.64683
G1 X99.185 Y103.922 E4.65888
G1 X99.561 Y103.429 E4.6795
G1 X100.164 Y102.693 E4.71114
G1 X100.403 Y102.418 E4.72326
G1 X100.963 Y101.805 E4.75088
G1 X101.244 Y101.513 E4.76436
G0 F6000 X101.525 Y101.798
G1 F1200 X101.97 Y101.359 E4.78515
G1 X102.429 Y100.928 E4.80609
G1 X103.124 Y100.323 E4.83674
G1 X103.617 Y99.921 E4.85789
G1 X103.876 Y99.721 E4.86878
G1 X104.541 Y99.231 E4.89625
G1 X104.834 Y99.025 E4.90816
G1 X105.35 Y98.682 E4.92877
G1 X106.129 Y98.202 E4.95921
G1 X106.874 Y97.782 E4.98765
G1 X107.415 Y97.499 E5.00796
G1 X108.051 Y97.193 E5.03143
G1 X109.096 Y96.737 E5.06935
G1 X109.652 Y96.52 E5.08921
G1 X109.988 Y96.398 E5.10109
G1 X110.736 Y96.147 E5.12734
G1 X111.631 Y95.883 E5.15837
G1 X112.454 Y95.676 E5.1866
G1 X113.015 Y95.554 E5.20569
G1 X113.627 Y95.437 E5.22642
G1 X114.746 Y95.271 E5.26404
G1 X115.616 Y95.179 E5.29314
G1 X116.005 Y95.15 E5.30611
G1 X117.056 Y95.105 E5.3411
G1 X117.95 Y95.105 E5.37084
G1 X118.798 Y95.137 E5.39906
G1 X119.25 Y95.169 E5.41413
G1 X119.979 Y95.238 E5.43849
G1 X120.311 Y95.278 E5.44961
G1 X121.381 Y95.438 E5.48559
G1 X121.996 Y95.556 E5.50642
G1 X122.539 Y95.673 E5.5249
G1 X122.895 Y95.759 E5.53708
G1 X123.664 Y95.965 E5.56356
G1 X124.009 Y96.067 E5.57552
G1 X124.844 Y96.338 E5.60472
G1 X125.228 Y96.475 E5.61828
G1 X125.801 Y96.695 E5.6387
G1 X126.556 Y97.013 E5.66594
G1 X127.114 Y97.269 E5.68636
G1 X127.703 Y97.56 E5.70821
G1 X128.482 Y97.977 E5.7376
G1 X129.015 Y98.287 E5.75811
G1 X129.555 Y98.62 E5.77921
G1 X129.879 Y98.832 E5.79209
G1 X130.556 Y99.3 E5.81946
G1 X130.838 Y99.505 E5.83106
G1 X131.59 Y100.087 E5.86269
G1 X132.279 Y100.669 E5.89268
G1 X132.932 Y101.264 E5.92207
G1 X133.429 Y101.754 E5.94528
G1 X134.027 Y102.382 E5.97412
G1 X134.261 Y102.64 E5.98571
G1 X134.667 Y103.112 E6.00641
G1 X135.05 Y103.58 E6.02653
G1 X135.28 Y103.877 E6.03902
G1 X135.77 Y104.542 E6.0665
G1 X135.978 Y104.838 E6.07853
G1 X136.32 Y105.353 E6.09909
G1 X136.663 Y105.902 E6.12062
G1 X137.223 Y106.886 E6.15828
G1 X137.384 Y107.188 E6.16966
G1 X137.657 Y107.732 E6.1899
G1 X137.809 Y108.055 E6.20178
G1 X138.261 Y109.092 E6.2394
G1 X138.479 Y109.65 E6.25933
G1 X138.601 Y109.986 E6.27122
G1 X138.852 Y110.733 E6.29743
G1 X139.112 Y111.614 E6.32798
G1 X139.269 Y112.222 E6.34886
G1 X139.494 Y113.256 E6.38406
G1 X139.599 Y113.839 E6.40376
G1 X139.697 Y114.503 E6.42609
G1 X139.817 Y115.58 E6.46213
G1 X139.862 Y116.208 E6.48307
G1 X139.888 Y116.79 E6.50245
G1 X139.899 Y117.664 E6.53152
G1 X139.893 Y118.018 E6.54329
G1 X139.861 Y118.797 E6.56923
G1 X139.836 Y119.166 E6.58153
G1 X139.732 Y120.237 E6.61732
G1 X139.634 Y120.933 E6.64069
G1 X139.502 Y121.697 E6.66648
G1 X139.324 Y122.55 E6.69546
G1 X139.242 Y122.889 E6.70706
G1 X139.037 Y123.657 E6.7335
G1 X138.933 Y124.009 E6.74571
G1 X138.662 Y124.844 E6.77491
G1 X138.525 Y125.228 E6.78847
G1 X138.305 Y125.801 E6.80888
G1 X137.987 Y126.556 E6.83613
G1 X137.731 Y127.114 E6.85655
G1 X137.442 Y127.699 E6.87825
G1 X137.157 Y128.24 E6.89859
G1 X136.684 Y129.062 E6.93013
G1 X136.341 Y129.615 E6.95178
G1 X136.159 Y129.892 E6.9628
G1 X135.7 Y130.556 E6.98965
G1 X135.495 Y130.838 E7.00124
G1 X134.913 Y131.59 E7.03287
G1 X134.525 Y132.056 E7.05304
G1 X134.301 Y132.312 E7.06435
G1 X133.741 Y132.925 E7.09197
G1 X133.475 Y133.202 E7.10474
G1 X133.03 Y133.641 E7.12553
G1 X132.571 Y134.072 E7.14647
G1 X131.876 Y134.677 E7.17712
G1 X131.383 Y135.079 E7.19828
G1 X131.124 Y135.279 E7.20916
G1 X130.459 Y135.769 E7.23664
G1 X130.166 Y135.975 E7.24855
G1 X129.65 Y136.318 E7.26916
G1 X129.089 Y136.668 E7.29115
G1 X128.12 Y137.22 E7.32824
G1 X127.811 Y137.385 E7.33989
G1 X127.269 Y137.657 E7.36006
G1 X126.947 Y137.809 E7.37191
G1 X126.211 Y138.135 E7.39868
G1 X125.569 Y138.396 E7.42173
G1 X124.76 Y138.69 E7.45036
G1 X124.214 Y138.869 E7.46947
G1 X123.387 Y139.112 E7.49814
G1 X122.826 Y139.257 E7.51741
G1 X121.994 Y139.444 E7.54577
G1 X121.373 Y139.563 E7.5668
G1 X120.532 Y139.693 E7.59511
G1 X119.42 Y139.817 E7.63232
G1 X118.791 Y139.862 E7.6533
G1 X117.928 Y139.895 E7.68202
G1 X117.071 Y139.896 E7.71052
G1 X116.418 Y139.873 E7.73226
G1 X115.561 Y139.815 E7.76083
G1 X114.766 Y139.733 E7.78741
G1 X114.066 Y139.634 E7.81092
G1 X113.303 Y139.502 E7.83668
G1 X112.451 Y139.324 E7.86563
G1 X112.108 Y139.241 E7.87736
G1 X111.338 Y139.035 E7.90387
G1 X111.001 Y138.936 E7.91556
G1 X110.393 Y138.742 E7.93678
G1 X109.767 Y138.523 E7.95884
G1 X108.898 Y138.181 E7.9899
G1 X108.159 Y137.858 E8.01673
G1 X107.505 Y137.546 E8.04083
G1 X106.755 Y137.154 E8.06897
G1 X105.987 Y136.714 E8.09841
G1 X105.448 Y136.382 E8.11947
G1 X105.121 Y136.168 E8.13247
G1 X104.444 Y135.7 E8.15984
G1 X104.121 Y135.464 E8.17314
G1 X103.465 Y134.956 E8.20074
G1 X102.909 Y134.495 E8.22476
G1 X102.074 Y133.74 E8.2622
G1 X101.797 Y133.474 E8.27498
G1 X101.211 Y132.876 E8.30282
G1 X100.727 Y132.347 E8.32667
G1 X100.322 Y131.875 E8.34736
G1 X99.908 Y131.367 E8.36915
G1 X99.51 Y130.846 E8.39096
G1 X99.023 Y130.162 E8.41889
G1 X98.652 Y129.604 E8.44118
G1 X98.199 Y128.866 E8.46998
G1 X97.782 Y128.126 E8.49823
G1 X97.493 Y127.572 E8.51901
G1 X97.186 Y126.934 E8.54256
G1 X96.867 Y126.215 E8.56872
G1 X96.604 Y125.569 E8.59192
G1 X96.295 Y124.713 E8.62219
G1 X96.055 Y123.964 E8.64835
G1 X95.951 Y123.608 E8.66068
G1 X95.756 Y122.875 E8.68591
G1 X95.675 Y122.54 E8.69737
G1 X95.505 Y121.741 E8.72454
G1 X95.395 Y121.12 E8.74552
G1 X95.271 Y120.254 E8.77462
G1 X95.18 Y119.389 E8.80355
G1 X95.138 Y118.792 E8.82345
G1 X95.112 Y118.209 E8.84286
G1 X95.101 Y117.337 E8.87187
G1 X95.105 Y117.05 E8.88141
G1 X95.137 Y116.202 E8.90964
G1 X95.169 Y115.75 E8.92471
G1 X95.238 Y115.021 E8.94906
G1 X95.278 Y114.689 E8.96019
G1 X95.387 Y113.929 E8.98572
G1 X95.453 Y113.543 E8.99875
G1 X95.605 Y112.775 E9.02479
G1 X95.68 Y112.437 E9.0363
G1 X95.831 Y111.826 E9.05724
G1 X95.987 Y111.256 E9.07689
G1 X96.338 Y110.156 E9.11529
G1 X96.475 Y109.772 E9.12885
G1 X96.695 Y109.199 E9.14927
G1 X97.013 Y108.444 E9.17652
G1 X97.27 Y107.883 E9.19704
G1 X97.46 Y107.493 E9.21147
G1 X97.845 Y106.756 E9.23913
G1 X98.285 Y105.988 E9.26856
G1 X98.617 Y105.449 E9.28962
G1 X98.832 Y105.12 E9.30269
G1 X99.301 Y104.442 E9.33011
G1 X99.503 Y104.164 E9.34154
G1 X99.879 Y103.671 E9.36216
G1 X100.471 Y102.949 E9.39322
G1 X100.699 Y102.688 E9.40474
G1 X101.259 Y102.075 E9.43236
G1 X101.525 Y101.798 E9.44513
G0 F6000 X101.806 Y102.083
G1 F1200 X102.397 Y101.503 E9.47267
G1 X102.701 Y101.22 E9.48649
G1 X103.385 Y100.626 E9.51662
G1 X103.868 Y100.232 E9.53735
G1 X104.779 Y99.553 E9.57514
G1 X105.056 Y99.358 E9.58641
G1 X105.572 Y99.015 E9.60702
G1 X106.121 Y98.672 E9.62855
G1 X106.859 Y98.246 E9.65689
G1 X107.421 Y97.945 E9.67809
G1 X107.955 Y97.679 E9.69793
G1 X108.948 Y97.232 E9.73415
G1 X109.797 Y96.893 E9.76456
G1 X110.115 Y96.778 E9.77581
G1 X111.115 Y96.447 E9.81084
G1 X111.731 Y96.27 E9.83216
G1 X112.277 Y96.129 E9.85091
G1 X113.1 Y95.945 E9.87896
G1 X113.699 Y95.831 E9.89924
G1 X114.79 Y95.669 E9.93593
G1 X115.646 Y95.578 E9.96456
G1 X116.237 Y95.537 E9.98426
G1 X117.059 Y95.505 E10.01162
G1 X117.937 Y95.505 E10.04083
G1 X118.769 Y95.536 E10.06852
G1 X119.221 Y95.568 E10.08359
G1 X119.94 Y95.636 E10.10761
G1 X121.014 Y95.783 E10.14366
G1 X121.724 Y95.909 E10.16765
G1 X122.454 Y96.064 E10.19247
G1 X122.791 Y96.145 E10.204
G1 X123.56 Y96.351 E10.23048
G1 X123.887 Y96.447 E10.24181
G1 X124.495 Y96.642 E10.26305
G1 X125.276 Y96.92 E10.29062
G1 X125.657 Y97.068 E10.30422
G1 X126.223 Y97.304 E10.32461
G1 X126.766 Y97.548 E10.34441
G1 X127.313 Y97.811 E10.3646
G1 X128.059 Y98.2 E10.39258
G1 X128.621 Y98.518 E10.41406
G1 X129.345 Y98.961 E10.44229
G1 X129.651 Y99.161 E10.45445
G1 X130.328 Y99.629 E10.48182
G1 X130.595 Y99.823 E10.4928
G1 X131.334 Y100.395 E10.52388
G1 X132.011 Y100.966 E10.55334
G1 X132.473 Y101.383 E10.57404
G1 X132.94 Y101.829 E10.59551
G1 X133.737 Y102.658 E10.63376
G1 X134.231 Y103.216 E10.65855
G1 X134.74 Y103.834 E10.68518
G1 X134.958 Y104.115 E10.69701
G1 X135.448 Y104.78 E10.72448
G1 X135.644 Y105.06 E10.73585
G1 X136.107 Y105.763 E10.76385
G1 X136.475 Y106.37 E10.78746
G1 X136.874 Y107.081 E10.81457
G1 X137.299 Y107.911 E10.84559
G1 X137.444 Y108.217 E10.85685
G1 X137.769 Y108.951 E10.88355
G1 X138.106 Y109.796 E10.91381
G1 X138.221 Y110.113 E10.92502
G1 X138.472 Y110.86 E10.95123
G1 X138.566 Y111.162 E10.96175
G1 X138.787 Y111.946 E10.98885
G1 X138.881 Y112.32 E11.00167
G1 X139.101 Y113.329 E11.03602
G1 X139.204 Y113.9 E11.05532
G1 X139.265 Y114.294 E11.06858
G1 X139.391 Y115.333 E11.10339
G1 X139.462 Y116.226 E11.13318
G1 X139.495 Y117.073 E11.16138
G1 X139.499 Y117.667 E11.18113
G1 X139.493 Y118.001 E11.19224
G1 X139.461 Y118.78 E11.21818
G1 X139.438 Y119.129 E11.22981
G1 X139.336 Y120.184 E11.26506
G1 X139.24 Y120.865 E11.28794
G1 X139.108 Y121.629 E11.31372
G1 X138.933 Y122.465 E11.34213
G1 X138.855 Y122.786 E11.35312
G1 X138.65 Y123.554 E11.37956
G1 X138.553 Y123.887 E11.39109
G1 X138.358 Y124.495 E11.41233
G1 X138.08 Y125.276 E11.4399
G1 X137.932 Y125.657 E11.4535
G1 X137.696 Y126.223 E11.47389
G1 X137.452 Y126.766 E11.49369
G1 X137.189 Y127.313 E11.51388
G1 X136.803 Y128.054 E11.54167
G1 X136.339 Y128.86 E11.5726
G1 X136.002 Y129.403 E11.59386
G1 X135.371 Y130.328 E11.6311
G1 X135.177 Y130.595 E11.64208
