;FLAVOR:Marlin
;TIME:2141
;Filament used: 1.33951m
;Layer height: 0.2
;MINX:99.7
;MINY:99.7
;MINZ:0.2
;MAXX:135.3
;MAXY:135.3
;MAXZ:20
;Generated with Cura_SteamEngine 5.2.0
M140 S80
M105
M190 S80
M104 S200
M105
M109 S200
M82 ;absolute extrusion mode
; Ender 3 Custom Start G-code
G92 E0 ; Reset Extruder
G28 ; Home all axes
G1 Z2.0 F3000 ; Move Z Axis up little to prevent scratching of Heat Bed
G1 X0.1 Y20 Z0.3 F5000.0 ; Move to start position
G1 X0.1 Y200.0 Z0.3 F1500.0 E15 ; Draw the first line
G1 X0.4 Y200.0 Z0.3 F5000.0 ; Move to side a little
G1 X0.4 Y20 Z0.3 F1500.0 E30 ; Draw the second line
G92 E0 ; Reset Extruder
G1 Z2.0 F3000 ; Move Z Axis up little to prevent scratching of Heat Bed
G1 X5 Y20 Z0.3 F5000.0 ; Move over to prevent blob squish
G92 E0
G92 E0
G1 F2700 E-5
;LAYER_COUNT:100
;LAYER:0
M107
G0 F6000 X102.123 Y101.849 Z0.2
;TYPE:SKIRT
G1 F2700 E0
G1 F1200 X102.722 Y101.334 E0.02627
G1 X103.37 Y100.883 E0.05253
G1 X104.061 Y100.499 E0.07883
G1 X104.786 Y100.187 E0.10508
G1 X105.539 Y99.95 E0.13133
G1 X106.313 Y99.791 E0.15761
G1 X107.098 Y99.71 E0.18386
G1 X107.5 Y99.7 E0.19724
G1 X127.5 Y99.7 E0.86244
G1 X128.289 Y99.74 E0.88872
G1 X129.069 Y99.859 E0.91496
G1 X129.834 Y100.057 E0.94124
G1 X130.574 Y100.331 E0.96749
G1 X131.283 Y100.679 E0.99376
G1 X131.954 Y101.097 E1.02005
G1 X132.578 Y101.58 E1.04629
G1 X133.151 Y102.123 E1.07255
G1 X133.666 Y102.722 E1.09882
G1 X134.117 Y103.37 E1.12508
G1 X134.501 Y104.061 E1.15138
G1 X134.813 Y104.786 E1.17763
G1 X135.05 Y105.539 E1.20388
G1 X135.209 Y106.313 E1.23017
G1 X135.29 Y107.098 E1.25641
G1 X135.3 Y107.5 E1.26979
G1 X135.3 Y127.5 E1.93499
G1 X135.26 Y128.289 E1.96127
G1 X135.141 Y129.069 E1.98751
G1 X134.943 Y129.834 E2.01379
G1 X134.669 Y130.574 E2.04004
G1 X134.321 Y131.283 E2.06631
G1 X133.903 Y131.954 E2.0926
G1 X133.42 Y132.578 E2.11885
G1 X132.877 Y133.151 E2.1451
G1 X132.278 Y133.666 E2.17138
G1 X131.63 Y134.117 E2.19763
G1 X130.939 Y134.501 E2.22393
G1 X130.214 Y134.813 E2.25018
G1 X129.461 Y135.05 E2.27644
G1 X128.687 Y135.209 E2.30272
G1 X127.902 Y135.29 E2.32896
G1 X127.5 Y135.3 E2.34234
G1 X107.5 Y135.3 E3.00754
G1 X106.711 Y135.26 E3.03382
G1 X105.931 Y135.141 E3.06006
G1 X105.166 Y134.943 E3.08634
G1 X104.426 Y134.669 E3.11259
G1 X103.717 Y134.321 E3.13886
G1 X103.046 Y133.903 E3.16515
G1 X102.422 Y133.42 E3.1914
G1 X101.849 Y132.877 E3.21765
G1 X101.334 Y132.278 E3.24393
G1 X100.883 Y131.63 E3.27018
G1 X100.499 Y130.939 E3.29648
G1 X100.187 Y130.214 E3.32273
G1 X99.95 Y129.461 E3.34899
G1 X99.791 Y128.687 E3.37527
G1 X99.71 Y127.902 E3.40151
G1 X99.7 Y127.5 E3.41489
G1 X99.7 Y107.5 E4.08009
G1 X99.74 Y106.711 E4.10637
G1 X99.859 Y105.931 E4.13261
G1 X100.057 Y105.166 E4.15889
G1 X100.331 Y104.426 E4.18514
G1 X100.679 Y103.717 E4.21141
G1 X101.097 Y103.046 E4.2377
G1 X101.58 Y102.422 E4.26395
G1 X102.123 Y101.849 E4.2902
G0 F6000 X102.516 Y102.03
G1 F1200 X103.111 Y101.542 E4.3158
G1 X103.753 Y101.119 E4.34137
G1 X104.436 Y100.764 E4.36697
G1 X105.151 Y100.483 E4.39252
G1 X105.893 Y100.277 E4.41813
G1 X106.651 Y100.149 E4.4437
G1 X107.5 Y100.1 E4.47199
G1 X127.5 Y100.1 E5.13719
G1 X128.268 Y100.14 E5.16277
G1 X129.028 Y100.259 E5.18835
G1 X129.771 Y100.457 E5.21393
G1 X130.49 Y100.731 E5.23952
G1 X131.176 Y101.078 E5.26509
G1 X131.823 Y101.494 E5.29067
G1 X132.423 Y101.975 E5.31625
G1 X132.97 Y102.516 E5.34184
G1 X133.458 Y103.111 E5.36743
G1 X133.881 Y103.753 E5.39301
G1 X134.236 Y104.436 E5.41861
G1 X134.517 Y105.151 E5.44416
G1 X134.723 Y105.893 E5.46977
G1 X134.851 Y106.651 E5.49534
G1 X134.9 Y107.5 E5.52362
G1 X134.9 Y127.5 E6.18883
G1 X134.86 Y128.268 E6.21441
G1 X134.741 Y129.028 E6.23999
G1 X134.543 Y129.771 E6.26557
G1 X134.269 Y130.49 E6.29116
G1 X133.922 Y131.176 E6.31673
G1 X133.506 Y131.823 E6.34231
G1 X133.025 Y132.423 E6.36789
G1 X132.484 Y132.97 E6.39348
G1 X131.889 Y133.458 E6.41907
G1 X131.247 Y133.881 E6.44464
G1 X130.564 Y134.236 E6.47024
G1 X129.849 Y134.517 E6.4958
G1 X129.107 Y134.723 E6.52141
G1 X128.349 Y134.851 E6.54698
G1 X127.5 Y134.9 E6.57526
G1 X107.5 Y134.9 E7.24046
G1 X106.732 Y134.86 E7.26604
G1 X105.972 Y134.741 E7.29163
G1 X105.229 Y134.543 E7.3172
G1 X104.51 Y134.269 E7.34279
G1 X103.824 Y133.922 E7.36836
G1 X103.177 Y133.506 E7.39395
G1 X102.577 Y133.025 E7.41952
G1 X102.03 Y132.484 E7.44511
G1 X101.542 Y131.889 E7.47071
G1 X101.119 Y131.247 E7.49628
G1 X100.764 Y130.564 E7.52188
G1 X100.483 Y129.849 E7.54743
G1 X100.277 Y129.107 E7.57304
G1 X100.149 Y128.349 E7.59861
G1 X100.1 Y127.5 E7.6269
G1 X100.1 Y107.5 E8.2921
G1 X100.14 Y106.732 E8.31768
G1 X100.259 Y105.972 E8.34326
G1 X100.457 Y105.229 E8.36884
G1 X100.731 Y104.51 E8.39443
G1 X101.078 Y103.824 E8.42
G1 X101.494 Y103.177 E8.44558
G1 X101.975 Y102.577 E8.47116
G1 X102.516 Y102.03 E8.49675
G0 F6000 X102.908 Y102.216
G1 F1200 X103.498 Y101.757 E8.52161
G1 X104.134 Y101.362 E8.54651
G1 X104.808 Y101.038 E8.57139
G1 X105.513 Y100.788 E8.59626
G1 X106.241 Y100.614 E8.62116
G1 X106.983 Y100.519 E8.64604
G1 X107.5 Y100.5 E8.66325
G1 X127.5 Y100.5 E9.32845
G1 X128.247 Y100.54 E9.35333
G1 X128.985 Y100.659 E9.37819
G1 X129.707 Y100.857 E9.40309
G1 X130.403 Y101.13 E9.42796
G1 X131.066 Y101.477 E9.45285
G1 X131.689 Y101.892 E9.47775
G1 X132.263 Y102.371 E9.50261
G1 X132.784 Y102.908 E9.5275
G1 X133.243 Y103.498 E9.55236
G1 X133.638 Y104.134 E9.57726
G1 X133.962 Y104.808 E9.60213
G1 X134.212 Y105.513 E9.62701
G1 X134.386 Y106.241 E9.65191
G1 X134.481 Y106.983 E9.67679
G1 X134.5 Y107.5 E9.694
G1 X134.5 Y127.5 E10.3592
G1 X134.46 Y128.247 E10.38408
G1 X134.341 Y128.985 E10.40894
G1 X134.143 Y129.707 E10.43384
G1 X133.87 Y130.403 E10.45871
G1 X133.523 Y131.066 E10.4836
G1 X133.108 Y131.689 E10.5085
G1 X132.629 Y132.263 E10.53336
G1 X132.092 Y132.784 E10.55825
G1 X131.502 Y133.243 E10.58311
G1 X130.866 Y133.638 E10.60801
G1 X130.192 Y133.962 E10.63288
G1 X129.487 Y134.212 E10.65776
G1 X128.759 Y134.386 E10.68266
G1 X128.017 Y134.481 E10.70754
G1 X127.5 Y134.5 E10.72475
G1 X107.5 Y134.5 E11.38995
G1 X106.753 Y134.46 E11.41483
G1 X106.015 Y134.341 E11.43969
G1 X105.293 Y134.143 E11.46459
G1 X104.597 Y133.87 E11.48946
G1 X103.934 Y133.523 E11.51435
G1 X103.311 Y133.108 E11.53925
G1 X102.737 Y132.629 E11.56411
G1 X102.216 Y132.092 E11.589
G1 X101.757 Y131.502 E11.61386
G1 X101.362 Y130.866 E11.63876
G1 X101.038 Y130.192 E11.66363
G1 X100.788 Y129.487 E11.68851
G1 X100.614 Y128.759 E11.71341
G1 X100.519 Y128.017 E11.73829
G1 X100.5 Y127.5 E11.7555
G1 X100.5 Y107.5 E12.4207
G1 X100.54 Y106.753 E12.44558
G1 X100.659 Y106.015 E12.47044
G1 X100.857 Y105.293 E12.49534
G1 X101.13 Y104.597 E12.52021
G1 X101.477 Y103.934 E12.5451
G1 X101.892 Y103.311 E12.57
G1 X102.371 Y102.737 E12.59486
G1 X102.908 Y102.216 E12.61975
G0 F6000 X103.299 Y102.409
G1 F1200 X103.884 Y101.979 E12.64389
G1 X104.513 Y101.615 E12.66807
G1 X105.178 Y101.322 E12.69224
G1 X105.871 Y101.104 E12.7164
G1 X106.583 Y100.964 E12.74053
G1 X107.5 Y100.9 E12.77111
G1 X127.5 Y100.9 E13.43631
G1 X128.225 Y100.94 E13.46046
G1 X128.942 Y101.059 E13.48463
G1 X129.641 Y101.257 E13.5088
G1 X130.314 Y101.53 E13.53295
G1 X130.953 Y101.875 E13.55711
G1 X131.55 Y102.289 E13.58127
G1 X132.098 Y102.765 E13.60541
G1 X132.591 Y103.299 E13.62958
G1 X133.021 Y103.884 E13.65373
G1 X133.385 Y104.513 E13.6779
G1 X133.678 Y105.178 E13.70207
G1 X133.896 Y105.871 E13.72624
G1 X134.036 Y106.583 E13.75037
G1 X134.1 Y107.5 E13.78094
G1 X134.1 Y127.5 E14.44615
G1 X134.06 Y128.225 E14.4703
G1 X133.941 Y128.942 E14.49447
G1 X133.743 Y129.641 E14.51863
G1 X133.47 Y130.314 E14.54279
G1 X133.125 Y130.953 E14.56694
G1 X132.711 Y131.55 E14.59111
G1 X132.235 Y132.098 E14.61525
G1 X131.701 Y132.591 E14.63942
G1 X131.116 Y133.021 E14.66357
G1 X130.487 Y133.385 E14.68774
G1 X129.822 Y133.678 E14.71191
G1 X129.129 Y133.896 E14.73607
G1 X128.417 Y134.036 E14.76021
G1 X127.5 Y134.1 E14.79078
G1 X107.5 Y134.1 E15.45598
G1 X106.775 Y134.06 E15.48013
G1 X106.058 Y133.941 E15.50431
G1 X105.359 Y133.743 E15.52847
G1 X104.686 Y133.47 E15.55263
G1 X104.047 Y133.125 E15.57678
G1 X103.45 Y132.711 E15.60094
G1 X102.902 Y132.235 E15.62509
G1 X102.409 Y131.701 E15.64926
G1 X101.979 Y131.116 E15.67341
G1 X101.615 Y130.487 E15.69758
G1 X101.322 Y129.822 E15.72175
G1 X101.104 Y129.129 E15.74591
G1 X100.964 Y128.417 E15.77005
G1 X100.9 Y127.5 E15.80062
G1 X100.9 Y107.5 E16.46582
G1 X100.94 Y106.775 E16.48997
G1 X101.059 Y106.058 E16.51415
G1 X101.257 Y105.359 E16.53831
G1 X101.53 Y104.686 E16.56246
G1 X101.875 Y104.047 E16.58662
G1 X102.289 Y103.45 E16.61078
G1 X102.765 Y102.902 E16.63492
G1 X103.299 Y102.409 E16.6591
G0 F6000 X103.689 Y102.609
G1 F1200 X104.268 Y102.209 E16.6825
G1 X104.889 Y101.877 E16.70592
G1 X105.543 Y101.617 E16.72933
G1 X106.223 Y101.433 E16.75276
G1 X106.919 Y101.327 E16.77618
G1 X107.5 Y101.3 E16.79552
G1 X127.5 Y101.3 E17.46073
G1 X128.203 Y101.34 E17.48415
G1 X128.897 Y101.459 E17.50756
G1 X129.572 Y101.657 E17.53096
G1 X130.221 Y101.929 E17.55437
G1 X130.835 Y102.274 E17.57779
G1 X131.406 Y102.685 E17.60119
G1 X131.927 Y103.159 E17.62462
G1 X132.391 Y103.689 E17.64805
G1 X132.791 Y104.268 E17.67145
G1 X133.123 Y104.889 E17.69487
G1 X133.383 Y105.543 E17.71828
G1 X133.567 Y106.223 E17.74171
G1 X133.673 Y106.919 E17.76513
G1 X133.7 Y107.5 E17.78447
G1 X133.7 Y127.5 E18.44968
G1 X133.66 Y128.203 E18.4731
G1 X133.541 Y128.897 E18.49651
G1 X133.343 Y129.572 E18.51991
G1 X133.071 Y130.221 E18.54332
G1 X132.726 Y130.835 E18.56674
G1 X132.315 Y131.406 E18.59014
G1 X131.841 Y131.927 E18.61357
G1 X131.311 Y132.391 E18.637
G1 X130.732 Y132.791 E18.6604
G1 X130.111 Y133.123 E18.68382
G1 X129.457 Y133.383 E18.70723
G1 X128.777 Y133.567 E18.73066
G1 X128.081 Y133.673 E18.75408
G1 X127.5 Y133.7 E18.77342
G1 X107.5 Y133.7 E19.43863
G1 X106.797 Y133.66 E19.46205
G1 X106.103 Y133.541 E19.48546
G1 X105.428 Y133.343 E19.50886
G1 X104.779 Y133.071 E19.53227
G1 X104.165 Y132.726 E19.55569
G1 X103.594 Y132.315 E19.57909
G1 X103.073 Y131.841 E19.60252
G1 X102.609 Y131.311 E19.62595
G1 X102.209 Y130.732 E19.64935
G1 X101.877 Y130.111 E19.67277
G1 X101.617 Y129.457 E19.69618
G1 X101.433 Y128.777 E19.71961
G1 X101.327 Y128.081 E19.74303
G1 X101.3 Y127.5 E19.76237
G1 X101.3 Y107.5 E20.42758
G1 X101.34 Y106.797 E20.451
G1 X101.459 Y106.103 E20.47442
G1 X101.657 Y105.428 E20.49781
G1 X101.929 Y104.779 E20.52122
G1 X102.274 Y104.165 E20.54464
G1 X102.685 Y103.594 E20.56804
G1 X103.159 Y103.073 E20.59147
G1 X103.689 Y102.609 E20.6149
G0 F6000 X104.078 Y102.817
G1 F1200 X104.65 Y102.448 E20.63754
G1 X105.262 Y102.149 E20.66019
G1 X105.904 Y101.924 E20.68282
G1 X106.569 Y101.775 E20.70548
G1 X107.5 Y101.7 E20.73655
G1 X127.5 Y101.7 E21.40175
G1 X128.18 Y101.74 E21.42441
G1 X128.85 Y101.859 E21.44704
G1 X129.502 Y102.056 E21.4697
G1 X130.126 Y102.328 E21.49234
G1 X130.714 Y102.672 E21.51499
G1 X131.258 Y103.082 E21.53765
G1 X131.749 Y103.553 E21.56028
G1 X132.183 Y104.078 E21.58294
G1 X132.552 Y104.65 E21.60558
G1 X132.851 Y105.262 E21.62823
G1 X133.076 Y105.904 E21.65086
G1 X133.225 Y106.569 E21.67352
G1 X133.3 Y107.5 E21.70459
G1 X133.3 Y127.5 E22.36979
G1 X133.26 Y128.18 E22.39245
G1 X133.141 Y128.85 E22.41508
G1 X132.944 Y129.502 E22.43773
G1 X132.672 Y130.126 E22.46037
G1 X132.328 Y130.714 E22.48303
G1 X131.918 Y131.258 E22.50569
G1 X131.447 Y131.749 E22.52832
G1 X130.922 Y132.183 E22.55097
G1 X130.35 Y132.552 E22.57361
G1 X129.738 Y132.851 E22.59627
G1 X129.096 Y133.076 E22.6189
G1 X128.431 Y133.225 E22.64156
G1 X127.5 Y133.3 E22.67263
G1 X107.5 Y133.3 E23.33783
G1 X106.82 Y133.26 E23.36049
G1 X106.15 Y133.141 E23.38312
G1 X105.498 Y132.944 E23.40577
G1 X104.874 Y132.672 E23.42841
G1 X104.286 Y132.328 E23.45107
G1 X103.742 Y131.918 E23.47373
G1 X103.251 Y131.447 E23.49636
G1 X102.817 Y130.922 E23.51901
G1 X102.448 Y130.35 E23.54165
G1 X102.149 Y129.738 E23.56431
G1 X101.924 Y129.096 E23.58693
G1 X101.775 Y128.431 E23.6096
G1 X101.7 Y127.5 E23.64067
G1 X101.7 Y107.5 E24.30587
G1 X101.74 Y106.82 E24.32852
G1 X101.859 Y106.15 E24.35116
G1 X102.056 Y105.498 E24.37381
G1 X102.328 Y104.874 E24.39645
G1 X102.672 Y104.286 E24.41911
G1 X103.082 Y103.742 E24.44177
G1 X103.553 Y103.251 E24.4644
G1 X104.078 Y102.817 E24.48705
G0 F6000 X104.465 Y103.034
G1 F1200 X105.029 Y102.698 E24.50889
G1 X105.631 Y102.434 E24.53075
G1 X106.26 Y102.244 E24.55261
G1 X106.907 Y102.133 E24.57444
G1 X107.5 Y102.1 E24.59419
G1 X127.5 Y102.1 E25.2594
G1 X128.156 Y102.14 E25.28125
G1 X128.802 Y102.259 E25.3031
G1 X129.429 Y102.456 E25.32496
G1 X130.027 Y102.728 E25.34681
G1 X130.588 Y103.07 E25.36866
G1 X131.103 Y103.478 E25.39052
G1 X131.565 Y103.945 E25.41237
G1 X131.966 Y104.465 E25.43421
G1 X132.302 Y105.029 E25.45604
G1 X132.566 Y105.631 E25.47791
G1 X132.756 Y106.26 E25.49976
G1 X132.867 Y106.907 E25.52159
G1 X132.9 Y107.5 E25.54135
G1 X132.9 Y127.5 E26.20655
G1 X132.86 Y128.156 E26.22841
G1 X132.741 Y128.802 E26.25026
G1 X132.544 Y129.429 E26.27212
G1 X132.272 Y130.027 E26.29397
G1 X131.93 Y130.588 E26.31582
G1 X131.522 Y131.103 E26.33767
G1 X131.055 Y131.565 E26.35952
G1 X130.535 Y131.966 E26.38136
G1 X129.971 Y132.302 E26.4032
G1 X129.369 Y132.566 E26.42506
G1 X128.74 Y132.756 E26.44691
G1 X128.093 Y132.867 E26.46875
G1 X127.5 Y132.9 E26.4885
G1 X107.5 Y132.9 E27.1537
G1 X106.844 Y132.86 E27.17556
G1 X106.198 Y132.741 E27.19741
G1 X105.571 Y132.544 E27.21927
G1 X104.973 Y132.272 E27.24112
G1 X104.412 Y131.93 E27.26297
G1 X103.897 Y131.522 E27.28483
G1 X103.435 Y131.055 E27.30668
G1 X103.034 Y130.535 E27.32852
G1 X102.698 Y129.971 E27.35035
G1 X102.434 Y129.369 E27.37221
G1 X102.244 Y128.74 E27.39407
G1 X102.133 Y128.093 E27.4159
G1 X102.1 Y127.5 E27.43566
G1 X102.1 Y107.5 E28.10086
G1 X102.14 Y106.844 E28.12272
G1 X102.259 Y106.198 E28.14457
G1 X102.456 Y105.571 E28.16642
G1 X102.728 Y104.973 E28.18828
G1 X103.07 Y104.412 E28.21013
G1 X103.478 Y103.897 E28.23198
G1 X103.945 Y103.435 E28.25383
G1 X104.465 Y103.034 E28.27567
G0 F6000 X104.85 Y103.26
G1 F1200 X105.406 Y102.96 E28.29668
G1 X105.995 Y102.732 E28.31769
G1 X106.609 Y102.58 E28.33873
G1 X107.5 Y102.5 E28.36848
G1 X127.5 Y102.5 E29.03369
G1 X128.131 Y102.54 E29.05471
G1 X128.752 Y102.659 E29.07574
G1 X129.352 Y102.856 E29.09675
G1 X129.924 Y103.127 E29.1178
G1 X130.456 Y103.467 E29.1388
G1 X130.941 Y103.873 E29.15984
G1 X131.371 Y104.336 E29.18085
G1 X131.74 Y104.85 E29.2019
G1 X132.04 Y105.406 E29.22291
G1 X132.268 Y105.995 E29.24392
G1 X132.42 Y106.609 E29.26496
G1 X132.5 Y107.5 E29.29471
G1 X132.5 Y127.5 E29.95991
G1 X132.46 Y128.131 E29.98094
G1 X132.341 Y128.752 E30.00197
G1 X132.144 Y129.352 E30.02298
G1 X131.873 Y129.924 E30.04403
G1 X131.533 Y130.456 E30.06503
G1 X131.127 Y130.941 E30.08607
G1 X130.664 Y131.371 E30.10708
G1 X130.15 Y131.74 E30.12813
G1 X129.594 Y132.04 E30.14914
G1 X129.005 Y132.268 E30.17015
G1 X128.391 Y132.42 E30.19118
G1 X127.5 Y132.5 E30.22094
G1 X107.5 Y132.5 E30.88614
G1 X106.869 Y132.46 E30.90717
G1 X106.248 Y132.341 E30.9282
G1 X105.648 Y132.144 E30.9492
G1 X105.076 Y131.873 E30.97026
G1 X104.544 Y131.533 E30.99126
G1 X104.059 Y131.127 E31.01229
G1 X103.629 Y130.664 E31.03331
G1 X103.26 Y130.15 E31.05435
G1 X102.96 Y129.594 E31.07537
G1 X102.732 Y129.005 E31.09637
G1 X102.58 Y128.391 E31.11741
G1 X102.5 Y127.5 E31.14717
G1 X102.5 Y107.5 E31.81237
G1 X102.54 Y106.869 E31.8334
G1 X102.659 Y106.248 E31.85443
G1 X102.856 Y105.648 E31.87543
G1 X103.127 Y105.076 E31.89648
G1 X103.467 Y104.544 E31.91748
G1 X103.873 Y104.059 E31.93852
G1 X104.336 Y103.629 E31.95954
G1 X104.85 Y103.26 E31.98058
G0 F6000 X105.232 Y103.498
G1 F1200 X105.778 Y103.234 E32.00075
G1 X106.354 Y103.045 E32.02092
G1 X106.95 Y102.933 E32.04109
G1 X107.5 Y102.9 E32.05941
G1 X127.5 Y102.9 E32.72462
G1 X128.105 Y102.94 E32.74478
G1 X128.699 Y103.059 E32.76493
G1 X129.273 Y103.255 E32.7851
G1 X129.816 Y103.526 E32.80529
G1 X130.319 Y103.865 E32.82546
G1 X130.772 Y104.267 E32.84561
G1 X131.169 Y104.725 E32.86577
G1 X131.502 Y105.232 E32.88594
G1 X131.766 Y105.778 E32.90611
G1 X131.955 Y106.354 E32.92628
G1 X132.067 Y106.95 E32.94645
G1 X132.1 Y107.5 E32.96477
G1 X132.1 Y127.5 E33.62998
