;FLAVOR:Marlin
;TIME:1658
;Filament used: 1.43334m
;Layer height: 0.28
;MINX:99.7
;MINY:99.7
;MINZ:0.28
;MAXX:135.3
;MAXY:135.3
;MAXZ:19.88
;Generated with Cura_SteamEngine 5.2.0
M140 S70
M105
M190 S70
M104 S200
M105
M109 S200
M82 ;absolute extrusion mode
; Ender 3 Custom Start G-code
G92 E0 ; Reset Extruder
G28 ; Home all axes
G1 Z2.0 F3000 ; Move Z Axis up little to prevent scratching of Heat Bed
G1 X0.1 Y20 Z0.3 F5000.0 ; Move to start position
G1 X0.1 Y200.0 Z0.3 F1500.0 E15 ; Draw the first line
G1 X0.4 Y200.0 Z0.3 F5000.0 ; Move to side a little
G1 X0.4 Y20 Z0.3 F1500.0 E30 ; Draw the second line
G92 E0 ; Reset Extruder
G1 Z2.0 F3000 ; Move Z Axis up little to prevent scratching of Heat Bed
G1 X5 Y20 Z0.3 F5000.0 ; Move over to prevent blob squish
G92 E0
G92 E0
G1 F2700 E-5
;LAYER_COUNT:71
;LAYER:0
M107
G0 F6000 X102.123 Y101.849 Z0.28
;TYPE:SKIRT
G1 F2700 E0
G1 F1200 X102.722 Y101.334 E0.03678
G1 X103.37 Y100.883 E0.07355
G1 X104.061 Y100.499 E0.11036
G1 X104.786 Y100.187 E0.14711
G1 X105.539 Y99.95 E0.18387
G1 X106.313 Y99.791 E0.22066
G1 X107.098 Y99.71 E0.25741
G1 X107.5 Y99.7 E0.27613
G1 X127.5 Y99.7 E1.20742
G1 X128.289 Y99.74 E1.2442
G1 X129.069 Y99.859 E1.28094
G1 X129.834 Y100.057 E1.31774
G1 X130.574 Y100.331 E1.35448
G1 X131.283 Y100.679 E1.39126
G1 X131.954 Y101.097 E1.42807
G1 X132.578 Y101.58 E1.46481
G1 X133.151 Y102.123 E1.50157
G1 X133.666 Y102.722 E1.53835
G1 X134.117 Y103.37 E1.57512
G1 X134.501 Y104.061 E1.61193
G1 X134.813 Y104.786 E1.64868
G1 X135.05 Y105.539 E1.68544
G1 X135.209 Y106.313 E1.72223
G1 X135.29 Y107.098 E1.75898
G1 X135.3 Y107.5 E1.7777
G1 X135.3 Y127.5 E2.70899
G1 X135.26 Y128.289 E2.74577
G1 X135.141 Y129.069 E2.78251
G1 X134.943 Y129.834 E2.81931
G1 X134.669 Y130.574 E2.85605
G1 X134.321 Y131.283 E2.89283
G1 X133.903 Y131.954 E2.92964
G1 X133.42 Y132.578 E2.96638
G1 X132.877 Y133.151 E3.00314
G1 X132.278 Y133.666 E3.03993
G1 X131.63 Y134.117 E3.07669
G1 X130.939 Y134.501 E3.1135
G1 X130.214 Y134.813 E3.15025
G1 X129.461 Y135.05 E3.18701
G1 X128.687 Y135.209 E3.2238
G1 X127.902 Y135.29 E3.26055
G1 X127.5 Y135.3 E3.27927
G1 X107.5 Y135.3 E4.21056
G1 X106.711 Y135.26 E4.24734
G1 X105.931 Y135.141 E4.28408
G1 X105.166 Y134.943 E4.32088
G1 X104.426 Y134.669 E4.35762
G1 X103.717 Y134.321 E4.3944
G1 X103.046 Y133.903 E4.43121
G1 X102.422 Y133.42 E4.46795
G1 X101.849 Y132.877 E4.50471
G1 X101.334 Y132.278 E4.5415
G1 X100.883 Y131.63 E4.57826
G1 X100.499 Y130.939 E4.61507
G1 X100.187 Y130.214 E4.65182
G1 X99.95 Y129.461 E4.68858
G1 X99.791 Y128.687 E4.72537
G1 X99.71 Y127.902 E4.76212
G1 X99.7 Y127.5 E4.78084
G1 X99.7 Y107.5 E5.71213
G1 X99.74 Y106.711 E5.74892
G1 X99.859 Y105.931 E5.78566
G1 X100.057 Y105.166 E5.82245
G1 X100.331 Y104.426 E5.85919
G1 X100.679 Y103.717 E5.89597
G1 X101.097 Y103.046 E5.93278
G1 X101.58 Y102.422 E5.96953
G1 X102.123 Y101.849 E6.00628
G0 F6000 X102.516 Y102.03
G1 F1200 X103.111 Y101.542 E6.04212
G1 X103.753 Y101.119 E6.07792
G1 X104.436 Y100.764 E6.11376
G1 X105.151 Y100.483 E6.14953
G1 X105.893 Y100.277 E6.18539
G1 X106.651 Y100.149 E6.22118
G1 X107.5 Y100.1 E6.26078
G1 X127.5 Y100.1 E7.19207
G1 X128.268 Y100.14 E7.22788
G1 X129.028 Y100.259 E7.2637
G1 X129.771 Y100.457 E7.2995
G1 X130.49 Y100.731 E7.33533
G1 X131.176 Y101.078 E7.37113
G1 X131.823 Y101.494 E7.40694
G1 X132.423 Y101.975 E7.44275
G1 X132.97 Y102.516 E7.47857
G1 X133.458 Y103.111 E7.51441
G1 X133.881 Y103.753 E7.55021
G1 X134.236 Y104.436 E7.58605
G1 X134.517 Y105.151 E7.62182
G1 X134.723 Y105.893 E7.65768
G1 X134.851 Y106.651 E7.69347
G1 X134.9 Y107.5 E7.73307
G1 X134.9 Y127.5 E8.66436
G1 X134.86 Y128.268 E8.70017
G1 X134.741 Y129.028 E8.73599
G1 X134.543 Y129.771 E8.77179
G1 X134.269 Y130.49 E8.80762
G1 X133.922 Y131.176 E8.84342
G1 X133.506 Y131.823 E8.87923
G1 X133.025 Y132.423 E8.91504
G1 X132.484 Y132.97 E8.95087
G1 X131.889 Y133.458 E8.9867
G1 X131.247 Y133.881 E9.0225
G1 X130.564 Y134.236 E9.05834
G1 X129.849 Y134.517 E9.09411
G1 X129.107 Y134.723 E9.12997
G1 X128.349 Y134.851 E9.16577
G1 X127.5 Y134.9 E9.20536
G1 X107.5 Y134.9 E10.13665
G1 X106.732 Y134.86 E10.17246
G1 X105.972 Y134.741 E10.20828
G1 X105.229 Y134.543 E10.24408
G1 X104.51 Y134.269 E10.27991
G1 X103.824 Y133.922 E10.31571
G1 X103.177 Y133.506 E10.35153
G1 X102.577 Y133.025 E10.38733
G1 X102.03 Y132.484 E10.42316
G1 X101.542 Y131.889 E10.45899
G1 X101.119 Y131.247 E10.49479
G1 X100.764 Y130.564 E10.53063
G1 X100.483 Y129.849 E10.5664
G1 X100.277 Y129.107 E10.60226
G1 X100.149 Y128.349 E10.63806
G1 X100.1 Y127.5 E10.67766
G1 X100.1 Y107.5 E11.60894
G1 X100.14 Y106.732 E11.64475
G1 X100.259 Y105.972 E11.68057
G1 X100.457 Y105.229 E11.71637
G1 X100.731 Y104.51 E11.7522
G1 X101.078 Y103.824 E11.788
G1 X101.494 Y103.177 E11.82382
G1 X101.975 Y102.577 E11.85962
G1 X102.516 Y102.03 E11.89545
G0 F6000 X102.908 Y102.216
G1 F1200 X103.498 Y101.757 E11.93026
G1 X104.134 Y101.362 E11.96512
G1 X104.808 Y101.038 E11.99994
G1 X105.513 Y100.788 E12.03477
G1 X106.241 Y100.614 E12.06962
G1 X106.983 Y100.519 E12.10446
G1 X107.5 Y100.5 E12.12855
G1 X127.5 Y100.5 E13.05983
G1 X128.247 Y100.54 E13.09466
G1 X128.985 Y100.659 E13.12947
G1 X129.707 Y100.857 E13.16433
G1 X130.403 Y101.13 E13.19914
G1 X131.066 Y101.477 E13.23399
G1 X131.689 Y101.892 E13.26885
G1 X132.263 Y102.371 E13.30366
G1 X132.784 Y102.908 E13.3385
G1 X133.243 Y103.498 E13.3733
G1 X133.638 Y104.134 E13.40817
G1 X133.962 Y104.808 E13.44299
G1 X134.212 Y105.513 E13.47782
G1 X134.386 Y106.241 E13.51267
G1 X134.481 Y106.983 E13.54751
G1 X134.5 Y107.5 E13.5716
G1 X134.5 Y127.5 E14.50288
G1 X134.46 Y128.247 E14.53771
G1 X134.341 Y128.985 E14.57252
G1 X134.143 Y129.707 E14.60738
G1 X133.87 Y130.403 E14.64219
G1 X133.523 Y131.066 E14.67704
G1 X133.108 Y131.689 E14.7119
G1 X132.629 Y132.263 E14.74671
G1 X132.092 Y132.784 E14.78155
G1 X131.502 Y133.243 E14.81635
G1 X130.866 Y133.638 E14.85122
G1 X130.192 Y133.962 E14.88604
G1 X129.487 Y134.212 E14.92087
G1 X128.759 Y134.386 E14.95572
G1 X128.017 Y134.481 E14.99055
G1 X127.5 Y134.5 E15.01464
G1 X107.5 Y134.5 E15.94593
G1 X106.753 Y134.46 E15.98076
G1 X106.015 Y134.341 E16.01557
G1 X105.293 Y134.143 E16.05043
G1 X104.597 Y133.87 E16.08524
G1 X103.934 Y133.523 E16.12009
G1 X103.311 Y133.108 E16.15494
G1 X102.737 Y132.629 E16.18976
G1 X102.216 Y132.092 E16.2246
G1 X101.757 Y131.502 E16.2594
G1 X101.362 Y130.866 E16.29426
G1 X101.038 Y130.192 E16.32909
G1 X100.788 Y129.487 E16.36392
G1 X100.614 Y128.759 E16.39877
G1 X100.519 Y128.017 E16.4336
G1 X100.5 Y127.5 E16.45769
G1 X100.5 Y107.5 E17.38898
G1 X100.54 Y106.753 E17.42381
G1 X100.659 Y106.015 E17.45862
G1 X100.857 Y105.293 E17.49348
G1 X101.13 Y104.597 E17.52829
G1 X101.477 Y103.934 E17.56314
G1 X101.892 Y103.311 E17.59799
G1 X102.371 Y102.737 E17.63281
G1 X102.908 Y102.216 E17.66764
G0 F6000 X103.299 Y102.409
G1 F1200 X103.884 Y101.979 E17.70145
G1 X104.513 Y101.615 E17.73529
G1 X105.178 Y101.322 E17.76913
G1 X105.871 Y101.104 E17.80296
G1 X106.583 Y100.964 E17.83675
G1 X107.5 Y100.9 E17.87955
G1 X127.5 Y100.9 E18.81083
G1 X128.225 Y100.94 E18.84464
G1 X128.942 Y101.059 E18.87849
G1 X129.641 Y101.257 E18.91232
G1 X130.314 Y101.53 E18.94613
G1 X130.953 Y101.875 E18.97995
G1 X131.55 Y102.289 E19.01378
G1 X132.098 Y102.765 E19.04758
G1 X132.591 Y103.299 E19.08142
G1 X133.021 Y103.884 E19.11522
G1 X133.385 Y104.513 E19.14906
G1 X133.678 Y105.178 E19.1829
G1 X133.896 Y105.871 E19.21673
G1 X134.036 Y106.583 E19.25052
G1 X134.1 Y107.5 E19.29332
G1 X134.1 Y127.5 E20.22461
G1 X134.06 Y128.225 E20.25842
G1 X133.941 Y128.942 E20.29226
G1 X133.743 Y129.641 E20.32609
G1 X133.47 Y130.314 E20.35991
G1 X133.125 Y130.953 E20.39372
G1 X132.711 Y131.55 E20.42755
G1 X132.235 Y132.098 E20.46135
G1 X131.701 Y132.591 E20.49519
G1 X131.116 Y133.021 E20.529
G1 X130.487 Y133.385 E20.56284
G1 X129.822 Y133.678 E20.59667
G1 X129.129 Y133.896 E20.6305
G1 X128.417 Y134.036 E20.66429
G1 X127.5 Y134.1 E20.70709
G1 X107.5 Y134.1 E21.63838
G1 X106.775 Y134.06 E21.67219
G1 X106.058 Y133.941 E21.70603
G1 X105.359 Y133.743 E21.73986
G1 X104.686 Y133.47 E21.77368
G1 X104.047 Y133.125 E21.80749
G1 X103.45 Y132.711 E21.84132
G1 X102.902 Y132.235 E21.87512
G1 X102.409 Y131.701 E21.90896
G1 X101.979 Y131.116 E21.94277
G1 X101.615 Y130.487 E21.97661
G1 X101.322 Y129.822 E22.01045
G1 X101.104 Y129.129 E22.04427
G1 X100.964 Y128.417 E22.07806
G1 X100.9 Y127.5 E22.12087
G1 X100.9 Y107.5 E23.05215
G1 X100.94 Y106.775 E23.08596
G1 X101.059 Y106.058 E23.1198
G1 X101.257 Y105.359 E23.15363
G1 X101.53 Y104.686 E23.18745
G1 X101.875 Y104.047 E23.22127
G1 X102.289 Y103.45 E23.25509
G1 X102.765 Y102.902 E23.28889
G1 X103.299 Y102.409 E23.32274
G0 F6000 X103.689 Y102.609
G1 F1200 X104.268 Y102.209 E23.3555
G1 X104.889 Y101.877 E23.38829
G1 X105.543 Y101.617 E23.42106
G1 X106.223 Y101.433 E23.45387
G1 X106.919 Y101.327 E23.48665
G1 X107.5 Y101.3 E23.51373
G1 X127.5 Y101.3 E24.44502
G1 X128.203 Y101.34 E24.4778
G1 X128.897 Y101.459 E24.51059
G1 X129.572 Y101.657 E24.54335
G1 X130.221 Y101.929 E24.57611
G1 X130.835 Y102.274 E24.60891
G1 X131.406 Y102.685 E24.64167
G1 X131.927 Y103.159 E24.67446
G1 X132.391 Y103.689 E24.70727
G1 X132.791 Y104.268 E24.74003
G1 X133.123 Y104.889 E24.77282
G1 X133.383 Y105.543 E24.80559
G1 X133.567 Y106.223 E24.8384
G1 X133.673 Y106.919 E24.87118
G1 X133.7 Y107.5 E24.89826
G1 X133.7 Y127.5 E25.82955
G1 X133.66 Y128.203 E25.86233
G1 X133.541 Y128.897 E25.89512
G1 X133.343 Y129.572 E25.92788
G1 X133.071 Y130.221 E25.96064
G1 X132.726 Y130.835 E25.99344
G1 X132.315 Y131.406 E26.0262
G1 X131.841 Y131.927 E26.05899
G1 X131.311 Y132.391 E26.0918
G1 X130.732 Y132.791 E26.12456
G1 X130.111 Y133.123 E26.15735
G1 X129.457 Y133.383 E26.19012
G1 X128.777 Y133.567 E26.22293
G1 X128.081 Y133.673 E26.25571
G1 X127.5 Y133.7 E26.28279
G1 X107.5 Y133.7 E27.21408
G1 X106.797 Y133.66 E27.24686
G1 X106.103 Y133.541 E27.27965
G1 X105.428 Y133.343 E27.31241
G1 X104.779 Y133.071 E27.34517
G1 X104.165 Y132.726 E27.37797
G1 X103.594 Y132.315 E27.41073
G1 X103.073 Y131.841 E27.44352
G1 X102.609 Y131.311 E27.47633
G1 X102.209 Y130.732 E27.50909
G1 X101.877 Y130.111 E27.54188
G1 X101.617 Y129.457 E27.57465
G1 X101.433 Y128.777 E27.60746
G1 X101.327 Y128.081 E27.64024
G1 X101.3 Y127.5 E27.66732
G1 X101.3 Y107.5 E28.59861
G1 X101.34 Y106.797 E28.63139
G1 X101.459 Y106.103 E28.66418
G1 X101.657 Y105.428 E28.69694
G1 X101.929 Y104.779 E28.7297
G1 X102.274 Y104.165 E28.7625
G1 X102.685 Y103.594 E28.79526
G1 X103.159 Y103.073 E28.82806
G1 X103.689 Y102.609 E28.86086
G0 F6000 X104.078 Y102.817
G1 F1200 X104.65 Y102.448 E28.89255
G1 X105.262 Y102.149 E28.92427
G1 X105.904 Y101.924 E28.95594
G1 X106.569 Y101.775 E28.98768
G1 X107.5 Y101.7 E29.03117
G1 X127.5 Y101.7 E29.96245
G1 X128.18 Y101.74 E29.99417
G1 X128.85 Y101.859 E30.02586
G1 X129.502 Y102.056 E30.05757
G1 X130.126 Y102.328 E30.08927
G1 X130.714 Y102.672 E30.12099
G1 X131.258 Y103.082 E30.15271
G1 X131.749 Y103.553 E30.18439
G1 X132.183 Y104.078 E30.21611
G1 X132.552 Y104.65 E30.24781
G1 X132.851 Y105.262 E30.27952
G1 X133.076 Y105.904 E30.3112
G1 X133.225 Y106.569 E30.34293
G1 X133.3 Y107.5 E30.38642
G1 X133.3 Y127.5 E31.31771
G1 X133.26 Y128.18 E31.34943
G1 X133.141 Y128.85 E31.38111
G1 X132.944 Y129.502 E31.41283
G1 X132.672 Y130.126 E31.44452
G1 X132.328 Y130.714 E31.47625
G1 X131.918 Y131.258 E31.50796
G1 X131.447 Y131.749 E31.53965
G1 X130.922 Y132.183 E31.57136
G1 X130.35 Y132.552 E31.60306
G1 X129.738 Y132.851 E31.63478
G1 X129.096 Y133.076 E31.66645
G1 X128.431 Y133.225 E31.69819
G1 X127.5 Y133.3 E31.74168
G1 X107.5 Y133.3 E32.67296
G1 X106.82 Y133.26 E32.70468
G1 X106.15 Y133.141 E32.73637
G1 X105.498 Y132.944 E32.76808
G1 X104.874 Y132.672 E32.79978
G1 X104.286 Y132.328 E32.8315
G1 X103.742 Y131.918 E32.86322
G1 X103.251 Y131.447 E32.8949
G1 X102.817 Y130.922 E32.92662
G1 X102.448 Y130.35 E32.95831
G1 X102.149 Y129.738 E32.99003
G1 X101.924 Y129.096 E33.02171
G1 X101.775 Y128.431 E33.05344
G1 X101.7 Y127.5 E33.09693
G1 X101.7 Y107.5 E34.02822
G1 X101.74 Y106.82 E34.05993
G1 X101.859 Y106.15 E34.09162
G1 X102.056 Y105.498 E34.12334
G1 X102.328 Y104.874 E34.15503
G1 X102.672 Y104.286 E34.18675
G1 X103.082 Y103.742 E34.21847
G1 X103.553 Y103.251 E34.25016
G1 X104.078 Y102.817 E34.28187
G0 F6000 X104.465 Y103.034
G1 F1200 X105.029 Y102.698 E34.31244
G1 X105.631 Y102.434 E34.34305
G1 X106.26 Y102.244 E34.37365
G1 X106.907 Y102.133 E34.40421
G1 X107.5 Y102.1 E34.43187
G1 X127.5 Y102.1 E35.36315
G1 X128.156 Y102.14 E35.39376
G1 X128.802 Y102.259 E35.42434
G1 X129.429 Y102.456 E35.45495
G1 X130.027 Y102.728 E35.48554
G1 X130.588 Y103.07 E35.51613
G1 X131.103 Y103.478 E35.54672
G1 X131.565 Y103.945 E35.57731
G1 X131.966 Y104.465 E35.60789
G1 X132.302 Y105.029 E35.63846
G1 X132.566 Y105.631 E35.66907
G1 X132.756 Y106.26 E35.69966
G1 X132.867 Y106.907 E35.73023
G1 X132.9 Y107.5 E35.75789
G1 X132.9 Y127.5 E36.68917
G1 X132.86 Y128.156 E36.71977
G1 X132.741 Y128.802 E36.75036
G1 X132.544 Y129.429 E36.78096
G1 X132.272 Y130.027 E36.81155
G1 X131.93 Y130.588 E36.84215
G1 X131.522 Y131.103 E36.87274
G1 X131.055 Y131.565 E36.90333
G1 X130.535 Y131.966 E36.93391
G1 X129.971 Y132.302 E36.96448
G1 X129.369 Y132.566 E36.99508
G1 X128.74 Y132.756 E37.02568
G1 X128.093 Y132.867 E37.05625
G1 X127.5 Y132.9 E37.0839
G1 X107.5 Y132.9 E38.01519
G1 X106.844 Y132.86 E38.04579
G1 X106.198 Y132.741 E38.07638
G1 X105.571 Y132.544 E38.10698
G1 X104.973 Y132.272 E38.13757
G1 X104.412 Y131.93 E38.16816
G1 X103.897 Y131.522 E38.19876
G1 X103.435 Y131.055 E38.22935
G1 X103.034 Y130.535 E38.25992
G1 X102.698 Y129.971 E38.29049
G1 X102.434 Y129.369 E38.3211
G1 X102.244 Y128.74 E38.3517
G1 X102.133 Y128.093 E38.38226
G1 X102.1 Y127.5 E38.40992
G1 X102.1 Y107.5 E39.3412
G1 X102.14 Y106.844 E39.37181
G1 X102.259 Y106.198 E39.40239
G1 X102.456 Y105.571 E39.43299
G1 X102.728 Y104.973 E39.46359
G1 X103.07 Y104.412 E39.49418
G1 X103.478 Y103.897 E39.52477
G1 X103.945 Y103.435 E39.55536
G1 X104.465 Y103.034 E39.58594
G0 F6000 X104.85 Y103.26
G1 F1200 X105.406 Y102.96 E39.61536
G1 X105.995 Y102.732 E39.64477
G1 X106.609 Y102.58 E39.67422
G1 X107.5 Y102.5 E39.71588
G1 X127.5 Y102.5 E40.64716
G1 X128.131 Y102.54 E40.6766
G1 X128.752 Y102.659 E40.70604
G1 X129.352 Y102.856 E40.73545
G1 X129.924 Y103.127 E40.76492
G1 X130.456 Y103.467 E40.79432
G1 X130.941 Y103.873 E40.82377
G1 X131.371 Y104.336 E40.8532
G1 X131.74 Y104.85 E40.88266
G1 X132.04 Y105.406 E40.91208
G1 X132.268 Y105.995 E40.94149
G1 X132.42 Y106.609 E40.97094
G1 X132.5 Y107.5 E41.01259
G1 X132.5 Y127.5 E41.94388
G1 X132.46 Y128.131 E41.97332
G1 X132.341 Y128.752 E42.00276
G1 X132.144 Y129.352 E42.03217
G1 X131.873 Y129.924 E42.06164
G1 X131.533 Y130.456 E42.09104
G1 X131.127 Y130.941 E42.12049
G1 X130.664 Y131.371 E42.14991
G1 X130.15 Y131.74 E42.17938
G1 X129.594 Y132.04 E42.2088
G1 X129.005 Y132.268 E42.2382
G1 X128.391 Y132.42 E42.26766
G1 X127.5 Y132.5 E42.30931
G1 X107.5 Y132.5 E43.2406
G1 X106.869 Y132.46 E43.27004
G1 X106.248 Y132.341 E43.29948
G1 X105.648 Y132.144 E43.32889
G1 X105.076 Y131.873 E43.35836
G1 X104.544 Y131.533 E43.38776
G1 X104.059 Y131.127 E43.41721
G1 X103.629 Y130.664 E43.44663
G1 X103.26 Y130.15 E43.4761
G1 X102.96 Y129.594 E43.50551
G1 X102.732 Y129.005 E43.53492
G1 X102.58 Y128.391 E43.56438
G1 X102.5 Y127.5 E43.60603
G1 X102.5 Y107.5 E44.53732
G1 X102.54 Y106.869 E44.56676
G1 X102.659 Y106.248 E44.5962
G1 X102.856 Y105.648 E44.62561
G1 X103.127 Y105.076 E44.65508
G1 X103.467 Y104.544 E44.68448
G1 X103.873 Y104.059 E44.71393
G1 X104.336 Y103.629 E44.74335
G1 X104.85 Y103.26 E44.77282
G0 F6000 X105.232 Y103.498
G1 F1200 X105.778 Y103.234 E44.80106
G1 X106.354 Y103.045 E44.82928
G1 X106.95 Y102.933 E44.85752
G1 X107.5 Y102.9 E44.88318
G1 X127.5 Y102.9 E45.81446
G1 X128.105 Y102.94 E45.84269
G1 X128.699 Y103.059 E45.8709
G1 X129.273 Y103.255 E45.89915
G1 X129.816 Y103.526 E45.9274
G1 X130.319 Y103.865 E45.95565
G1 X130.772 Y104.267 E45.98385
G1 X131.169 Y104.725 E46.01207
G1 X131.502 Y105.232 E46.04032
G1 X131.766 Y105.778 E46.06856
G1 X131.955 Y106.354 E46.09679
G1 X132.067 Y106.95 E46.12503
